P3
400 225
255
131 17 192
135 15 188
138 13 184
142 11 179
146 9 173
149 7 166
102 250 154
157 3 136
179 179 179
179 179 179
179 179 179
179 179 179
179 179 179
179 179 179
179 179 179
179 179 179
179 179 179
179 179 179
179 179 179
179 179 179
179 179 179
179 179 179
179 179 179
179 179 179
179 179 179
179 179 179
179 179 179
179 179 179
179 179 179
179 179 179
179 179 179
179 179 179
179 179 179
179 179 179
179 179 179
179 179 179
179 179 179
179 179 179
179 179 179
179 179 179
179 179 179
179 179 179
179 179 179
179 179 179
179 179 179
179 179 179
179 179 179
179 179 179
179 179 179
179 179 179
179 179 179
179 179 179
179 179 179
179 179 179
179 179 179
179 179 179
179 179 179
179 179 179
179 179 179
179 179 179
179 179 179
179 179 179
179 179 179
179 179 179
179 179 179
179 179 179
179 179 179
179 179 179
179 179 179
179 179 179
179 179 179
179 179 179
179 179 179
179 179 179
179 179 179
179 179 179
179 179 179
179 179 179
179 179 179
179 179 179
179 179 179
179 179 179
179 179 179
179 179 179
179 179 179
179 179 179
179 179 179
179 179 179
179 179 179
179 179 179
179 179 179
179 179 179
179 179 179
179 179 179
179 179 179
179 179 179
179 179 179
179 179 179
179 179 179
179 179 179
179 179 179
179 179 179
179 179 179
179 179 179
179 179 179
179 179 179
179 179 179
179 179 179
179 179 179
179 179 179
179 179 179
179 179 179
179 179 179
179 179 179
179 179 179
179 179 179
179 179 179
179 179 179
179 179 179
179 179 179
179 179 179
179 179 179
179 179 179
179 179 179
179 179 179
179 179 179
179 179 179
179 179 179
179 179 179
179 179 179
179 179 179
179 179 179
179 179 179
179 179 179
179 179 179
179 179 179
179 179 179
179 179 179
179 179 179
179 179 179
179 179 179
179 179 179
179 179 179
179 179 179
179 179 179
179 179 179
179 179 179
179 179 179
179 179 179
179 179 179
179 179 179
179 179 179
179 179 179
179 179 179
179 179 179
179 179 179
179 179 179
179 179 179
179 179 179
179 179 179
179 179 179
179 179 179
179 179 179
179 179 179
179 179 179
179 179 179
179 179 179
179 179 179
179 179 179
179 179 179
179 179 179
179 179 179
179 179 179
179 179 179
179 179 179
179 179 179
179 179 179
179 179 179
179 179 179
179 179 179
179 179 179
179 179 179
179 179 179
179 179 179
179 179 179
179 179 179
179 179 179
179 179 179
179 179 179
179 179 179
179 179 179
179 179 179
179 179 179
179 179 179
179 179 179
179 179 179
179 179 179
179 179 179
179 179 179
179 179 179
179 179 179
179 179 179
179 179 179
179 179 179
179 179 179
179 179 179
179 179 179
179 179 179
179 179 179
179 179 179
179 179 179
179 179 179
179 179 179
179 179 179
179 179 179
179 179 179
179 179 179
179 179 179
179 179 179
179 179 179
179 179 179
179 179 179
179 179 179
179 179 179
179 179 179
179 179 179
179 179 179
179 179 179
179 179 179
179 179 179
179 179 179
179 179 179
179 179 179
179 179 179
179 179 179
179 179 179
179 179 179
179 179 179
179 179 179
179 179 179
179 179 179
179 179 179
179 179 179
179 179 179
179 179 179
179 179 179
179 179 179
179 179 179
179 179 179
179 179 179
179 179 179
179 179 179
179 179 179
179 179 179
179 179 179
179 179 179
179 179 179
179 179 179
179 179 179
179 179 179
179 179 179
179 179 179
179 179 179
179 179 179
179 179 179
179 179 179
179 179 179
179 179 179
179 179 179
179 179 179
179 179 179
179 179 179
179 179 179
179 179 179
179 179 179
179 179 179
179 179 179
179 179 179
179 179 179
179 179 179
179 179 179
179 179 179
179 179 179
179 179 179
179 179 179
179 179 179
179 179 179
179 179 179
179 179 179
179 179 179
179 179 179
179 179 179
179 179 179
179 179 179
179 179 179
179 179 179
179 179 179
179 179 179
179 179 179
179 179 179
179 179 179
179 179 179
179 179 179
179 179 179
179 179 179
179 179 179
179 179 179
179 179 179
179 179 179
179 179 179
179 179 179
179 179 179
179 179 179
179 179 179
179 179 179
179 179 179
179 179 179
179 179 179
179 179 179
179 179 179
179 179 179
179 179 179
179 179 179
179 179 179
179 179 179
179 179 179
179 179 179
179 179 179
179 179 179
179 179 179
179 179 179
179 179 179
179 179 179
179 179 179
179 179 179
179 179 179
179 179 179
179 179 179
179 179 179
179 179 179
179 179 179
179 179 179
179 179 179
179 179 179
179 179 179
179 179 179
179 179 179
179 179 179
179 179 179
179 179 179
179 179 179
179 179 179
179 179 179
179 179 179
179 179 179
179 179 179
179 179 179
179 179 179
179 179 179
179 179 179
179 179 179
179 179 179
179 179 179
179 179 179
179 179 179
179 179 179
179 179 179
179 179 179
179 179 179
179 179 179
179 179 179
179 179 179
179 179 179
179 179 179
179 179 179
179 179 179
179 179 179
179 179 179
179 179 179
179 179 179
179 179 179
179 179 179
179 179 179
179 179 179
179 179 179
179 179 179
179 179 179
179 179 179
179 179 179
179 179 179
179 179 179
179 179 179
179 179 179
179 179 179
179 179 179
179 179 179
179 179 179
179 179 179
179 179 179
179 179 179
133 16 190
137 14 186
140 12 181
144 10 176
107 247 168
151 6 160
155 4 147
179 179 179
179 179 179
179 179 179
179 179 179
179 179 179
179 179 179
179 179 179
179 179 179
179 179 179
179 179 179
179 179 179
179 179 179
179 179 179
179 179 179
179 179 179
179 179 179
179 179 179
179 179 179
179 179 179
179 179 179
179 179 179
179 179 179
179 179 179
179 179 179
179 179 179
179 179 179
179 179 179
179 179 179
179 179 179
179 179 179
179 179 179
179 179 179
179 179 179
179 179 179
179 179 179
179 179 179
179 179 179
179 179 179
179 179 179
179 179 179
179 179 179
179 179 179
179 179 179
179 179 179
179 179 179
179 179 179
179 179 179
179 179 179
179 179 179
179 179 179
179 179 179
179 179 179
179 179 179
179 179 179
179 179 179
179 179 179
179 179 179
179 179 179
179 179 179
179 179 179
179 179 179
179 179 179
179 179 179
179 179 179
179 179 179
179 179 179
179 179 179
179 179 179
179 179 179
179 179 179
179 179 179
179 179 179
179 179 179
179 179 179
179 179 179
179 179 179
179 179 179
179 179 179
179 179 179
179 179 179
179 179 179
179 179 179
179 179 179
179 179 179
179 179 179
179 179 179
179 179 179
179 179 179
179 179 179
179 179 179
179 179 179
179 179 179
179 179 179
179 179 179
179 179 179
179 179 179
179 179 179
179 179 179
179 179 179
179 179 179
179 179 179
179 179 179
179 179 179
179 179 179
179 179 179
179 179 179
179 179 179
179 179 179
179 179 179
179 179 179
179 179 179
179 179 179
179 179 179
179 179 179
179 179 179
179 179 179
179 179 179
179 179 179
179 179 179
179 179 179
179 179 179
179 179 179
179 179 179
179 179 179
179 179 179
179 179 179
179 179 179
179 179 179
179 179 179
179 179 179
179 179 179
179 179 179
179 179 179
179 179 179
179 179 179
179 179 179
179 179 179
179 179 179
179 179 179
179 179 179
179 179 179
179 179 179
179 179 179
179 179 179
179 179 179
179 179 179
179 179 179
179 179 179
179 179 179
179 179 179
179 179 179
179 179 179
179 179 179
179 179 179
179 179 179
179 179 179
179 179 179
179 179 179
179 179 179
179 179 179
179 179 179
179 179 179
179 179 179
179 179 179
179 179 179
179 179 179
179 179 179
179 179 179
179 179 179
179 179 179
179 179 179
179 179 179
179 179 179
179 179 179
179 179 179
179 179 179
179 179 179
179 179 179
179 179 179
179 179 179
179 179 179
179 179 179
179 179 179
179 179 179
179 179 179
179 179 179
179 179 179
179 179 179
179 179 179
179 179 179
179 179 179
179 179 179
179 179 179
179 179 179
179 179 179
179 179 179
179 179 179
179 179 179
179 179 179
179 179 179
179 179 179
179 179 179
179 179 179
179 179 179
179 179 179
179 179 179
179 179 179
179 179 179
179 179 179
179 179 179
179 179 179
179 179 179
179 179 179
179 179 179
179 179 179
179 179 179
179 179 179
179 179 179
179 179 179
179 179 179
179 179 179
179 179 179
179 179 179
179 179 179
179 179 179
179 179 179
179 179 179
179 179 179
179 179 179
179 179 179
179 179 179
179 179 179
179 179 179
179 179 179
179 179 179
179 179 179
179 179 179
179 179 179
179 179 179
179 179 179
179 179 179
179 179 179
179 179 179
179 179 179
179 179 179
179 179 179
179 179 179
179 179 179
179 179 179
179 179 179
179 179 179
179 179 179
179 179 179
179 179 179
179 179 179
179 179 179
179 179 179
179 179 179
179 179 179
179 179 179
179 179 179
179 179 179
179 179 179
179 179 179
179 179 179
179 179 179
179 179 179
179 179 179
179 179 179
179 179 179
179 179 179
179 179 179
179 179 179
179 179 179
179 179 179
179 179 179
179 179 179
179 179 179
179 179 179
179 179 179
179 179 179
179 179 179
179 179 179
179 179 179
179 179 179
179 179 179
179 179 179
179 179 179
179 179 179
179 179 179
179 179 179
179 179 179
179 179 179
179 179 179
179 179 179
179 179 179
179 179 179
179 179 179
179 179 179
179 179 179
179 179 179
179 179 179
179 179 179
179 179 179
179 179 179
179 179 179
179 179 179
179 179 179
179 179 179
179 179 179
179 179 179
179 179 179
179 179 179
179 179 179
179 179 179
179 179 179
179 179 179
179 179 179
179 179 179
179 179 179
179 179 179
179 179 179
179 179 179
179 179 179
179 179 179
179 179 179
179 179 179
179 179 179
179 179 179
179 179 179
179 179 179
179 179 179
179 179 179
179 179 179
179 179 179
179 179 179
179 179 179
179 179 179
179 179 179
179 179 179
179 179 179
179 179 179
179 179 179
179 179 179
179 179 179
179 179 179
179 179 179
179 179 179
179 179 179
179 179 179
179 179 179
179 179 179
179 179 179
179 179 179
179 179 179
179 179 179
179 179 179
179 179 179
179 179 179
179 179 179
179 179 179
179 179 179
179 179 179
179 179 179
179 179 179
179 179 179
179 179 179
179 179 179
179 179 179
179 179 179
179 179 179
179 179 179
179 179 179
179 179 179
179 179 179
179 179 179
179 179 179
179 179 179
179 179 179
179 179 179
179 179 179
179 179 179
179 179 179
179 179 179
179 179 179
179 179 179
179 179 179
179 179 179
179 179 179
179 179 179
179 179 179
179 179 179
179 179 179
135 14 187
139 13 183
142 11 178
146 9 172
150 7 164
153 5 153
179 179 179
179 179 179
179 179 179
179 179 179
179 179 179
179 179 179
179 179 179
179 179 179
179 179 179
179 179 179
179 179 179
179 179 179
179 179 179
179 179 179
179 179 179
179 179 179
179 179 179
179 179 179
179 179 179
179 179 179
179 179 179
179 179 179
179 179 179
179 179 179
179 179 179
179 179 179
179 179 179
179 179 179
179 179 179
179 179 179
179 179 179
179 179 179
179 179 179
179 179 179
179 179 179
179 179 179
179 179 179
179 179 179
179 179 179
179 179 179
179 179 179
179 179 179
179 179 179
179 179 179
179 179 179
179 179 179
179 179 179
179 179 179
179 179 179
179 179 179
179 179 179
179 179 179
179 179 179
179 179 179
179 179 179
179 179 179
179 179 179
179 179 179
179 179 179
179 179 179
179 179 179
179 179 179
179 179 179
179 179 179
179 179 179
179 179 179
179 179 179
179 179 179
179 179 179
179 179 179
179 179 179
179 179 179
179 179 179
179 179 179
179 179 179
179 179 179
179 179 179
179 179 179
179 179 179
179 179 179
179 179 179
179 179 179
179 179 179
179 179 179
179 179 179
179 179 179
179 179 179
179 179 179
179 179 179
179 179 179
179 179 179
179 179 179
179 179 179
179 179 179
179 179 179
179 179 179
179 179 179
179 179 179
179 179 179
179 179 179
179 179 179
179 179 179
179 179 179
179 179 179
179 179 179
179 179 179
179 179 179
179 179 179
179 179 179
179 179 179
179 179 179
179 179 179
179 179 179
179 179 179
179 179 179
179 179 179
179 179 179
179 179 179
179 179 179
179 179 179
179 179 179
179 179 179
179 179 179
179 179 179
179 179 179
179 179 179
179 179 179
179 179 179
179 179 179
179 179 179
179 179 179
179 179 179
179 179 179
179 179 179
179 179 179
179 179 179
179 179 179
179 179 179
179 179 179
179 179 179
179 179 179
179 179 179
179 179 179
179 179 179
179 179 179
179 179 179
179 179 179
179 179 179
179 179 179
179 179 179
179 179 179
179 179 179
179 179 179
179 179 179
179 179 179
179 179 179
179 179 179
179 179 179
179 179 179
179 179 179
179 179 179
179 179 179
179 179 179
179 179 179
179 179 179
179 179 179
179 179 179
179 179 179
179 179 179
179 179 179
179 179 179
179 179 179
179 179 179
179 179 179
179 179 179
179 179 179
179 179 179
179 179 179
179 179 179
179 179 179
179 179 179
179 179 179
179 179 179
179 179 179
179 179 179
179 179 179
179 179 179
179 179 179
179 179 179
179 179 179
179 179 179
179 179 179
179 179 179
179 179 179
179 179 179
179 179 179
179 179 179
179 179 179
179 179 179
179 179 179
179 179 179
179 179 179
179 179 179
179 179 179
179 179 179
179 179 179
179 179 179
179 179 179
179 179 179
179 179 179
179 179 179
179 179 179
179 179 179
179 179 179
179 179 179
179 179 179
179 179 179
179 179 179
179 179 179
179 179 179
179 179 179
179 179 179
179 179 179
179 179 179
179 179 179
179 179 179
179 179 179
179 179 179
179 179 179
179 179 179
179 179 179
179 179 179
179 179 179
179 179 179
179 179 179
179 179 179
179 179 179
179 179 179
179 179 179
179 179 179
179 179 179
179 179 179
179 179 179
179 179 179
179 179 179
179 179 179
179 179 179
179 179 179
179 179 179
179 179 179
179 179 179
179 179 179
179 179 179
179 179 179
179 179 179
179 179 179
179 179 179
179 179 179
179 179 179
179 179 179
179 179 179
179 179 179
179 179 179
179 179 179
179 179 179
179 179 179
179 179 179
179 179 179
179 179 179
179 179 179
179 179 179
179 179 179
179 179 179
179 179 179
179 179 179
179 179 179
179 179 179
179 179 179
179 179 179
179 179 179
179 179 179
179 179 179
179 179 179
179 179 179
179 179 179
179 179 179
179 179 179
179 179 179
179 179 179
179 179 179
179 179 179
179 179 179
179 179 179
179 179 179
179 179 179
179 179 179
179 179 179
179 179 179
179 179 179
179 179 179
179 179 179
179 179 179
179 179 179
179 179 179
179 179 179
179 179 179
179 179 179
179 179 179
179 179 179
179 179 179
179 179 179
179 179 179
179 179 179
179 179 179
179 179 179
179 179 179
179 179 179
179 179 179
179 179 179
179 179 179
179 179 179
179 179 179
179 179 179
179 179 179
179 179 179
179 179 179
179 179 179
179 179 179
179 179 179
179 179 179
179 179 179
179 179 179
179 179 179
179 179 179
179 179 179
179 179 179
179 179 179
179 179 179
179 179 179
179 179 179
179 179 179
179 179 179
179 179 179
179 179 179
179 179 179
179 179 179
179 179 179
179 179 179
179 179 179
179 179 179
179 179 179
179 179 179
179 179 179
179 179 179
179 179 179
179 179 179
179 179 179
179 179 179
179 179 179
179 179 179
179 179 179
179 179 179
179 179 179
179 179 179
179 179 179
179 179 179
179 179 179
179 179 179
179 179 179
179 179 179
179 179 179
179 179 179
179 179 179
179 179 179
179 179 179
179 179 179
179 179 179
179 179 179
179 179 179
179 179 179
179 179 179
179 179 179
179 179 179
179 179 179
179 179 179
179 179 179
179 179 179
179 179 179
179 179 179
179 179 179
179 179 179
179 179 179
179 179 179
179 179 179
137 13 184
140 11 180
144 9 174
148 7 167
152 5 158
155 3 141
179 179 179
179 179 179
179 179 179
179 179 179
179 179 179
179 179 179
179 179 179
179 179 179
179 179 179
179 179 179
179 179 179
179 179 179
179 179 179
179 179 179
179 179 179
179 179 179
179 179 179
179 179 179
179 179 179
179 179 179
179 179 179
179 179 179
179 179 179
179 179 179
179 179 179
179 179 179
179 179 179
179 179 179
179 179 179
179 179 179
179 179 179
179 179 179
179 179 179
179 179 179
179 179 179
179 179 179
179 179 179
179 179 179
179 179 179
179 179 179
179 179 179
179 179 179
179 179 179
179 179 179
179 179 179
179 179 179
179 179 179
179 179 179
179 179 179
179 179 179
179 179 179
179 179 179
179 179 179
179 179 179
179 179 179
179 179 179
179 179 179
179 179 179
179 179 179
179 179 179
179 179 179
179 179 179
179 179 179
179 179 179
179 179 179
179 179 179
179 179 179
179 179 179
179 179 179
179 179 179
179 179 179
179 179 179
179 179 179
179 179 179
179 179 179
179 179 179
179 179 179
179 179 179
179 179 179
179 179 179
179 179 179
179 179 179
179 179 179
179 179 179
179 179 179
179 179 179
179 179 179
179 179 179
179 179 179
179 179 179
179 179 179
179 179 179
179 179 179
179 179 179
179 179 179
179 179 179
179 179 179
179 179 179
179 179 179
179 179 179
179 179 179
179 179 179
179 179 179
179 179 179
179 179 179
179 179 179
179 179 179
179 179 179
179 179 179
179 179 179
179 179 179
179 179 179
179 179 179
179 179 179
179 179 179
179 179 179
179 179 179
179 179 179
179 179 179
179 179 179
179 179 179
179 179 179
179 179 179
179 179 179
179 179 179
179 179 179
179 179 179
179 179 179
179 179 179
179 179 179
179 179 179
179 179 179
179 179 179
179 179 179
179 179 179
179 179 179
179 179 179
179 179 179
179 179 179
179 179 179
179 179 179
179 179 179
179 179 179
179 179 179
179 179 179
179 179 179
179 179 179
179 179 179
179 179 179
179 179 179
179 179 179
179 179 179
179 179 179
179 179 179
179 179 179
179 179 179
179 179 179
179 179 179
179 179 179
179 179 179
179 179 179
179 179 179
179 179 179
179 179 179
179 179 179
179 179 179
179 179 179
179 179 179
179 179 179
179 179 179
179 179 179
179 179 179
179 179 179
179 179 179
179 179 179
179 179 179
179 179 179
179 179 179
179 179 179
179 179 179
179 179 179
179 179 179
179 179 179
179 179 179
179 179 179
179 179 179
179 179 179
179 179 179
179 179 179
179 179 179
179 179 179
179 179 179
179 179 179
179 179 179
179 179 179
179 179 179
179 179 179
179 179 179
179 179 179
179 179 179
179 179 179
179 179 179
179 179 179
179 179 179
179 179 179
179 179 179
179 179 179
179 179 179
179 179 179
179 179 179
179 179 179
179 179 179
179 179 179
179 179 179
179 179 179
179 179 179
179 179 179
179 179 179
179 179 179
179 179 179
179 179 179
179 179 179
179 179 179
179 179 179
179 179 179
179 179 179
179 179 179
179 179 179
179 179 179
179 179 179
179 179 179
179 179 179
179 179 179
179 179 179
179 179 179
179 179 179
179 179 179
179 179 179
179 179 179
179 179 179
179 179 179
179 179 179
179 179 179
179 179 179
179 179 179
179 179 179
179 179 179
179 179 179
179 179 179
179 179 179
179 179 179
179 179 179
179 179 179
179 179 179
179 179 179
179 179 179
179 179 179
179 179 179
179 179 179
179 179 179
179 179 179
179 179 179
179 179 179
179 179 179
179 179 179
179 179 179
179 179 179
179 179 179
179 179 179
179 179 179
179 179 179
179 179 179
179 179 179
179 179 179
179 179 179
179 179 179
179 179 179
179 179 179
179 179 179
179 179 179
179 179 179
179 179 179
179 179 179
179 179 179
179 179 179
179 179 179
179 179 179
179 179 179
179 179 179
179 179 179
179 179 179
179 179 179
179 179 179
179 179 179
179 179 179
179 179 179
179 179 179
179 179 179
179 179 179
179 179 179
179 179 179
179 179 179
179 179 179
179 179 179
179 179 179
179 179 179
179 179 179
179 179 179
179 179 179
179 179 179
179 179 179
179 179 179
179 179 179
179 179 179
179 179 179
179 179 179
179 179 179
179 179 179
179 179 179
179 179 179
179 179 179
179 179 179
179 179 179
179 179 179
179 179 179
179 179 179
179 179 179
179 179 179
179 179 179
179 179 179
179 179 179
179 179 179
179 179 179
179 179 179
179 179 179
179 179 179
179 179 179
179 179 179
179 179 179
179 179 179
179 179 179
179 179 179
179 179 179
179 179 179
179 179 179
179 179 179
179 179 179
179 179 179
179 179 179
179 179 179
179 179 179
179 179 179
179 179 179
179 179 179
179 179 179
179 179 179
179 179 179
179 179 179
179 179 179
179 179 179
179 179 179
179 179 179
179 179 179
179 179 179
179 179 179
179 179 179
179 179 179
179 179 179
179 179 179
179 179 179
179 179 179
179 179 179
179 179 179
179 179 179
179 179 179
179 179 179
179 179 179
179 179 179
179 179 179
179 179 179
179 179 179
179 179 179
179 179 179
179 179 179
179 179 179
179 179 179
179 179 179
179 179 179
179 179 179
179 179 179
179 179 179
179 179 179
179 179 179
179 179 179
139 12 181
142 10 176
146 8 170
150 6 162
154 4 149
179 179 179
179 179 179
179 179 179
179 179 179
179 179 179
179 179 179
179 179 179
179 179 179
179 179 179
179 179 179
179 179 179
179 179 179
179 179 179
179 179 179
179 179 179
179 179 179
179 179 179
179 179 179
179 179 179
179 179 179
179 179 179
179 179 179
179 179 179
179 179 179
179 179 179
179 179 179
179 179 179
179 179 179
179 179 179
179 179 179
179 179 179
179 179 179
179 179 179
179 179 179
179 179 179
179 179 179
179 179 179
179 179 179
179 179 179
179 179 179
179 179 179
179 179 179
179 179 179
179 179 179
179 179 179
179 179 179
179 179 179
179 179 179
179 179 179
179 179 179
179 179 179
179 179 179
179 179 179
179 179 179
179 179 179
179 179 179
179 179 179
179 179 179
179 179 179
179 179 179
179 179 179
179 179 179
179 179 179
179 179 179
179 179 179
179 179 179
179 179 179
179 179 179
179 179 179
179 179 179
179 179 179
179 179 179
179 179 179
179 179 179
179 179 179
179 179 179
179 179 179
179 179 179
179 179 179
179 179 179
179 179 179
179 179 179
179 179 179
179 179 179
179 179 179
179 179 179
179 179 179
179 179 179
179 179 179
179 179 179
179 179 179
179 179 179
179 179 179
179 179 179
179 179 179
179 179 179
179 179 179
179 179 179
179 179 179
179 179 179
179 179 179
179 179 179
179 179 179
179 179 179
179 179 179
179 179 179
179 179 179
179 179 179
179 179 179
179 179 179
179 179 179
179 179 179
179 179 179
179 179 179
179 179 179
179 179 179
179 179 179
179 179 179
179 179 179
179 179 179
179 179 179
179 179 179
179 179 179
179 179 179
179 179 179
179 179 179
179 179 179
179 179 179
179 179 179
179 179 179
179 179 179
179 179 179
179 179 179
179 179 179
179 179 179
179 179 179
179 179 179
179 179 179
179 179 179
179 179 179
179 179 179
179 179 179
179 179 179
179 179 179
179 179 179
179 179 179
179 179 179
179 179 179
179 179 179
179 179 179
179 179 179
179 179 179
179 179 179
179 179 179
179 179 179
179 179 179
179 179 179
179 179 179
179 179 179
179 179 179
179 179 179
179 179 179
179 179 179
179 179 179
179 179 179
179 179 179
179 179 179
179 179 179
179 179 179
179 179 179
179 179 179
179 179 179
179 179 179
179 179 179
179 179 179
179 179 179
179 179 179
179 179 179
179 179 179
179 179 179
179 179 179
179 179 179
179 179 179
179 179 179
179 179 179
179 179 179
179 179 179
179 179 179
179 179 179
179 179 179
179 179 179
179 179 179
179 179 179
179 179 179
179 179 179
179 179 179
179 179 179
179 179 179
179 179 179
179 179 179
179 179 179
179 179 179
179 179 179
179 179 179
179 179 179
179 179 179
179 179 179
179 179 179
179 179 179
179 179 179
179 179 179
179 179 179
179 179 179
179 179 179
179 179 179
179 179 179
179 179 179
179 179 179
179 179 179
179 179 179
179 179 179
179 179 179
179 179 179
179 179 179
179 179 179
179 179 179
179 179 179
179 179 179
179 179 179
179 179 179
179 179 179
179 179 179
179 179 179
179 179 179
179 179 179
179 179 179
179 179 179
179 179 179
179 179 179
179 179 179
179 179 179
179 179 179
179 179 179
179 179 179
179 179 179
179 179 179
179 179 179
179 179 179
179 179 179
179 179 179
179 179 179
179 179 179
179 179 179
179 179 179
179 179 179
179 179 179
179 179 179
179 179 179
179 179 179
179 179 179
179 179 179
179 179 179
179 179 179
179 179 179
179 179 179
179 179 179
179 179 179
179 179 179
179 179 179
179 179 179
179 179 179
179 179 179
179 179 179
179 179 179
179 179 179
179 179 179
179 179 179
179 179 179
179 179 179
179 179 179
179 179 179
179 179 179
179 179 179
179 179 179
179 179 179
179 179 179
179 179 179
179 179 179
179 179 179
179 179 179
179 179 179
179 179 179
179 179 179
179 179 179
179 179 179
179 179 179
179 179 179
179 179 179
179 179 179
179 179 179
179 179 179
179 179 179
179 179 179
179 179 179
179 179 179
179 179 179
179 179 179
179 179 179
179 179 179
179 179 179
179 179 179
179 179 179
179 179 179
179 179 179
179 179 179
179 179 179
179 179 179
179 179 179
179 179 179
179 179 179
179 179 179
179 179 179
179 179 179
179 179 179
179 179 179
179 179 179
179 179 179
179 179 179
179 179 179
179 179 179
179 179 179
179 179 179
179 179 179
179 179 179
179 179 179
179 179 179
179 179 179
179 179 179
179 179 179
179 179 179
179 179 179
179 179 179
179 179 179
179 179 179
179 179 179
179 179 179
179 179 179
179 179 179
179 179 179
179 179 179
179 179 179
179 179 179
179 179 179
179 179 179
179 179 179
179 179 179
179 179 179
179 179 179
179 179 179
179 179 179
179 179 179
179 179 179
179 179 179
179 179 179
179 179 179
179 179 179
179 179 179
179 179 179
179 179 179
179 179 179
179 179 179
179 179 179
179 179 179
179 179 179
179 179 179
179 179 179
179 179 179
179 179 179
179 179 179
179 179 179
179 179 179
179 179 179
179 179 179
179 179 179
179 179 179
179 179 179
179 179 179
179 179 179
179 179 179
179 179 179
179 179 179
179 179 179
179 179 179
179 179 179
179 179 179
140 11 178
144 9 172
148 7 165
152 5 155
156 3 133
179 179 179
179 179 179
179 179 179
179 179 179
179 179 179
179 179 179
179 179 179
179 179 179
179 179 179
179 179 179
179 179 179
179 179 179
179 179 179
179 179 179
179 179 179
179 179 179
179 179 179
179 179 179
179 179 179
179 179 179
179 179 179
179 179 179
179 179 179
179 179 179
179 179 179
179 179 179
179 179 179
179 179 179
179 179 179
179 179 179
179 179 179
179 179 179
179 179 179
179 179 179
179 179 179
179 179 179
179 179 179
179 179 179
179 179 179
179 179 179
179 179 179
179 179 179
179 179 179
179 179 179
179 179 179
179 179 179
179 179 179
179 179 179
179 179 179
179 179 179
179 179 179
179 179 179
179 179 179
179 179 179
179 179 179
179 179 179
179 179 179
179 179 179
179 179 179
179 179 179
179 179 179
179 179 179
179 179 179
179 179 179
179 179 179
179 179 179
179 179 179
179 179 179
179 179 179
179 179 179
179 179 179
179 179 179
179 179 179
179 179 179
179 179 179
179 179 179
179 179 179
179 179 179
179 179 179
179 179 179
179 179 179
179 179 179
179 179 179
179 179 179
179 179 179
179 179 179
179 179 179
179 179 179
179 179 179
179 179 179
179 179 179
179 179 179
179 179 179
179 179 179
179 179 179
179 179 179
179 179 179
179 179 179
179 179 179
179 179 179
179 179 179
179 179 179
179 179 179
179 179 179
179 179 179
179 179 179
179 179 179
179 179 179
179 179 179
179 179 179
179 179 179
179 179 179
179 179 179
179 179 179
179 179 179
179 179 179
179 179 179
179 179 179
179 179 179
179 179 179
179 179 179
179 179 179
179 179 179
179 179 179
179 179 179
179 179 179
179 179 179
179 179 179
179 179 179
179 179 179
179 179 179
179 179 179
179 179 179
179 179 179
179 179 179
179 179 179
179 179 179
179 179 179
179 179 179
179 179 179
179 179 179
179 179 179
179 179 179
179 179 179
179 179 179
179 179 179
179 179 179
179 179 179
179 179 179
179 179 179
179 179 179
179 179 179
179 179 179
179 179 179
179 179 179
179 179 179
179 179 179
179 179 179
179 179 179
179 179 179
179 179 179
179 179 179
179 179 179
179 179 179
179 179 179
179 179 179
179 179 179
179 179 179
179 179 179
179 179 179
179 179 179
179 179 179
179 179 179
179 179 179
179 179 179
179 179 179
179 179 179
179 179 179
179 179 179
179 179 179
179 179 179
179 179 179
179 179 179
179 179 179
179 179 179
179 179 179
179 179 179
179 179 179
179 179 179
179 179 179
179 179 179
179 179 179
179 179 179
179 179 179
179 179 179
179 179 179
179 179 179
179 179 179
179 179 179
179 179 179
179 179 179
179 179 179
179 179 179
179 179 179
179 179 179
179 179 179
179 179 179
179 179 179
179 179 179
179 179 179
179 179 179
179 179 179
179 179 179
179 179 179
179 179 179
179 179 179
179 179 179
179 179 179
179 179 179
179 179 179
179 179 179
179 179 179
179 179 179
179 179 179
179 179 179
179 179 179
179 179 179
179 179 179
179 179 179
179 179 179
179 179 179
179 179 179
179 179 179
179 179 179
179 179 179
179 179 179
179 179 179
179 179 179
179 179 179
179 179 179
179 179 179
179 179 179
179 179 179
179 179 179
179 179 179
179 179 179
179 179 179
179 179 179
179 179 179
179 179 179
179 179 179
179 179 179
179 179 179
179 179 179
179 179 179
179 179 179
179 179 179
179 179 179
179 179 179
179 179 179
179 179 179
179 179 179
179 179 179
179 179 179
179 179 179
179 179 179
179 179 179
179 179 179
179 179 179
179 179 179
179 179 179
179 179 179
179 179 179
179 179 179
179 179 179
179 179 179
179 179 179
179 179 179
179 179 179
179 179 179
179 179 179
179 179 179
179 179 179
179 179 179
179 179 179
179 179 179
179 179 179
179 179 179
179 179 179
179 179 179
179 179 179
179 179 179
179 179 179
179 179 179
179 179 179
179 179 179
179 179 179
179 179 179
179 179 179
179 179 179
179 179 179
179 179 179
179 179 179
179 179 179
179 179 179
179 179 179
179 179 179
179 179 179
179 179 179
179 179 179
179 179 179
179 179 179
179 179 179
179 179 179
179 179 179
179 179 179
179 179 179
179 179 179
179 179 179
179 179 179
179 179 179
179 179 179
179 179 179
179 179 179
179 179 179
179 179 179
179 179 179
179 179 179
179 179 179
179 179 179
179 179 179
179 179 179
179 179 179
179 179 179
179 179 179
179 179 179
179 179 179
179 179 179
179 179 179
179 179 179
179 179 179
179 179 179
179 179 179
179 179 179
179 179 179
179 179 179
179 179 179
179 179 179
179 179 179
179 179 179
179 179 179
179 179 179
179 179 179
179 179 179
179 179 179
179 179 179
179 179 179
179 179 179
179 179 179
179 179 179
179 179 179
179 179 179
179 179 179
179 179 179
179 179 179
179 179 179
179 179 179
179 179 179
179 179 179
179 179 179
179 179 179
179 179 179
179 179 179
179 179 179
179 179 179
179 179 179
179 179 179
179 179 179
179 179 179
179 179 179
179 179 179
179 179 179
179 179 179
179 179 179
179 179 179
179 179 179
179 179 179
179 179 179
179 179 179
179 179 179
179 179 179
179 179 179
179 179 179
179 179 179
179 179 179
142 9 175
146 8 168
150 6 159
154 4 146
179 179 179
179 179 179
179 179 179
179 179 179
179 179 179
179 179 179
179 179 179
179 179 179
179 179 179
179 179 179
179 179 179
179 179 179
179 179 179
179 179 179
179 179 179
179 179 179
179 179 179
179 179 179
179 179 179
179 179 179
179 179 179
179 179 179
179 179 179
179 179 179
179 179 179
179 179 179
179 179 179
179 179 179
179 179 179
179 179 179
179 179 179
179 179 179
179 179 179
179 179 179
179 179 179
179 179 179
179 179 179
179 179 179
179 179 179
179 179 179
179 179 179
179 179 179
179 179 179
179 179 179
179 179 179
179 179 179
179 179 179
179 179 179
179 179 179
179 179 179
179 179 179
179 179 179
179 179 179
179 179 179
179 179 179
179 179 179
179 179 179
179 179 179
179 179 179
179 179 179
179 179 179
179 179 179
179 179 179
179 179 179
179 179 179
179 179 179
179 179 179
179 179 179
179 179 179
179 179 179
179 179 179
179 179 179
179 179 179
179 179 179
179 179 179
179 179 179
179 179 179
179 179 179
179 179 179
179 179 179
179 179 179
179 179 179
179 179 179
179 179 179
179 179 179
179 179 179
179 179 179
179 179 179
179 179 179
179 179 179
179 179 179
179 179 179
179 179 179
179 179 179
179 179 179
179 179 179
179 179 179
179 179 179
179 179 179
179 179 179
179 179 179
179 179 179
179 179 179
179 179 179
179 179 179
179 179 179
179 179 179
179 179 179
179 179 179
179 179 179
179 179 179
179 179 179
179 179 179
179 179 179
179 179 179
179 179 179
179 179 179
179 179 179
179 179 179
179 179 179
179 179 179
179 179 179
179 179 179
179 179 179
179 179 179
179 179 179
179 179 179
179 179 179
179 179 179
179 179 179
179 179 179
179 179 179
179 179 179
179 179 179
179 179 179
179 179 179
179 179 179
179 179 179
179 179 179
179 179 179
179 179 179
179 179 179
179 179 179
179 179 179
179 179 179
179 179 179
179 179 179
179 179 179
179 179 179
179 179 179
179 179 179
179 179 179
179 179 179
179 179 179
179 179 179
179 179 179
179 179 179
179 179 179
179 179 179
179 179 179
179 179 179
179 179 179
179 179 179
179 179 179
179 179 179
179 179 179
179 179 179
179 179 179
179 179 179
179 179 179
179 179 179
179 179 179
179 179 179
179 179 179
179 179 179
179 179 179
179 179 179
179 179 179
179 179 179
179 179 179
179 179 179
179 179 179
179 179 179
179 179 179
179 179 179
0 0 0
0 0 0
0 0 0
0 0 0
0 0 0
0 0 0
0 0 0
0 0 0
0 0 0
0 0 0
0 0 0
0 0 0
0 0 0
0 0 0
0 0 0
0 0 0
0 0 0
0 0 0
0 0 0
0 0 0
0 0 0
0 0 0
179 179 179
179 179 179
179 179 179
179 179 179
179 179 179
179 179 179
179 179 179
179 179 179
179 179 179
179 179 179
179 179 179
179 179 179
179 179 179
179 179 179
179 179 179
179 179 179
179 179 179
179 179 179
179 179 179
179 179 179
179 179 179
179 179 179
179 179 179
179 179 179
179 179 179
179 179 179
179 179 179
179 179 179
179 179 179
179 179 179
179 179 179
179 179 179
179 179 179
179 179 179
179 179 179
179 179 179
179 179 179
179 179 179
179 179 179
179 179 179
179 179 179
179 179 179
179 179 179
179 179 179
179 179 179
179 179 179
179 179 179
179 179 179
179 179 179
179 179 179
179 179 179
179 179 179
179 179 179
179 179 179
179 179 179
179 179 179
179 179 179
179 179 179
179 179 179
179 179 179
179 179 179
179 179 179
179 179 179
179 179 179
179 179 179
179 179 179
179 179 179
179 179 179
179 179 179
179 179 179
179 179 179
179 179 179
179 179 179
179 179 179
179 179 179
179 179 179
179 179 179
179 179 179
179 179 179
179 179 179
179 179 179
179 179 179
179 179 179
179 179 179
179 179 179
179 179 179
179 179 179
179 179 179
179 179 179
179 179 179
179 179 179
179 179 179
179 179 179
179 179 179
179 179 179
179 179 179
179 179 179
179 179 179
179 179 179
179 179 179
179 179 179
179 179 179
179 179 179
179 179 179
179 179 179
179 179 179
179 179 179
179 179 179
179 179 179
179 179 179
179 179 179
179 179 179
179 179 179
179 179 179
179 179 179
179 179 179
179 179 179
179 179 179
179 179 179
179 179 179
179 179 179
179 179 179
179 179 179
179 179 179
179 179 179
179 179 179
179 179 179
179 179 179
179 179 179
179 179 179
179 179 179
179 179 179
179 179 179
179 179 179
179 179 179
179 179 179
179 179 179
179 179 179
179 179 179
179 179 179
179 179 179
179 179 179
179 179 179
179 179 179
179 179 179
179 179 179
179 179 179
179 179 179
179 179 179
179 179 179
179 179 179
179 179 179
179 179 179
179 179 179
179 179 179
179 179 179
179 179 179
179 179 179
179 179 179
179 179 179
179 179 179
179 179 179
179 179 179
179 179 179
179 179 179
179 179 179
179 179 179
179 179 179
179 179 179
179 179 179
179 179 179
179 179 179
179 179 179
179 179 179
179 179 179
179 179 179
179 179 179
179 179 179
179 179 179
179 179 179
179 179 179
179 179 179
179 179 179
179 179 179
179 179 179
179 179 179
179 179 179
179 179 179
179 179 179
144 8 171
148 6 163
152 4 153
179 179 179
179 179 179
179 179 179
179 179 179
179 179 179
179 179 179
179 179 179
179 179 179
179 179 179
179 179 179
179 179 179
179 179 179
179 179 179
179 179 179
179 179 179
179 179 179
179 179 179
179 179 179
179 179 179
179 179 179
179 179 179
179 179 179
179 179 179
179 179 179
179 179 179
179 179 179
179 179 179
179 179 179
179 179 179
179 179 179
179 179 179
179 179 179
179 179 179
179 179 179
179 179 179
179 179 179
179 179 179
179 179 179
179 179 179
179 179 179
179 179 179
179 179 179
179 179 179
179 179 179
179 179 179
179 179 179
179 179 179
179 179 179
179 179 179
179 179 179
179 179 179
179 179 179
179 179 179
179 179 179
179 179 179
179 179 179
179 179 179
179 179 179
179 179 179
179 179 179
179 179 179
179 179 179
179 179 179
179 179 179
179 179 179
179 179 179
179 179 179
179 179 179
179 179 179
179 179 179
179 179 179
179 179 179
179 179 179
179 179 179
179 179 179
179 179 179
179 179 179
179 179 179
179 179 179
179 179 179
179 179 179
179 179 179
179 179 179
179 179 179
179 179 179
179 179 179
179 179 179
179 179 179
179 179 179
179 179 179
179 179 179
179 179 179
179 179 179
179 179 179
179 179 179
179 179 179
179 179 179
179 179 179
179 179 179
179 179 179
179 179 179
179 179 179
179 179 179
179 179 179
179 179 179
179 179 179
179 179 179
179 179 179
179 179 179
179 179 179
179 179 179
179 179 179
179 179 179
179 179 179
179 179 179
179 179 179
179 179 179
179 179 179
179 179 179
179 179 179
179 179 179
179 179 179
179 179 179
179 179 179
179 179 179
179 179 179
179 179 179
179 179 179
179 179 179
179 179 179
179 179 179
179 179 179
179 179 179
179 179 179
179 179 179
179 179 179
179 179 179
179 179 179
179 179 179
179 179 179
179 179 179
179 179 179
179 179 179
179 179 179
179 179 179
179 179 179
179 179 179
179 179 179
179 179 179
179 179 179
179 179 179
179 179 179
179 179 179
179 179 179
179 179 179
179 179 179
179 179 179
179 179 179
179 179 179
179 179 179
179 179 179
179 179 179
179 179 179
179 179 179
179 179 179
179 179 179
179 179 179
179 179 179
179 179 179
179 179 179
179 179 179
179 179 179
179 179 179
179 179 179
179 179 179
179 179 179
179 179 179
179 179 179
179 179 179
0 0 0
0 0 0
0 0 0
0 0 0
0 0 0
0 0 0
0 0 0
0 0 0
0 0 0
0 0 0
0 0 0
0 0 0
0 0 0
0 0 0
0 0 0
0 0 0
0 0 0
0 0 0
0 0 0
0 0 0
0 0 0
0 0 0
0 0 0
0 0 0
0 0 0
0 0 0
0 0 0
0 0 0
0 0 0
0 0 0
0 0 0
0 0 0
0 0 0
0 0 0
0 0 0
0 0 0
179 179 179
179 179 179
179 179 179
179 179 179
179 179 179
179 179 179
179 179 179
179 179 179
179 179 179
179 179 179
179 179 179
179 179 179
179 179 179
179 179 179
179 179 179
179 179 179
179 179 179
179 179 179
179 179 179
179 179 179
179 179 179
179 179 179
179 179 179
179 179 179
179 179 179
179 179 179
179 179 179
179 179 179
179 179 179
179 179 179
179 179 179
179 179 179
179 179 179
179 179 179
179 179 179
179 179 179
179 179 179
179 179 179
179 179 179
179 179 179
179 179 179
179 179 179
179 179 179
179 179 179
179 179 179
179 179 179
179 179 179
179 179 179
179 179 179
179 179 179
179 179 179
179 179 179
179 179 179
179 179 179
179 179 179
179 179 179
179 179 179
179 179 179
179 179 179
179 179 179
179 179 179
179 179 179
179 179 179
179 179 179
179 179 179
179 179 179
179 179 179
179 179 179
179 179 179
179 179 179
179 179 179
179 179 179
179 179 179
179 179 179
179 179 179
179 179 179
179 179 179
179 179 179
179 179 179
179 179 179
179 179 179
179 179 179
179 179 179
179 179 179
179 179 179
179 179 179
179 179 179
179 179 179
179 179 179
179 179 179
179 179 179
179 179 179
179 179 179
179 179 179
179 179 179
179 179 179
179 179 179
179 179 179
179 179 179
179 179 179
179 179 179
179 179 179
179 179 179
179 179 179
179 179 179
179 179 179
179 179 179
179 179 179
179 179 179
179 179 179
179 179 179
179 179 179
179 179 179
179 179 179
179 179 179
179 179 179
179 179 179
179 179 179
179 179 179
179 179 179
179 179 179
179 179 179
179 179 179
179 179 179
179 179 179
179 179 179
179 179 179
179 179 179
179 179 179
179 179 179
179 179 179
179 179 179
179 179 179
179 179 179
179 179 179
179 179 179
179 179 179
179 179 179
179 179 179
179 179 179
179 179 179
179 179 179
179 179 179
179 179 179
179 179 179
179 179 179
179 179 179
179 179 179
179 179 179
179 179 179
179 179 179
179 179 179
179 179 179
179 179 179
179 179 179
179 179 179
179 179 179
179 179 179
179 179 179
179 179 179
179 179 179
179 179 179
179 179 179
179 179 179
179 179 179
179 179 179
179 179 179
179 179 179
179 179 179
179 179 179
179 179 179
179 179 179
179 179 179
179 179 179
179 179 179
179 179 179
179 179 179
179 179 179
179 179 179
179 179 179
179 179 179
179 179 179
146 7 167
150 5 158
154 3 142
179 179 179
179 179 179
179 179 179
179 179 179
179 179 179
179 179 179
179 179 179
179 179 179
179 179 179
179 179 179
179 179 179
179 179 179
179 179 179
179 179 179
179 179 179
179 179 179
179 179 179
179 179 179
179 179 179
179 179 179
179 179 179
179 179 179
179 179 179
179 179 179
179 179 179
179 179 179
179 179 179
179 179 179
179 179 179
179 179 179
179 179 179
179 179 179
179 179 179
179 179 179
179 179 179
179 179 179
179 179 179
179 179 179
179 179 179
179 179 179
179 179 179
179 179 179
179 179 179
179 179 179
179 179 179
179 179 179
179 179 179
179 179 179
179 179 179
179 179 179
179 179 179
179 179 179
179 179 179
179 179 179
179 179 179
179 179 179
179 179 179
179 179 179
179 179 179
179 179 179
179 179 179
179 179 179
179 179 179
179 179 179
179 179 179
179 179 179
179 179 179
179 179 179
179 179 179
179 179 179
179 179 179
179 179 179
179 179 179
179 179 179
179 179 179
179 179 179
179 179 179
179 179 179
179 179 179
179 179 179
179 179 179
179 179 179
179 179 179
179 179 179
179 179 179
179 179 179
179 179 179
179 179 179
179 179 179
179 179 179
179 179 179
179 179 179
179 179 179
179 179 179
179 179 179
179 179 179
179 179 179
179 179 179
179 179 179
179 179 179
179 179 179
179 179 179
179 179 179
179 179 179
179 179 179
179 179 179
179 179 179
179 179 179
179 179 179
179 179 179
179 179 179
179 179 179
179 179 179
179 179 179
179 179 179
179 179 179
179 179 179
179 179 179
179 179 179
179 179 179
179 179 179
179 179 179
179 179 179
179 179 179
179 179 179
179 179 179
179 179 179
179 179 179
179 179 179
179 179 179
179 179 179
179 179 179
179 179 179
179 179 179
179 179 179
179 179 179
179 179 179
179 179 179
179 179 179
179 179 179
179 179 179
179 179 179
179 179 179
179 179 179
179 179 179
179 179 179
179 179 179
179 179 179
179 179 179
179 179 179
179 179 179
179 179 179
179 179 179
179 179 179
179 179 179
179 179 179
179 179 179
179 179 179
179 179 179
179 179 179
179 179 179
179 179 179
179 179 179
179 179 179
179 179 179
179 179 179
179 179 179
179 179 179
179 179 179
179 179 179
179 179 179
179 179 179
179 179 179
179 179 179
0 0 0
0 0 0
0 0 0
0 0 0
0 0 0
0 0 0
0 0 0
0 0 0
0 0 0
0 0 0
0 0 0
0 0 0
0 0 0
0 0 0
0 0 0
0 0 0
0 0 0
0 0 0
0 0 0
0 0 0
0 0 0
0 0 0
0 0 0
0 0 0
0 0 0
0 0 0
0 0 0
0 0 0
0 0 0
0 0 0
0 0 0
0 0 0
0 0 0
0 0 0
0 0 0
0 0 0
0 0 0
0 0 0
0 0 0
0 0 0
0 0 0
0 0 0
0 0 0
0 0 0
0 0 0
0 0 0
179 179 179
179 179 179
179 179 179
179 179 179
179 179 179
179 179 179
179 179 179
179 179 179
179 179 179
179 179 179
179 179 179
179 179 179
179 179 179
179 179 179
179 179 179
179 179 179
179 179 179
179 179 179
179 179 179
179 179 179
179 179 179
179 179 179
179 179 179
179 179 179
179 179 179
179 179 179
179 179 179
179 179 179
179 179 179
179 179 179
179 179 179
179 179 179
179 179 179
179 179 179
179 179 179
179 179 179
179 179 179
179 179 179
179 179 179
179 179 179
179 179 179
179 179 179
179 179 179
179 179 179
179 179 179
179 179 179
179 179 179
179 179 179
179 179 179
179 179 179
179 179 179
179 179 179
179 179 179
179 179 179
179 179 179
179 179 179
179 179 179
179 179 179
179 179 179
179 179 179
179 179 179
179 179 179
179 179 179
179 179 179
179 179 179
179 179 179
179 179 179
179 179 179
179 179 179
179 179 179
179 179 179
179 179 179
179 179 179
179 179 179
179 179 179
179 179 179
179 179 179
179 179 179
179 179 179
179 179 179
179 179 179
179 179 179
179 179 179
179 179 179
179 179 179
179 179 179
179 179 179
179 179 179
179 179 179
179 179 179
179 179 179
179 179 179
179 179 179
179 179 179
179 179 179
179 179 179
179 179 179
179 179 179
179 179 179
179 179 179
179 179 179
179 179 179
179 179 179
179 179 179
179 179 179
179 179 179
179 179 179
179 179 179
179 179 179
179 179 179
179 179 179
179 179 179
179 179 179
179 179 179
179 179 179
179 179 179
179 179 179
179 179 179
179 179 179
179 179 179
179 179 179
179 179 179
179 179 179
179 179 179
179 179 179
179 179 179
179 179 179
179 179 179
179 179 179
179 179 179
179 179 179
179 179 179
179 179 179
179 179 179
179 179 179
179 179 179
179 179 179
179 179 179
179 179 179
179 179 179
179 179 179
179 179 179
179 179 179
179 179 179
179 179 179
179 179 179
179 179 179
179 179 179
179 179 179
179 179 179
179 179 179
179 179 179
179 179 179
179 179 179
179 179 179
179 179 179
179 179 179
179 179 179
179 179 179
179 179 179
179 179 179
179 179 179
179 179 179
179 179 179
179 179 179
179 179 179
179 179 179
179 179 179
179 179 179
179 179 179
179 179 179
179 179 179
179 179 179
179 179 179
179 179 179
179 179 179
179 179 179
148 6 162
152 4 150
179 179 179
179 179 179
179 179 179
179 179 179
179 179 179
179 179 179
179 179 179
179 179 179
179 179 179
179 179 179
179 179 179
179 179 179
179 179 179
179 179 179
179 179 179
179 179 179
179 179 179
179 179 179
179 179 179
179 179 179
179 179 179
179 179 179
179 179 179
179 179 179
179 179 179
179 179 179
179 179 179
179 179 179
179 179 179
179 179 179
179 179 179
179 179 179
179 179 179
179 179 179
179 179 179
179 179 179
179 179 179
179 179 179
179 179 179
179 179 179
179 179 179
179 179 179
179 179 179
179 179 179
179 179 179
179 179 179
179 179 179
179 179 179
179 179 179
179 179 179
179 179 179
179 179 179
179 179 179
179 179 179
179 179 179
179 179 179
179 179 179
179 179 179
179 179 179
179 179 179
179 179 179
179 179 179
179 179 179
179 179 179
179 179 179
179 179 179
179 179 179
179 179 179
179 179 179
179 179 179
179 179 179
179 179 179
179 179 179
179 179 179
179 179 179
179 179 179
179 179 179
179 179 179
179 179 179
179 179 179
179 179 179
179 179 179
179 179 179
179 179 179
179 179 179
179 179 179
179 179 179
179 179 179
179 179 179
179 179 179
179 179 179
179 179 179
179 179 179
179 179 179
179 179 179
179 179 179
179 179 179
179 179 179
179 179 179
179 179 179
179 179 179
179 179 179
179 179 179
179 179 179
179 179 179
179 179 179
179 179 179
179 179 179
179 179 179
179 179 179
179 179 179
179 179 179
179 179 179
179 179 179
179 179 179
179 179 179
179 179 179
179 179 179
179 179 179
179 179 179
179 179 179
179 179 179
179 179 179
179 179 179
179 179 179
179 179 179
179 179 179
179 179 179
179 179 179
179 179 179
179 179 179
179 179 179
179 179 179
179 179 179
179 179 179
179 179 179
179 179 179
179 179 179
179 179 179
179 179 179
179 179 179
179 179 179
179 179 179
179 179 179
179 179 179
179 179 179
179 179 179
179 179 179
179 179 179
179 179 179
179 179 179
179 179 179
179 179 179
179 179 179
179 179 179
179 179 179
179 179 179
179 179 179
179 179 179
179 179 179
179 179 179
179 179 179
179 179 179
179 179 179
179 179 179
179 179 179
179 179 179
179 179 179
179 179 179
179 179 179
179 179 179
0 0 0
0 0 0
0 0 0
0 0 0
0 0 0
0 0 0
0 0 0
0 0 0
0 0 0
0 0 0
0 0 0
0 0 0
0 0 0
0 0 0
0 0 0
0 0 0
0 0 0
0 0 0
0 0 0
0 0 0
0 0 0
0 0 0
0 0 0
0 0 0
0 0 0
0 0 0
0 0 0
0 0 0
0 0 0
0 0 0
0 0 0
0 0 0
0 0 0
0 0 0
0 0 0
0 0 0
0 0 0
0 0 0
0 0 0
0 0 0
0 0 0
0 0 0
0 0 0
0 0 0
0 0 0
0 0 0
0 0 0
0 0 0
0 0 0
0 0 0
0 0 0
0 0 0
0 0 0
0 0 0
179 179 179
179 179 179
179 179 179
179 179 179
179 179 179
179 179 179
179 179 179
179 179 179
179 179 179
179 179 179
179 179 179
179 179 179
179 179 179
179 179 179
179 179 179
179 179 179
179 179 179
179 179 179
179 179 179
179 179 179
179 179 179
179 179 179
179 179 179
179 179 179
179 179 179
179 179 179
179 179 179
179 179 179
179 179 179
179 179 179
179 179 179
179 179 179
179 179 179
179 179 179
179 179 179
179 179 179
179 179 179
179 179 179
179 179 179
179 179 179
179 179 179
179 179 179
179 179 179
179 179 179
179 179 179
179 179 179
179 179 179
179 179 179
179 179 179
179 179 179
179 179 179
179 179 179
179 179 179
179 179 179
179 179 179
179 179 179
179 179 179
179 179 179
179 179 179
179 179 179
179 179 179
179 179 179
179 179 179
179 179 179
179 179 179
179 179 179
179 179 179
179 179 179
179 179 179
179 179 179
179 179 179
179 179 179
179 179 179
179 179 179
179 179 179
179 179 179
179 179 179
179 179 179
179 179 179
179 179 179
179 179 179
179 179 179
179 179 179
179 179 179
179 179 179
179 179 179
179 179 179
179 179 179
179 179 179
179 179 179
179 179 179
179 179 179
179 179 179
179 179 179
179 179 179
179 179 179
179 179 179
179 179 179
179 179 179
179 179 179
179 179 179
179 179 179
179 179 179
179 179 179
179 179 179
179 179 179
179 179 179
179 179 179
179 179 179
179 179 179
179 179 179
179 179 179
179 179 179
179 179 179
179 179 179
179 179 179
179 179 179
179 179 179
179 179 179
179 179 179
179 179 179
179 179 179
179 179 179
179 179 179
179 179 179
179 179 179
179 179 179
179 179 179
179 179 179
179 179 179
179 179 179
179 179 179
179 179 179
179 179 179
179 179 179
179 179 179
179 179 179
179 179 179
179 179 179
179 179 179
179 179 179
179 179 179
179 179 179
179 179 179
179 179 179
179 179 179
179 179 179
179 179 179
179 179 179
179 179 179
179 179 179
179 179 179
179 179 179
179 179 179
179 179 179
179 179 179
179 179 179
179 179 179
179 179 179
179 179 179
179 179 179
179 179 179
179 179 179
179 179 179
179 179 179
179 179 179
179 179 179
179 179 179
179 179 179
179 179 179
179 179 179
179 179 179
179 179 179
150 5 156
154 3 138
179 179 179
179 179 179
179 179 179
179 179 179
179 179 179
179 179 179
179 179 179
179 179 179
179 179 179
179 179 179
179 179 179
179 179 179
179 179 179
179 179 179
179 179 179
179 179 179
179 179 179
179 179 179
179 179 179
179 179 179
179 179 179
179 179 179
179 179 179
179 179 179
179 179 179
179 179 179
179 179 179
179 179 179
179 179 179
179 179 179
179 179 179
179 179 179
179 179 179
179 179 179
179 179 179
179 179 179
179 179 179
179 179 179
179 179 179
179 179 179
179 179 179
179 179 179
179 179 179
179 179 179
179 179 179
179 179 179
179 179 179
179 179 179
179 179 179
179 179 179
179 179 179
179 179 179
179 179 179
179 179 179
179 179 179
179 179 179
179 179 179
179 179 179
179 179 179
179 179 179
179 179 179
179 179 179
179 179 179
179 179 179
179 179 179
179 179 179
179 179 179
179 179 179
179 179 179
179 179 179
179 179 179
179 179 179
179 179 179
179 179 179
179 179 179
179 179 179
179 179 179
179 179 179
179 179 179
179 179 179
179 179 179
179 179 179
179 179 179
179 179 179
179 179 179
179 179 179
179 179 179
179 179 179
179 179 179
179 179 179
179 179 179
179 179 179
179 179 179
179 179 179
179 179 179
179 179 179
179 179 179
179 179 179
179 179 179
179 179 179
179 179 179
179 179 179
179 179 179
179 179 179
179 179 179
179 179 179
179 179 179
179 179 179
179 179 179
179 179 179
179 179 179
179 179 179
179 179 179
179 179 179
179 179 179
179 179 179
179 179 179
179 179 179
179 179 179
179 179 179
179 179 179
179 179 179
179 179 179
179 179 179
179 179 179
179 179 179
179 179 179
179 179 179
179 179 179
179 179 179
179 179 179
179 179 179
179 179 179
179 179 179
179 179 179
179 179 179
179 179 179
179 179 179
179 179 179
179 179 179
179 179 179
179 179 179
179 179 179
179 179 179
179 179 179
179 179 179
179 179 179
179 179 179
179 179 179
179 179 179
179 179 179
179 179 179
179 179 179
179 179 179
179 179 179
179 179 179
179 179 179
179 179 179
179 179 179
179 179 179
179 179 179
179 179 179
179 179 179
179 179 179
179 179 179
179 179 179
179 179 179
0 0 0
0 0 0
0 0 0
0 0 0
0 0 0
0 0 0
0 0 0
0 0 0
0 0 0
0 0 0
0 0 0
0 0 0
0 0 0
0 0 0
0 0 0
0 0 0
0 0 0
0 0 0
0 0 0
0 0 0
0 0 0
0 0 0
0 0 0
0 0 0
0 0 0
0 0 0
0 0 0
0 0 0
0 0 0
0 0 0
0 0 0
0 0 0
0 0 0
0 0 0
0 0 0
0 0 0
0 0 0
0 0 0
0 0 0
0 0 0
0 0 0
0 0 0
0 0 0
0 0 0
0 0 0
0 0 0
0 0 0
0 0 0
0 0 0
0 0 0
0 0 0
0 0 0
0 0 0
0 0 0
0 0 0
0 0 0
0 0 0
0 0 0
0 0 0
0 0 0
0 0 0
0 0 0
179 179 179
179 179 179
179 179 179
179 179 179
179 179 179
179 179 179
179 179 179
179 179 179
179 179 179
179 179 179
179 179 179
179 179 179
179 179 179
179 179 179
179 179 179
179 179 179
179 179 179
179 179 179
179 179 179
179 179 179
179 179 179
179 179 179
179 179 179
179 179 179
179 179 179
179 179 179
179 179 179
179 179 179
179 179 179
179 179 179
179 179 179
179 179 179
179 179 179
179 179 179
179 179 179
179 179 179
179 179 179
179 179 179
179 179 179
179 179 179
179 179 179
179 179 179
179 179 179
179 179 179
179 179 179
179 179 179
179 179 179
179 179 179
179 179 179
179 179 179
179 179 179
179 179 179
179 179 179
179 179 179
179 179 179
179 179 179
179 179 179
179 179 179
179 179 179
179 179 179
179 179 179
179 179 179
179 179 179
179 179 179
179 179 179
179 179 179
179 179 179
179 179 179
179 179 179
179 179 179
179 179 179
179 179 179
179 179 179
179 179 179
179 179 179
179 179 179
179 179 179
179 179 179
179 179 179
179 179 179
179 179 179
179 179 179
179 179 179
179 179 179
179 179 179
179 179 179
179 179 179
179 179 179
179 179 179
179 179 179
179 179 179
179 179 179
179 179 179
179 179 179
179 179 179
179 179 179
179 179 179
179 179 179
179 179 179
179 179 179
179 179 179
179 179 179
179 179 179
179 179 179
179 179 179
179 179 179
179 179 179
179 179 179
179 179 179
179 179 179
179 179 179
179 179 179
179 179 179
179 179 179
179 179 179
179 179 179
179 179 179
179 179 179
179 179 179
179 179 179
179 179 179
179 179 179
179 179 179
179 179 179
179 179 179
179 179 179
179 179 179
179 179 179
179 179 179
179 179 179
179 179 179
179 179 179
179 179 179
179 179 179
179 179 179
179 179 179
179 179 179
179 179 179
179 179 179
179 179 179
179 179 179
179 179 179
179 179 179
179 179 179
179 179 179
179 179 179
179 179 179
179 179 179
179 179 179
179 179 179
179 179 179
179 179 179
179 179 179
179 179 179
179 179 179
179 179 179
179 179 179
179 179 179
179 179 179
179 179 179
179 179 179
179 179 179
179 179 179
179 179 179
179 179 179
179 179 179
179 179 179
179 179 179
179 179 179
152 4 148
179 179 179
179 179 179
179 179 179
179 179 179
179 179 179
179 179 179
179 179 179
179 179 179
179 179 179
179 179 179
179 179 179
179 179 179
179 179 179
179 179 179
179 179 179
179 179 179
179 179 179
179 179 179
179 179 179
179 179 179
179 179 179
179 179 179
179 179 179
179 179 179
179 179 179
179 179 179
179 179 179
179 179 179
179 179 179
179 179 179
179 179 179
179 179 179
179 179 179
179 179 179
179 179 179
179 179 179
179 179 179
179 179 179
179 179 179
179 179 179
179 179 179
179 179 179
179 179 179
179 179 179
179 179 179
179 179 179
179 179 179
179 179 179
179 179 179
179 179 179
179 179 179
179 179 179
179 179 179
179 179 179
179 179 179
179 179 179
179 179 179
179 179 179
179 179 179
179 179 179
179 179 179
179 179 179
179 179 179
179 179 179
179 179 179
179 179 179
179 179 179
179 179 179
179 179 179
179 179 179
179 179 179
179 179 179
179 179 179
179 179 179
179 179 179
179 179 179
179 179 179
179 179 179
179 179 179
179 179 179
179 179 179
179 179 179
179 179 179
179 179 179
179 179 179
179 179 179
179 179 179
179 179 179
179 179 179
179 179 179
179 179 179
179 179 179
179 179 179
179 179 179
179 179 179
179 179 179
179 179 179
179 179 179
179 179 179
179 179 179
179 179 179
179 179 179
179 179 179
179 179 179
179 179 179
179 179 179
179 179 179
179 179 179
179 179 179
179 179 179
179 179 179
179 179 179
179 179 179
179 179 179
179 179 179
179 179 179
179 179 179
179 179 179
179 179 179
179 179 179
179 179 179
179 179 179
179 179 179
179 179 179
179 179 179
179 179 179
179 179 179
179 179 179
179 179 179
179 179 179
179 179 179
179 179 179
179 179 179
179 179 179
179 179 179
179 179 179
179 179 179
179 179 179
179 179 179
179 179 179
179 179 179
179 179 179
179 179 179
179 179 179
179 179 179
179 179 179
179 179 179
179 179 179
179 179 179
179 179 179
179 179 179
179 179 179
179 179 179
179 179 179
179 179 179
179 179 179
179 179 179
179 179 179
179 179 179
179 179 179
179 179 179
179 179 179
179 179 179
179 179 179
179 179 179
0 0 0
0 0 0
0 0 0
0 0 0
0 0 0
0 0 0
0 0 0
0 0 0
0 0 0
0 0 0
0 0 0
0 0 0
0 0 0
0 0 0
0 0 0
0 0 0
0 0 0
0 0 0
0 0 0
0 0 0
0 0 0
0 0 0
0 0 0
0 0 0
0 0 0
0 0 0
0 0 0
0 0 0
0 0 0
0 0 0
0 0 0
0 0 0
0 0 0
0 0 0
0 0 0
0 0 0
0 0 0
0 0 0
0 0 0
0 0 0
0 0 0
0 0 0
0 0 0
0 0 0
0 0 0
0 0 0
0 0 0
0 0 0
0 0 0
0 0 0
0 0 0
0 0 0
0 0 0
0 0 0
0 0 0
0 0 0
0 0 0
0 0 0
0 0 0
0 0 0
0 0 0
0 0 0
0 0 0
0 0 0
0 0 0
0 0 0
0 0 0
0 0 0
179 179 179
179 179 179
179 179 179
179 179 179
179 179 179
179 179 179
179 179 179
179 179 179
179 179 179
179 179 179
179 179 179
179 179 179
179 179 179
179 179 179
179 179 179
179 179 179
179 179 179
179 179 179
179 179 179
179 179 179
179 179 179
179 179 179
179 179 179
179 179 179
179 179 179
179 179 179
179 179 179
179 179 179
179 179 179
179 179 179
179 179 179
179 179 179
179 179 179
179 179 179
179 179 179
179 179 179
179 179 179
179 179 179
179 179 179
179 179 179
179 179 179
179 179 179
179 179 179
179 179 179
179 179 179
179 179 179
179 179 179
179 179 179
179 179 179
179 179 179
179 179 179
179 179 179
179 179 179
179 179 179
179 179 179
179 179 179
179 179 179
179 179 179
179 179 179
179 179 179
179 179 179
179 179 179
179 179 179
179 179 179
179 179 179
179 179 179
179 179 179
179 179 179
179 179 179
179 179 179
179 179 179
179 179 179
179 179 179
179 179 179
179 179 179
179 179 179
179 179 179
179 179 179
179 179 179
179 179 179
179 179 179
179 179 179
179 179 179
179 179 179
179 179 179
179 179 179
179 179 179
179 179 179
179 179 179
179 179 179
179 179 179
179 179 179
179 179 179
179 179 179
179 179 179
179 179 179
179 179 179
179 179 179
179 179 179
179 179 179
179 179 179
179 179 179
179 179 179
179 179 179
179 179 179
179 179 179
179 179 179
179 179 179
179 179 179
179 179 179
179 179 179
179 179 179
179 179 179
179 179 179
179 179 179
179 179 179
179 179 179
179 179 179
179 179 179
179 179 179
179 179 179
179 179 179
179 179 179
179 179 179
179 179 179
179 179 179
179 179 179
179 179 179
179 179 179
179 179 179
179 179 179
179 179 179
179 179 179
179 179 179
179 179 179
179 179 179
179 179 179
179 179 179
179 179 179
179 179 179
179 179 179
179 179 179
179 179 179
179 179 179
179 179 179
179 179 179
179 179 179
179 179 179
179 179 179
179 179 179
179 179 179
179 179 179
179 179 179
179 179 179
179 179 179
179 179 179
179 179 179
179 179 179
179 179 179
179 179 179
179 179 179
179 179 179
179 179 179
179 179 179
179 179 179
179 179 179
154 2 131
179 179 179
179 179 179
179 179 179
179 179 179
179 179 179
179 179 179
179 179 179
179 179 179
179 179 179
179 179 179
179 179 179
179 179 179
179 179 179
179 179 179
179 179 179
179 179 179
179 179 179
179 179 179
179 179 179
179 179 179
179 179 179
179 179 179
179 179 179
179 179 179
179 179 179
179 179 179
179 179 179
179 179 179
179 179 179
179 179 179
179 179 179
179 179 179
179 179 179
179 179 179
179 179 179
179 179 179
179 179 179
179 179 179
179 179 179
179 179 179
179 179 179
179 179 179
179 179 179
179 179 179
179 179 179
179 179 179
179 179 179
179 179 179
179 179 179
179 179 179
179 179 179
179 179 179
179 179 179
179 179 179
179 179 179
179 179 179
179 179 179
179 179 179
179 179 179
179 179 179
179 179 179
179 179 179
179 179 179
179 179 179
179 179 179
179 179 179
179 179 179
179 179 179
179 179 179
179 179 179
179 179 179
179 179 179
179 179 179
179 179 179
179 179 179
179 179 179
179 179 179
179 179 179
179 179 179
179 179 179
179 179 179
179 179 179
179 179 179
179 179 179
179 179 179
179 179 179
179 179 179
179 179 179
179 179 179
179 179 179
179 179 179
179 179 179
179 179 179
179 179 179
179 179 179
179 179 179
179 179 179
179 179 179
179 179 179
179 179 179
179 179 179
179 179 179
179 179 179
179 179 179
179 179 179
179 179 179
179 179 179
179 179 179
179 179 179
179 179 179
179 179 179
179 179 179
179 179 179
179 179 179
179 179 179
179 179 179
179 179 179
179 179 179
179 179 179
179 179 179
179 179 179
179 179 179
179 179 179
179 179 179
179 179 179
179 179 179
179 179 179
179 179 179
179 179 179
179 179 179
179 179 179
179 179 179
179 179 179
179 179 179
179 179 179
179 179 179
179 179 179
179 179 179
179 179 179
179 179 179
179 179 179
179 179 179
179 179 179
179 179 179
179 179 179
179 179 179
179 179 179
179 179 179
179 179 179
179 179 179
179 179 179
179 179 179
179 179 179
179 179 179
179 179 179
179 179 179
179 179 179
179 179 179
179 179 179
179 179 179
179 179 179
179 179 179
0 0 0
0 0 0
0 0 0
0 0 0
0 0 0
0 0 0
0 0 0
0 0 0
0 0 0
0 0 0
0 0 0
0 0 0
0 0 0
0 0 0
0 0 0
0 0 0
0 0 0
0 0 0
0 0 0
0 0 0
0 0 0
0 0 0
0 0 0
0 0 0
0 0 0
0 0 0
0 0 0
0 0 0
0 0 0
0 0 0
0 0 0
0 0 0
0 0 0
0 0 0
0 0 0
0 0 0
0 0 0
0 0 0
0 0 0
0 0 0
0 0 0
0 0 0
0 0 0
0 0 0
0 0 0
0 0 0
0 0 0
0 0 0
0 0 0
0 0 0
0 0 0
0 0 0
0 0 0
0 0 0
0 0 0
0 0 0
0 0 0
0 0 0
0 0 0
0 0 0
0 0 0
0 0 0
0 0 0
0 0 0
0 0 0
0 0 0
0 0 0
0 0 0
0 0 0
0 0 0
0 0 0
0 0 0
0 0 0
0 0 0
179 179 179
179 179 179
179 179 179
179 179 179
179 179 179
179 179 179
179 179 179
179 179 179
179 179 179
179 179 179
179 179 179
179 179 179
179 179 179
179 179 179
179 179 179
179 179 179
179 179 179
179 179 179
179 179 179
179 179 179
179 179 179
179 179 179
179 179 179
179 179 179
179 179 179
179 179 179
179 179 179
179 179 179
179 179 179
179 179 179
179 179 179
179 179 179
179 179 179
179 179 179
179 179 179
179 179 179
179 179 179
179 179 179
179 179 179
179 179 179
179 179 179
179 179 179
179 179 179
179 179 179
179 179 179
179 179 179
179 179 179
179 179 179
179 179 179
179 179 179
179 179 179
179 179 179
179 179 179
179 179 179
179 179 179
179 179 179
179 179 179
179 179 179
179 179 179
179 179 179
179 179 179
179 179 179
179 179 179
179 179 179
179 179 179
179 179 179
179 179 179
179 179 179
179 179 179
179 179 179
179 179 179
179 179 179
179 179 179
179 179 179
179 179 179
179 179 179
179 179 179
179 179 179
179 179 179
179 179 179
179 179 179
179 179 179
179 179 179
179 179 179
179 179 179
179 179 179
179 179 179
179 179 179
179 179 179
179 179 179
179 179 179
179 179 179
179 179 179
179 179 179
179 179 179
179 179 179
179 179 179
179 179 179
179 179 179
179 179 179
179 179 179
179 179 179
179 179 179
179 179 179
179 179 179
179 179 179
179 179 179
179 179 179
179 179 179
179 179 179
179 179 179
179 179 179
179 179 179
179 179 179
179 179 179
179 179 179
179 179 179
179 179 179
179 179 179
179 179 179
179 179 179
179 179 179
179 179 179
179 179 179
179 179 179
179 179 179
179 179 179
179 179 179
179 179 179
179 179 179
179 179 179
179 179 179
179 179 179
179 179 179
179 179 179
179 179 179
179 179 179
179 179 179
179 179 179
179 179 179
179 179 179
179 179 179
179 179 179
179 179 179
179 179 179
179 179 179
179 179 179
179 179 179
179 179 179
179 179 179
179 179 179
179 179 179
179 179 179
179 179 179
179 179 179
179 179 179
179 179 179
179 179 179
179 179 179
179 179 179
179 179 179
179 179 179
179 179 179
179 179 179
179 179 179
179 179 179
179 179 179
179 179 179
179 179 179
179 179 179
179 179 179
179 179 179
179 179 179
179 179 179
179 179 179
179 179 179
179 179 179
179 179 179
179 179 179
179 179 179
179 179 179
179 179 179
179 179 179
179 179 179
179 179 179
179 179 179
179 179 179
179 179 179
179 179 179
179 179 179
179 179 179
179 179 179
179 179 179
179 179 179
179 179 179
179 179 179
179 179 179
179 179 179
179 179 179
179 179 179
179 179 179
179 179 179
179 179 179
179 179 179
179 179 179
179 179 179
179 179 179
179 179 179
179 179 179
179 179 179
179 179 179
179 179 179
179 179 179
179 179 179
179 179 179
179 179 179
179 179 179
179 179 179
179 179 179
179 179 179
179 179 179
179 179 179
179 179 179
179 179 179
179 179 179
179 179 179
179 179 179
179 179 179
179 179 179
179 179 179
179 179 179
179 179 179
179 179 179
179 179 179
179 179 179
179 179 179
179 179 179
179 179 179
179 179 179
179 179 179
179 179 179
179 179 179
179 179 179
179 179 179
179 179 179
179 179 179
179 179 179
179 179 179
179 179 179
179 179 179
179 179 179
179 179 179
179 179 179
179 179 179
179 179 179
179 179 179
179 179 179
179 179 179
179 179 179
179 179 179
179 179 179
179 179 179
179 179 179
179 179 179
179 179 179
179 179 179
179 179 179
179 179 179
179 179 179
179 179 179
179 179 179
179 179 179
179 179 179
179 179 179
179 179 179
179 179 179
179 179 179
179 179 179
179 179 179
179 179 179
179 179 179
179 179 179
179 179 179
179 179 179
179 179 179
179 179 179
179 179 179
179 179 179
179 179 179
179 179 179
179 179 179
179 179 179
179 179 179
179 179 179
179 179 179
179 179 179
179 179 179
179 179 179
179 179 179
179 179 179
179 179 179
179 179 179
179 179 179
179 179 179
179 179 179
179 179 179
179 179 179
179 179 179
179 179 179
179 179 179
179 179 179
179 179 179
179 179 179
179 179 179
179 179 179
179 179 179
179 179 179
179 179 179
179 179 179
179 179 179
179 179 179
179 179 179
179 179 179
0 0 0
0 0 0
0 0 0
0 0 0
0 0 0
0 0 0
0 0 0
0 0 0
0 0 0
0 0 0
0 0 0
0 0 0
0 0 0
0 0 0
0 0 0
0 0 0
0 0 0
0 0 0
0 0 0
0 0 0
0 0 0
0 0 0
0 0 0
0 0 0
0 0 0
0 0 0
0 0 0
0 0 0
0 0 0
0 0 0
0 0 0
0 0 0
0 0 0
0 0 0
0 0 0
0 0 0
0 0 0
0 0 0
0 0 0
0 0 0
0 0 0
0 0 0
0 0 0
0 0 0
0 0 0
0 0 0
0 0 0
0 0 0
0 0 0
0 0 0
0 0 0
0 0 0
0 0 0
0 0 0
0 0 0
0 0 0
0 0 0
0 0 0
0 0 0
0 0 0
0 0 0
0 0 0
0 0 0
0 0 0
0 0 0
0 0 0
0 0 0
0 0 0
0 0 0
0 0 0
0 0 0
0 0 0
0 0 0
0 0 0
0 0 0
0 0 0
0 0 0
0 0 0
0 0 0
0 0 0
179 179 179
179 179 179
179 179 179
179 179 179
179 179 179
179 179 179
179 179 179
179 179 179
179 179 179
179 179 179
179 179 179
179 179 179
179 179 179
179 179 179
179 179 179
179 179 179
179 179 179
179 179 179
179 179 179
179 179 179
179 179 179
179 179 179
179 179 179
179 179 179
179 179 179
179 179 179
179 179 179
179 179 179
179 179 179
179 179 179
179 179 179
179 179 179
179 179 179
179 179 179
179 179 179
179 179 179
179 179 179
179 179 179
179 179 179
179 179 179
179 179 179
179 179 179
179 179 179
179 179 179
179 179 179
179 179 179
179 179 179
179 179 179
179 179 179
179 179 179
179 179 179
179 179 179
179 179 179
179 179 179
179 179 179
179 179 179
179 179 179
179 179 179
179 179 179
179 179 179
179 179 179
179 179 179
179 179 179
179 179 179
179 179 179
179 179 179
179 179 179
179 179 179
179 179 179
179 179 179
179 179 179
179 179 179
179 179 179
179 179 179
179 179 179
179 179 179
179 179 179
179 179 179
179 179 179
179 179 179
179 179 179
179 179 179
179 179 179
179 179 179
179 179 179
179 179 179
179 179 179
179 179 179
179 179 179
179 179 179
179 179 179
179 179 179
179 179 179
179 179 179
179 179 179
179 179 179
179 179 179
179 179 179
179 179 179
179 179 179
179 179 179
179 179 179
179 179 179
179 179 179
179 179 179
179 179 179
179 179 179
179 179 179
179 179 179
179 179 179
179 179 179
179 179 179
179 179 179
179 179 179
179 179 179
179 179 179
179 179 179
179 179 179
179 179 179
179 179 179
179 179 179
179 179 179
179 179 179
179 179 179
179 179 179
179 179 179
179 179 179
179 179 179
179 179 179
179 179 179
179 179 179
179 179 179
179 179 179
179 179 179
179 179 179
179 179 179
179 179 179
179 179 179
179 179 179
179 179 179
179 179 179
179 179 179
179 179 179
179 179 179
179 179 179
179 179 179
179 179 179
179 179 179
179 179 179
179 179 179
179 179 179
179 179 179
179 179 179
179 179 179
179 179 179
179 179 179
179 179 179
179 179 179
179 179 179
179 179 179
179 179 179
179 179 179
179 179 179
179 179 179
179 179 179
179 179 179
179 179 179
179 179 179
179 179 179
179 179 179
179 179 179
179 179 179
179 179 179
179 179 179
179 179 179
179 179 179
179 179 179
179 179 179
179 179 179
179 179 179
179 179 179
179 179 179
179 179 179
179 179 179
179 179 179
179 179 179
179 179 179
179 179 179
179 179 179
179 179 179
179 179 179
179 179 179
179 179 179
179 179 179
179 179 179
179 179 179
179 179 179
179 179 179
179 179 179
179 179 179
179 179 179
179 179 179
179 179 179
179 179 179
179 179 179
179 179 179
179 179 179
179 179 179
179 179 179
179 179 179
179 179 179
179 179 179
179 179 179
179 179 179
179 179 179
179 179 179
179 179 179
179 179 179
179 179 179
179 179 179
179 179 179
179 179 179
179 179 179
179 179 179
179 179 179
179 179 179
179 179 179
179 179 179
179 179 179
179 179 179
179 179 179
179 179 179
179 179 179
179 179 179
179 179 179
179 179 179
179 179 179
179 179 179
179 179 179
179 179 179
179 179 179
179 179 179
179 179 179
179 179 179
179 179 179
179 179 179
179 179 179
179 179 179
179 179 179
179 179 179
179 179 179
179 179 179
179 179 179
179 179 179
179 179 179
179 179 179
179 179 179
179 179 179
179 179 179
179 179 179
179 179 179
179 179 179
179 179 179
179 179 179
179 179 179
179 179 179
179 179 179
179 179 179
179 179 179
179 179 179
179 179 179
179 179 179
179 179 179
179 179 179
179 179 179
179 179 179
179 179 179
179 179 179
179 179 179
179 179 179
179 179 179
179 179 179
179 179 179
179 179 179
179 179 179
179 179 179
179 179 179
179 179 179
179 179 179
179 179 179
179 179 179
179 179 179
179 179 179
179 179 179
179 179 179
179 179 179
179 179 179
179 179 179
179 179 179
179 179 179
179 179 179
179 179 179
179 179 179
179 179 179
179 179 179
179 179 179
179 179 179
179 179 179
179 179 179
179 179 179
179 179 179
179 179 179
179 179 179
179 179 179
179 179 179
179 179 179
179 179 179
179 179 179
0 0 0
0 0 0
0 0 0
0 0 0
0 0 0
0 0 0
0 0 0
0 0 0
0 0 0
0 0 0
0 0 0
0 0 0
0 0 0
0 0 0
0 0 0
0 0 0
0 0 0
0 0 0
0 0 0
0 0 0
0 0 0
0 0 0
0 0 0
0 0 0
0 0 0
0 0 0
0 0 0
0 0 0
0 0 0
0 0 0
0 0 0
0 0 0
0 0 0
0 0 0
0 0 0
0 0 0
0 0 0
0 0 0
0 0 0
0 0 0
0 0 0
0 0 0
0 0 0
0 0 0
0 0 0
0 0 0
0 0 0
0 0 0
0 0 0
0 0 0
0 0 0
0 0 0
0 0 0
0 0 0
0 0 0
0 0 0
0 0 0
0 0 0
0 0 0
0 0 0
0 0 0
0 0 0
0 0 0
0 0 0
0 0 0
0 0 0
0 0 0
0 0 0
0 0 0
0 0 0
0 0 0
0 0 0
0 0 0
0 0 0
0 0 0
0 0 0
0 0 0
0 0 0
0 0 0
0 0 0
0 0 0
0 0 0
0 0 0
0 0 0
179 179 179
179 179 179
179 179 179
179 179 179
179 179 179
179 179 179
179 179 179
179 179 179
179 179 179
179 179 179
179 179 179
179 179 179
179 179 179
179 179 179
179 179 179
179 179 179
179 179 179
179 179 179
179 179 179
179 179 179
179 179 179
179 179 179
179 179 179
179 179 179
179 179 179
179 179 179
179 179 179
179 179 179
179 179 179
179 179 179
179 179 179
179 179 179
179 179 179
179 179 179
179 179 179
179 179 179
179 179 179
179 179 179
179 179 179
179 179 179
179 179 179
179 179 179
179 179 179
179 179 179
179 179 179
179 179 179
179 179 179
179 179 179
179 179 179
179 179 179
179 179 179
179 179 179
179 179 179
179 179 179
179 179 179
179 179 179
179 179 179
179 179 179
179 179 179
179 179 179
179 179 179
179 179 179
179 179 179
179 179 179
179 179 179
179 179 179
179 179 179
179 179 179
179 179 179
179 179 179
179 179 179
179 179 179
179 179 179
179 179 179
179 179 179
179 179 179
179 179 179
179 179 179
179 179 179
179 179 179
179 179 179
179 179 179
179 179 179
179 179 179
179 179 179
179 179 179
179 179 179
179 179 179
179 179 179
179 179 179
179 179 179
179 179 179
179 179 179
179 179 179
179 179 179
179 179 179
179 179 179
179 179 179
179 179 179
179 179 179
179 179 179
179 179 179
179 179 179
179 179 179
179 179 179
179 179 179
179 179 179
179 179 179
179 179 179
179 179 179
179 179 179
179 179 179
179 179 179
179 179 179
179 179 179
179 179 179
179 179 179
179 179 179
179 179 179
179 179 179
179 179 179
179 179 179
179 179 179
179 179 179
179 179 179
179 179 179
179 179 179
179 179 179
179 179 179
179 179 179
179 179 179
179 179 179
179 179 179
179 179 179
179 179 179
179 179 179
179 179 179
179 179 179
179 179 179
179 179 179
179 179 179
179 179 179
179 179 179
179 179 179
179 179 179
179 179 179
179 179 179
179 179 179
179 179 179
179 179 179
179 179 179
179 179 179
179 179 179
179 179 179
179 179 179
179 179 179
179 179 179
179 179 179
179 179 179
179 179 179
179 179 179
179 179 179
179 179 179
179 179 179
179 179 179
179 179 179
179 179 179
179 179 179
179 179 179
179 179 179
179 179 179
179 179 179
179 179 179
179 179 179
179 179 179
179 179 179
179 179 179
179 179 179
179 179 179
179 179 179
179 179 179
179 179 179
179 179 179
179 179 179
179 179 179
179 179 179
179 179 179
179 179 179
179 179 179
179 179 179
179 179 179
179 179 179
179 179 179
179 179 179
179 179 179
179 179 179
179 179 179
179 179 179
179 179 179
179 179 179
179 179 179
179 179 179
179 179 179
179 179 179
179 179 179
179 179 179
179 179 179
179 179 179
179 179 179
179 179 179
179 179 179
179 179 179
179 179 179
179 179 179
179 179 179
179 179 179
179 179 179
179 179 179
179 179 179
179 179 179
179 179 179
179 179 179
179 179 179
179 179 179
179 179 179
179 179 179
179 179 179
179 179 179
179 179 179
179 179 179
179 179 179
179 179 179
179 179 179
179 179 179
179 179 179
179 179 179
179 179 179
179 179 179
179 179 179
179 179 179
179 179 179
179 179 179
179 179 179
179 179 179
179 179 179
179 179 179
179 179 179
179 179 179
179 179 179
179 179 179
179 179 179
179 179 179
179 179 179
179 179 179
179 179 179
179 179 179
179 179 179
179 179 179
179 179 179
179 179 179
179 179 179
179 179 179
179 179 179
179 179 179
179 179 179
179 179 179
179 179 179
179 179 179
179 179 179
179 179 179
179 179 179
179 179 179
179 179 179
179 179 179
179 179 179
179 179 179
179 179 179
179 179 179
179 179 179
179 179 179
179 179 179
179 179 179
179 179 179
179 179 179
179 179 179
179 179 179
179 179 179
179 179 179
179 179 179
179 179 179
179 179 179
179 179 179
179 179 179
179 179 179
179 179 179
179 179 179
179 179 179
179 179 179
179 179 179
179 179 179
179 179 179
179 179 179
179 179 179
179 179 179
179 179 179
179 179 179
179 179 179
179 179 179
179 179 179
179 179 179
179 179 179
179 179 179
179 179 179
179 179 179
0 0 0
0 0 0
0 0 0
0 0 0
0 0 0
0 0 0
0 0 0
0 0 0
0 0 0
0 0 0
0 0 0
0 0 0
0 0 0
0 0 0
0 0 0
0 0 0
0 0 0
0 0 0
0 0 0
0 0 0
0 0 0
0 0 0
0 0 0
0 0 0
0 0 0
0 0 0
0 0 0
0 0 0
0 0 0
0 0 0
0 0 0
0 0 0
0 0 0
0 0 0
0 0 0
0 0 0
0 0 0
0 0 0
0 0 0
0 0 0
0 0 0
0 0 0
0 0 0
0 0 0
0 0 0
0 0 0
0 0 0
0 0 0
0 0 0
0 0 0
0 0 0
0 0 0
0 0 0
0 0 0
0 0 0
0 0 0
0 0 0
0 0 0
0 0 0
0 0 0
0 0 0
0 0 0
0 0 0
0 0 0
0 0 0
0 0 0
0 0 0
0 0 0
0 0 0
0 0 0
0 0 0
0 0 0
0 0 0
0 0 0
0 0 0
0 0 0
0 0 0
0 0 0
0 0 0
0 0 0
0 0 0
0 0 0
0 0 0
0 0 0
0 0 0
0 0 0
0 0 0
0 0 0
179 179 179
179 179 179
179 179 179
179 179 179
179 179 179
179 179 179
179 179 179
179 179 179
179 179 179
179 179 179
179 179 179
179 179 179
179 179 179
179 179 179
179 179 179
179 179 179
179 179 179
179 179 179
179 179 179
179 179 179
179 179 179
179 179 179
179 179 179
179 179 179
179 179 179
179 179 179
179 179 179
179 179 179
179 179 179
179 179 179
179 179 179
179 179 179
179 179 179
179 179 179
179 179 179
179 179 179
179 179 179
179 179 179
179 179 179
179 179 179
179 179 179
179 179 179
179 179 179
179 179 179
179 179 179
179 179 179
179 179 179
179 179 179
179 179 179
179 179 179
179 179 179
179 179 179
179 179 179
179 179 179
179 179 179
179 179 179
179 179 179
179 179 179
179 179 179
179 179 179
179 179 179
179 179 179
179 179 179
179 179 179
179 179 179
179 179 179
179 179 179
179 179 179
179 179 179
179 179 179
179 179 179
179 179 179
179 179 179
179 179 179
179 179 179
179 179 179
179 179 179
179 179 179
179 179 179
179 179 179
179 179 179
179 179 179
179 179 179
179 179 179
179 179 179
179 179 179
179 179 179
179 179 179
179 179 179
179 179 179
179 179 179
179 179 179
179 179 179
179 179 179
179 179 179
179 179 179
179 179 179
179 179 179
179 179 179
179 179 179
179 179 179
179 179 179
179 179 179
179 179 179
179 179 179
179 179 179
179 179 179
179 179 179
179 179 179
179 179 179
179 179 179
179 179 179
179 179 179
179 179 179
179 179 179
179 179 179
179 179 179
179 179 179
179 179 179
179 179 179
179 179 179
179 179 179
179 179 179
179 179 179
179 179 179
179 179 179
179 179 179
179 179 179
179 179 179
179 179 179
179 179 179
179 179 179
179 179 179
179 179 179
179 179 179
179 179 179
179 179 179
179 179 179
179 179 179
179 179 179
179 179 179
179 179 179
179 179 179
179 179 179
179 179 179
179 179 179
179 179 179
179 179 179
179 179 179
179 179 179
179 179 179
179 179 179
179 179 179
179 179 179
179 179 179
179 179 179
179 179 179
179 179 179
179 179 179
179 179 179
179 179 179
179 179 179
179 179 179
179 179 179
179 179 179
179 179 179
179 179 179
179 179 179
179 179 179
179 179 179
179 179 179
179 179 179
179 179 179
179 179 179
179 179 179
179 179 179
179 179 179
179 179 179
179 179 179
179 179 179
179 179 179
179 179 179
179 179 179
179 179 179
179 179 179
179 179 179
179 179 179
179 179 179
179 179 179
179 179 179
179 179 179
179 179 179
179 179 179
179 179 179
179 179 179
179 179 179
179 179 179
179 179 179
179 179 179
179 179 179
179 179 179
179 179 179
179 179 179
179 179 179
179 179 179
179 179 179
179 179 179
179 179 179
179 179 179
179 179 179
179 179 179
179 179 179
179 179 179
179 179 179
179 179 179
179 179 179
179 179 179
179 179 179
179 179 179
179 179 179
179 179 179
179 179 179
179 179 179
179 179 179
179 179 179
179 179 179
179 179 179
179 179 179
179 179 179
179 179 179
179 179 179
179 179 179
179 179 179
179 179 179
179 179 179
179 179 179
179 179 179
179 179 179
179 179 179
179 179 179
179 179 179
179 179 179
179 179 179
179 179 179
179 179 179
179 179 179
179 179 179
179 179 179
179 179 179
179 179 179
179 179 179
179 179 179
179 179 179
179 179 179
179 179 179
179 179 179
179 179 179
179 179 179
179 179 179
179 179 179
179 179 179
179 179 179
179 179 179
179 179 179
179 179 179
179 179 179
179 179 179
179 179 179
179 179 179
179 179 179
179 179 179
179 179 179
179 179 179
179 179 179
179 179 179
179 179 179
179 179 179
179 179 179
179 179 179
179 179 179
179 179 179
179 179 179
179 179 179
179 179 179
179 179 179
179 179 179
179 179 179
179 179 179
179 179 179
179 179 179
179 179 179
179 179 179
179 179 179
179 179 179
179 179 179
179 179 179
179 179 179
179 179 179
179 179 179
179 179 179
179 179 179
179 179 179
179 179 179
179 179 179
179 179 179
179 179 179
179 179 179
179 179 179
179 179 179
179 179 179
0 0 0
0 0 0
0 0 0
0 0 0
0 0 0
0 0 0
0 0 0
0 0 0
0 0 0
0 0 0
0 0 0
0 0 0
0 0 0
0 0 0
0 0 0
0 0 0
0 0 0
0 0 0
0 0 0
0 0 0
0 0 0
0 0 0
0 0 0
0 0 0
0 0 0
0 0 0
0 0 0
0 0 0
0 0 0
0 0 0
0 0 0
0 0 0
0 0 0
0 0 0
0 0 0
0 0 0
0 0 0
0 0 0
0 0 0
0 0 0
0 0 0
0 0 0
0 0 0
0 0 0
0 0 0
0 0 0
0 0 0
0 0 0
0 0 0
0 0 0
0 0 0
0 0 0
0 0 0
0 0 0
0 0 0
0 0 0
0 0 0
0 0 0
0 0 0
0 0 0
0 0 0
0 0 0
0 0 0
0 0 0
0 0 0
0 0 0
0 0 0
0 0 0
0 0 0
0 0 0
0 0 0
0 0 0
0 0 0
0 0 0
0 0 0
0 0 0
0 0 0
0 0 0
0 0 0
0 0 0
0 0 0
0 0 0
0 0 0
0 0 0
0 0 0
0 0 0
0 0 0
0 0 0
0 0 0
0 0 0
0 0 0
0 0 0
179 179 179
179 179 179
179 179 179
179 179 179
179 179 179
179 179 179
179 179 179
179 179 179
179 179 179
179 179 179
179 179 179
179 179 179
179 179 179
179 179 179
179 179 179
179 179 179
179 179 179
179 179 179
179 179 179
179 179 179
179 179 179
179 179 179
179 179 179
179 179 179
179 179 179
179 179 179
179 179 179
179 179 179
179 179 179
179 179 179
179 179 179
179 179 179
179 179 179
179 179 179
179 179 179
179 179 179
179 179 179
179 179 179
179 179 179
179 179 179
179 179 179
179 179 179
179 179 179
179 179 179
179 179 179
179 179 179
179 179 179
179 179 179
179 179 179
179 179 179
179 179 179
179 179 179
179 179 179
179 179 179
179 179 179
179 179 179
179 179 179
179 179 179
179 179 179
179 179 179
179 179 179
179 179 179
179 179 179
179 179 179
179 179 179
179 179 179
179 179 179
179 179 179
179 179 179
179 179 179
179 179 179
179 179 179
179 179 179
179 179 179
179 179 179
179 179 179
179 179 179
179 179 179
179 179 179
179 179 179
179 179 179
179 179 179
179 179 179
179 179 179
179 179 179
179 179 179
179 179 179
179 179 179
179 179 179
179 179 179
179 179 179
179 179 179
179 179 179
179 179 179
179 179 179
179 179 179
179 179 179
179 179 179
179 179 179
179 179 179
179 179 179
179 179 179
179 179 179
179 179 179
179 179 179
179 179 179
179 179 179
179 179 179
179 179 179
179 179 179
179 179 179
179 179 179
179 179 179
179 179 179
179 179 179
179 179 179
179 179 179
179 179 179
179 179 179
179 179 179
179 179 179
179 179 179
179 179 179
179 179 179
179 179 179
179 179 179
179 179 179
179 179 179
179 179 179
179 179 179
179 179 179
179 179 179
179 179 179
179 179 179
179 179 179
179 179 179
179 179 179
179 179 179
179 179 179
179 179 179
179 179 179
179 179 179
179 179 179
179 179 179
179 179 179
179 179 179
179 179 179
179 179 179
179 179 179
179 179 179
179 179 179
179 179 179
179 179 179
179 179 179
179 179 179
179 179 179
179 179 179
179 179 179
179 179 179
179 179 179
179 179 179
179 179 179
179 179 179
179 179 179
179 179 179
179 179 179
179 179 179
179 179 179
179 179 179
179 179 179
179 179 179
179 179 179
179 179 179
179 179 179
179 179 179
179 179 179
179 179 179
179 179 179
179 179 179
179 179 179
179 179 179
179 179 179
179 179 179
179 179 179
179 179 179
179 179 179
179 179 179
179 179 179
179 179 179
179 179 179
179 179 179
179 179 179
179 179 179
179 179 179
179 179 179
179 179 179
179 179 179
179 179 179
179 179 179
179 179 179
179 179 179
179 179 179
179 179 179
179 179 179
179 179 179
179 179 179
179 179 179
179 179 179
179 179 179
179 179 179
179 179 179
179 179 179
179 179 179
179 179 179
179 179 179
179 179 179
179 179 179
179 179 179
179 179 179
179 179 179
179 179 179
179 179 179
179 179 179
179 179 179
179 179 179
179 179 179
179 179 179
179 179 179
179 179 179
179 179 179
179 179 179
179 179 179
179 179 179
179 179 179
179 179 179
179 179 179
179 179 179
179 179 179
179 179 179
179 179 179
179 179 179
179 179 179
179 179 179
179 179 179
179 179 179
179 179 179
179 179 179
179 179 179
179 179 179
179 179 179
179 179 179
179 179 179
179 179 179
179 179 179
179 179 179
179 179 179
179 179 179
179 179 179
179 179 179
179 179 179
179 179 179
179 179 179
179 179 179
179 179 179
179 179 179
179 179 179
179 179 179
179 179 179
179 179 179
179 179 179
179 179 179
179 179 179
179 179 179
179 179 179
179 179 179
179 179 179
179 179 179
179 179 179
179 179 179
179 179 179
179 179 179
179 179 179
179 179 179
179 179 179
179 179 179
179 179 179
179 179 179
179 179 179
179 179 179
179 179 179
179 179 179
179 179 179
179 179 179
179 179 179
179 179 179
179 179 179
179 179 179
179 179 179
179 179 179
179 179 179
179 179 179
179 179 179
179 179 179
179 179 179
179 179 179
179 179 179
0 0 0
0 0 0
0 0 0
0 0 0
0 0 0
0 0 0
0 0 0
0 0 0
0 0 0
0 0 0
0 0 0
0 0 0
0 0 0
0 0 0
0 0 0
0 0 0
0 0 0
0 0 0
0 0 0
0 0 0
0 0 0
0 0 0
0 0 0
0 0 0
0 0 0
0 0 0
0 0 0
0 0 0
0 0 0
0 0 0
0 0 0
0 0 0
0 0 0
0 0 0
0 0 0
0 0 0
0 0 0
0 0 0
0 0 0
0 0 0
0 0 0
0 0 0
0 0 0
0 0 0
0 0 0
0 0 0
0 0 0
0 0 0
0 0 0
0 0 0
0 0 0
0 0 0
0 0 0
0 0 0
0 0 0
0 0 0
0 0 0
0 0 0
0 0 0
0 0 0
0 0 0
0 0 0
0 0 0
0 0 0
0 0 0
0 0 0
0 0 0
0 0 0
0 0 0
0 0 0
0 0 0
0 0 0
0 0 0
0 0 0
0 0 0
0 0 0
0 0 0
0 0 0
0 0 0
0 0 0
0 0 0
0 0 0
0 0 0
0 0 0
0 0 0
0 0 0
0 0 0
0 0 0
0 0 0
0 0 0
0 0 0
0 0 0
0 0 0
0 0 0
0 0 0
0 0 0
179 179 179
179 179 179
179 179 179
179 179 179
179 179 179
179 179 179
179 179 179
179 179 179
179 179 179
179 179 179
179 179 179
179 179 179
179 179 179
179 179 179
179 179 179
179 179 179
179 179 179
179 179 179
179 179 179
179 179 179
179 179 179
179 179 179
179 179 179
179 179 179
179 179 179
179 179 179
179 179 179
179 179 179
179 179 179
179 179 179
179 179 179
179 179 179
179 179 179
179 179 179
179 179 179
179 179 179
179 179 179
179 179 179
179 179 179
179 179 179
179 179 179
179 179 179
179 179 179
179 179 179
179 179 179
179 179 179
179 179 179
179 179 179
179 179 179
179 179 179
179 179 179
179 179 179
179 179 179
179 179 179
179 179 179
179 179 179
179 179 179
179 179 179
179 179 179
179 179 179
179 179 179
179 179 179
179 179 179
179 179 179
179 179 179
179 179 179
179 179 179
179 179 179
179 179 179
179 179 179
179 179 179
179 179 179
179 179 179
179 179 179
179 179 179
179 179 179
179 179 179
179 179 179
179 179 179
179 179 179
179 179 179
179 179 179
179 179 179
179 179 179
179 179 179
179 179 179
179 179 179
179 179 179
179 179 179
179 179 179
179 179 179
179 179 179
179 179 179
179 179 179
179 179 179
179 179 179
179 179 179
179 179 179
179 179 179
179 179 179
179 179 179
179 179 179
179 179 179
179 179 179
179 179 179
179 179 179
179 179 179
179 179 179
179 179 179
179 179 179
179 179 179
179 179 179
179 179 179
179 179 179
179 179 179
179 179 179
179 179 179
179 179 179
179 179 179
179 179 179
179 179 179
179 179 179
179 179 179
179 179 179
179 179 179
179 179 179
179 179 179
179 179 179
179 179 179
179 179 179
179 179 179
179 179 179
179 179 179
179 179 179
179 179 179
179 179 179
179 179 179
179 179 179
179 179 179
179 179 179
179 179 179
179 179 179
179 179 179
179 179 179
179 179 179
179 179 179
179 179 179
179 179 179
179 179 179
179 179 179
179 179 179
179 179 179
179 179 179
179 179 179
179 179 179
179 179 179
179 179 179
179 179 179
179 179 179
179 179 179
179 179 179
179 179 179
179 179 179
179 179 179
179 179 179
179 179 179
179 179 179
179 179 179
179 179 179
179 179 179
179 179 179
179 179 179
179 179 179
179 179 179
179 179 179
179 179 179
179 179 179
179 179 179
179 179 179
179 179 179
179 179 179
179 179 179
179 179 179
179 179 179
179 179 179
179 179 179
179 179 179
179 179 179
179 179 179
179 179 179
179 179 179
179 179 179
179 179 179
179 179 179
179 179 179
179 179 179
179 179 179
179 179 179
179 179 179
179 179 179
179 179 179
179 179 179
179 179 179
179 179 179
179 179 179
179 179 179
179 179 179
179 179 179
179 179 179
179 179 179
179 179 179
179 179 179
179 179 179
179 179 179
179 179 179
179 179 179
179 179 179
179 179 179
179 179 179
179 179 179
179 179 179
179 179 179
179 179 179
179 179 179
179 179 179
179 179 179
179 179 179
179 179 179
179 179 179
179 179 179
179 179 179
179 179 179
179 179 179
179 179 179
179 179 179
179 179 179
179 179 179
179 179 179
179 179 179
179 179 179
179 179 179
179 179 179
179 179 179
179 179 179
179 179 179
179 179 179
179 179 179
179 179 179
179 179 179
179 179 179
179 179 179
179 179 179
179 179 179
179 179 179
179 179 179
179 179 179
179 179 179
179 179 179
179 179 179
179 179 179
179 179 179
179 179 179
179 179 179
179 179 179
179 179 179
179 179 179
179 179 179
179 179 179
179 179 179
179 179 179
179 179 179
179 179 179
179 179 179
179 179 179
179 179 179
179 179 179
179 179 179
179 179 179
179 179 179
179 179 179
179 179 179
179 179 179
179 179 179
179 179 179
179 179 179
179 179 179
179 179 179
179 179 179
179 179 179
179 179 179
179 179 179
179 179 179
179 179 179
179 179 179
179 179 179
179 179 179
179 179 179
179 179 179
179 179 179
179 179 179
179 179 179
179 179 179
0 0 0
0 0 0
0 0 0
0 0 0
0 0 0
0 0 0
0 0 0
0 0 0
0 0 0
0 0 0
0 0 0
0 0 0
0 0 0
0 0 0
0 0 0
0 0 0
0 0 0
0 0 0
0 0 0
0 0 0
0 0 0
0 0 0
0 0 0
0 0 0
0 0 0
0 0 0
0 0 0
0 0 0
0 0 0
0 0 0
0 0 0
0 0 0
0 0 0
0 0 0
0 0 0
0 0 0
0 0 0
0 0 0
0 0 0
0 0 0
0 0 0
0 0 0
0 0 0
0 0 0
0 0 0
0 0 0
0 0 0
0 0 0
0 0 0
0 0 0
0 0 0
0 0 0
0 0 0
0 0 0
0 0 0
0 0 0
0 0 0
0 0 0
0 0 0
0 0 0
0 0 0
0 0 0
0 0 0
0 0 0
0 0 0
0 0 0
0 0 0
0 0 0
0 0 0
0 0 0
0 0 0
0 0 0
0 0 0
0 0 0
0 0 0
0 0 0
0 0 0
0 0 0
0 0 0
0 0 0
0 0 0
0 0 0
0 0 0
0 0 0
0 0 0
0 0 0
0 0 0
0 0 0
0 0 0
0 0 0
0 0 0
0 0 0
0 0 0
0 0 0
0 0 0
0 0 0
0 0 0
0 0 0
0 0 0
0 0 0
179 179 179
179 179 179
179 179 179
179 179 179
179 179 179
179 179 179
179 179 179
179 179 179
179 179 179
179 179 179
179 179 179
179 179 179
179 179 179
179 179 179
179 179 179
179 179 179
179 179 179
179 179 179
179 179 179
179 179 179
179 179 179
179 179 179
179 179 179
179 179 179
179 179 179
179 179 179
179 179 179
179 179 179
179 179 179
179 179 179
179 179 179
179 179 179
179 179 179
179 179 179
179 179 179
179 179 179
179 179 179
179 179 179
179 179 179
179 179 179
179 179 179
179 179 179
179 179 179
179 179 179
179 179 179
179 179 179
179 179 179
179 179 179
179 179 179
179 179 179
179 179 179
179 179 179
179 179 179
179 179 179
179 179 179
179 179 179
179 179 179
179 179 179
179 179 179
179 179 179
179 179 179
179 179 179
179 179 179
179 179 179
179 179 179
179 179 179
179 179 179
179 179 179
179 179 179
179 179 179
179 179 179
179 179 179
179 179 179
179 179 179
179 179 179
179 179 179
179 179 179
179 179 179
179 179 179
179 179 179
179 179 179
179 179 179
179 179 179
179 179 179
179 179 179
179 179 179
179 179 179
179 179 179
179 179 179
179 179 179
179 179 179
179 179 179
179 179 179
179 179 179
179 179 179
179 179 179
179 179 179
179 179 179
179 179 179
179 179 179
179 179 179
179 179 179
179 179 179
179 179 179
179 179 179
179 179 179
179 179 179
179 179 179
179 179 179
179 179 179
179 179 179
179 179 179
179 179 179
179 179 179
179 179 179
179 179 179
179 179 179
179 179 179
179 179 179
179 179 179
179 179 179
179 179 179
179 179 179
179 179 179
179 179 179
179 179 179
179 179 179
179 179 179
179 179 179
179 179 179
179 179 179
179 179 179
179 179 179
179 179 179
179 179 179
179 179 179
179 179 179
179 179 179
179 179 179
179 179 179
179 179 179
179 179 179
179 179 179
179 179 179
179 179 179
179 179 179
179 179 179
179 179 179
179 179 179
179 179 179
179 179 179
179 179 179
179 179 179
179 179 179
179 179 179
179 179 179
179 179 179
179 179 179
179 179 179
179 179 179
179 179 179
179 179 179
179 179 179
179 179 179
179 179 179
179 179 179
179 179 179
179 179 179
179 179 179
179 179 179
179 179 179
179 179 179
179 179 179
179 179 179
179 179 179
179 179 179
179 179 179
179 179 179
179 179 179
179 179 179
179 179 179
179 179 179
179 179 179
179 179 179
179 179 179
179 179 179
179 179 179
179 179 179
179 179 179
179 179 179
179 179 179
179 179 179
179 179 179
179 179 179
179 179 179
179 179 179
179 179 179
179 179 179
179 179 179
179 179 179
179 179 179
179 179 179
179 179 179
179 179 179
179 179 179
179 179 179
179 179 179
179 179 179
179 179 179
179 179 179
179 179 179
179 179 179
179 179 179
179 179 179
179 179 179
179 179 179
179 179 179
179 179 179
179 179 179
179 179 179
179 179 179
179 179 179
179 179 179
179 179 179
179 179 179
179 179 179
179 179 179
179 179 179
179 179 179
179 179 179
179 179 179
179 179 179
179 179 179
179 179 179
179 179 179
179 179 179
179 179 179
179 179 179
179 179 179
179 179 179
179 179 179
179 179 179
179 179 179
179 179 179
179 179 179
179 179 179
179 179 179
179 179 179
179 179 179
179 179 179
179 179 179
179 179 179
179 179 179
179 179 179
179 179 179
179 179 179
179 179 179
179 179 179
179 179 179
179 179 179
179 179 179
179 179 179
179 179 179
179 179 179
179 179 179
179 179 179
179 179 179
179 179 179
179 179 179
179 179 179
179 179 179
179 179 179
179 179 179
179 179 179
179 179 179
179 179 179
179 179 179
179 179 179
179 179 179
179 179 179
179 179 179
179 179 179
179 179 179
179 179 179
179 179 179
179 179 179
179 179 179
179 179 179
179 179 179
179 179 179
179 179 179
179 179 179
179 179 179
179 179 179
179 179 179
179 179 179
179 179 179
179 179 179
0 0 0
0 0 0
0 0 0
0 0 0
0 0 0
0 0 0
0 0 0
0 0 0
0 0 0
0 0 0
0 0 0
0 0 0
0 0 0
0 0 0
0 0 0
0 0 0
0 0 0
0 0 0
0 0 0
0 0 0
0 0 0
0 0 0
0 0 0
0 0 0
0 0 0
0 0 0
0 0 0
0 0 0
0 0 0
0 0 0
0 0 0
0 0 0
0 0 0
0 0 0
0 0 0
0 0 0
0 0 0
0 0 0
0 0 0
0 0 0
0 0 0
0 0 0
0 0 0
0 0 0
0 0 0
0 0 0
0 0 0
0 0 0
0 0 0
0 0 0
0 0 0
0 0 0
0 0 0
0 0 0
0 0 0
0 0 0
0 0 0
0 0 0
0 0 0
0 0 0
0 0 0
0 0 0
0 0 0
0 0 0
0 0 0
0 0 0
0 0 0
0 0 0
0 0 0
0 0 0
0 0 0
0 0 0
0 0 0
0 0 0
0 0 0
0 0 0
0 0 0
0 0 0
0 0 0
0 0 0
0 0 0
0 0 0
0 0 0
0 0 0
0 0 0
0 0 0
0 0 0
0 0 0
0 0 0
0 0 0
0 0 0
0 0 0
0 0 0
0 0 0
0 0 0
0 0 0
0 0 0
0 0 0
0 0 0
0 0 0
0 0 0
0 0 0
0 0 0
0 0 0
179 179 179
179 179 179
179 179 179
179 179 179
179 179 179
179 179 179
179 179 179
179 179 179
179 179 179
179 179 179
179 179 179
179 179 179
179 179 179
179 179 179
179 179 179
179 179 179
179 179 179
179 179 179
179 179 179
179 179 179
179 179 179
179 179 179
179 179 179
179 179 179
179 179 179
179 179 179
179 179 179
179 179 179
179 179 179
179 179 179
179 179 179
179 179 179
179 179 179
179 179 179
179 179 179
179 179 179
179 179 179
179 179 179
179 179 179
179 179 179
179 179 179
179 179 179
179 179 179
179 179 179
179 179 179
179 179 179
179 179 179
179 179 179
179 179 179
179 179 179
179 179 179
179 179 179
179 179 179
179 179 179
179 179 179
179 179 179
179 179 179
179 179 179
179 179 179
179 179 179
179 179 179
179 179 179
179 179 179
179 179 179
179 179 179
179 179 179
179 179 179
179 179 179
179 179 179
179 179 179
179 179 179
179 179 179
179 179 179
179 179 179
179 179 179
179 179 179
179 179 179
179 179 179
179 179 179
179 179 179
179 179 179
179 179 179
179 179 179
179 179 179
179 179 179
179 179 179
179 179 179
179 179 179
179 179 179
179 179 179
179 179 179
179 179 179
179 179 179
179 179 179
179 179 179
179 179 179
179 179 179
179 179 179
179 179 179
179 179 179
179 179 179
179 179 179
179 179 179
179 179 179
179 179 179
179 179 179
179 179 179
179 179 179
179 179 179
179 179 179
179 179 179
179 179 179
179 179 179
179 179 179
179 179 179
179 179 179
179 179 179
179 179 179
179 179 179
179 179 179
179 179 179
179 179 179
179 179 179
179 179 179
179 179 179
179 179 179
179 179 179
179 179 179
179 179 179
179 179 179
179 179 179
179 179 179
179 179 179
179 179 179
179 179 179
179 179 179
179 179 179
179 179 179
179 179 179
179 179 179
179 179 179
179 179 179
179 179 179
179 179 179
179 179 179
179 179 179
179 179 179
179 179 179
179 179 179
179 179 179
179 179 179
179 179 179
179 179 179
179 179 179
179 179 179
179 179 179
179 179 179
179 179 179
179 179 179
179 179 179
179 179 179
179 179 179
179 179 179
179 179 179
179 179 179
179 179 179
179 179 179
179 179 179
179 179 179
179 179 179
179 179 179
179 179 179
179 179 179
179 179 179
179 179 179
179 179 179
179 179 179
179 179 179
179 179 179
179 179 179
179 179 179
179 179 179
179 179 179
179 179 179
179 179 179
179 179 179
179 179 179
179 179 179
179 179 179
179 179 179
179 179 179
179 179 179
179 179 179
179 179 179
179 179 179
179 179 179
179 179 179
179 179 179
179 179 179
179 179 179
179 179 179
179 179 179
179 179 179
179 179 179
179 179 179
179 179 179
179 179 179
179 179 179
179 179 179
179 179 179
179 179 179
179 179 179
179 179 179
179 179 179
179 179 179
179 179 179
179 179 179
179 179 179
179 179 179
179 179 179
179 179 179
179 179 179
179 179 179
179 179 179
179 179 179
179 179 179
179 179 179
179 179 179
179 179 179
179 179 179
179 179 179
179 179 179
179 179 179
179 179 179
179 179 179
179 179 179
179 179 179
179 179 179
179 179 179
179 179 179
179 179 179
179 179 179
179 179 179
179 179 179
179 179 179
179 179 179
179 179 179
179 179 179
179 179 179
179 179 179
179 179 179
179 179 179
179 179 179
179 179 179
179 179 179
179 179 179
179 179 179
179 179 179
179 179 179
179 179 179
179 179 179
179 179 179
179 179 179
179 179 179
179 179 179
179 179 179
179 179 179
179 179 179
179 179 179
179 179 179
179 179 179
179 179 179
179 179 179
179 179 179
179 179 179
179 179 179
179 179 179
179 179 179
179 179 179
179 179 179
179 179 179
179 179 179
179 179 179
179 179 179
179 179 179
179 179 179
179 179 179
179 179 179
179 179 179
179 179 179
179 179 179
179 179 179
179 179 179
179 179 179
0 0 0
0 0 0
0 0 0
0 0 0
0 0 0
0 0 0
0 0 0
0 0 0
0 0 0
0 0 0
0 0 0
0 0 0
0 0 0
0 0 0
0 0 0
0 0 0
0 0 0
0 0 0
0 0 0
0 0 0
0 0 0
0 0 0
0 0 0
0 0 0
0 0 0
0 0 0
0 0 0
0 0 0
0 0 0
0 0 0
0 0 0
0 0 0
0 0 0
0 0 0
0 0 0
0 0 0
0 0 0
0 0 0
0 0 0
0 0 0
0 0 0
0 0 0
0 0 0
0 0 0
0 0 0
0 0 0
0 0 0
0 0 0
0 0 0
0 0 0
0 0 0
0 0 0
0 0 0
0 0 0
0 0 0
0 0 0
0 0 0
0 0 0
0 0 0
0 0 0
0 0 0
0 0 0
0 0 0
0 0 0
0 0 0
0 0 0
0 0 0
0 0 0
0 0 0
0 0 0
0 0 0
0 0 0
0 0 0
0 0 0
0 0 0
0 0 0
0 0 0
0 0 0
0 0 0
0 0 0
0 0 0
0 0 0
0 0 0
0 0 0
0 0 0
0 0 0
0 0 0
0 0 0
0 0 0
0 0 0
0 0 0
0 0 0
0 0 0
0 0 0
0 0 0
0 0 0
0 0 0
0 0 0
0 0 0
0 0 0
0 0 0
0 0 0
0 0 0
0 0 0
0 0 0
0 0 0
0 0 0
0 0 0
179 179 179
179 179 179
179 179 179
179 179 179
179 179 179
179 179 179
179 179 179
179 179 179
179 179 179
179 179 179
179 179 179
179 179 179
179 179 179
179 179 179
179 179 179
179 179 179
179 179 179
179 179 179
179 179 179
179 179 179
179 179 179
179 179 179
179 179 179
179 179 179
179 179 179
179 179 179
179 179 179
179 179 179
179 179 179
179 179 179
179 179 179
179 179 179
179 179 179
179 179 179
179 179 179
179 179 179
179 179 179
179 179 179
179 179 179
179 179 179
179 179 179
179 179 179
179 179 179
179 179 179
179 179 179
179 179 179
179 179 179
179 179 179
179 179 179
179 179 179
179 179 179
179 179 179
179 179 179
179 179 179
179 179 179
179 179 179
179 179 179
179 179 179
179 179 179
179 179 179
179 179 179
179 179 179
179 179 179
179 179 179
179 179 179
179 179 179
179 179 179
179 179 179
179 179 179
179 179 179
179 179 179
179 179 179
179 179 179
179 179 179
179 179 179
179 179 179
179 179 179
179 179 179
179 179 179
179 179 179
179 179 179
179 179 179
179 179 179
179 179 179
179 179 179
179 179 179
179 179 179
179 179 179
179 179 179
179 179 179
179 179 179
179 179 179
179 179 179
179 179 179
179 179 179
179 179 179
179 179 179
179 179 179
179 179 179
179 179 179
179 179 179
179 179 179
179 179 179
179 179 179
179 179 179
179 179 179
179 179 179
179 179 179
179 179 179
179 179 179
179 179 179
179 179 179
179 179 179
179 179 179
179 179 179
179 179 179
179 179 179
179 179 179
179 179 179
179 179 179
179 179 179
179 179 179
179 179 179
179 179 179
179 179 179
179 179 179
179 179 179
179 179 179
179 179 179
179 179 179
179 179 179
179 179 179
179 179 179
179 179 179
179 179 179
179 179 179
179 179 179
179 179 179
179 179 179
179 179 179
179 179 179
179 179 179
179 179 179
179 179 179
179 179 179
179 179 179
179 179 179
179 179 179
179 179 179
179 179 179
179 179 179
179 179 179
179 179 179
179 179 179
179 179 179
179 179 179
179 179 179
179 179 179
179 179 179
179 179 179
179 179 179
179 179 179
179 179 179
179 179 179
179 179 179
179 179 179
179 179 179
179 179 179
179 179 179
179 179 179
179 179 179
179 179 179
179 179 179
179 179 179
179 179 179
179 179 179
179 179 179
179 179 179
179 179 179
179 179 179
179 179 179
179 179 179
179 179 179
179 179 179
179 179 179
179 179 179
179 179 179
179 179 179
179 179 179
179 179 179
179 179 179
179 179 179
179 179 179
179 179 179
179 179 179
179 179 179
179 179 179
179 179 179
179 179 179
179 179 179
179 179 179
179 179 179
179 179 179
179 179 179
179 179 179
179 179 179
179 179 179
179 179 179
179 179 179
179 179 179
179 179 179
179 179 179
179 179 179
179 179 179
179 179 179
179 179 179
179 179 179
179 179 179
179 179 179
179 179 179
179 179 179
179 179 179
179 179 179
179 179 179
179 179 179
179 179 179
179 179 179
179 179 179
179 179 179
179 179 179
179 179 179
179 179 179
179 179 179
179 179 179
179 179 179
179 179 179
179 179 179
179 179 179
179 179 179
179 179 179
179 179 179
179 179 179
179 179 179
179 179 179
179 179 179
179 179 179
179 179 179
179 179 179
179 179 179
179 179 179
179 179 179
179 179 179
179 179 179
179 179 179
179 179 179
179 179 179
179 179 179
179 179 179
179 179 179
179 179 179
179 179 179
179 179 179
179 179 179
179 179 179
179 179 179
179 179 179
179 179 179
179 179 179
179 179 179
179 179 179
179 179 179
179 179 179
179 179 179
179 179 179
179 179 179
179 179 179
179 179 179
179 179 179
179 179 179
179 179 179
179 179 179
179 179 179
179 179 179
179 179 179
179 179 179
179 179 179
179 179 179
179 179 179
179 179 179
179 179 179
0 0 0
0 0 0
0 0 0
0 0 0
0 0 0
0 0 0
0 0 0
0 0 0
0 0 0
0 0 0
0 0 0
0 0 0
0 0 0
0 0 0
0 0 0
0 0 0
0 0 0
0 0 0
0 0 0
0 0 0
0 0 0
0 0 0
0 0 0
0 0 0
0 0 0
0 0 0
0 0 0
0 0 0
0 0 0
0 0 0
0 0 0
0 0 0
0 0 0
0 0 0
0 0 0
0 0 0
0 0 0
0 0 0
0 0 0
0 0 0
0 0 0
0 0 0
0 0 0
0 0 0
0 0 0
0 0 0
0 0 0
0 0 0
0 0 0
0 0 0
0 0 0
0 0 0
0 0 0
0 0 0
0 0 0
0 0 0
0 0 0
0 0 0
0 0 0
0 0 0
0 0 0
0 0 0
0 0 0
0 0 0
0 0 0
0 0 0
0 0 0
0 0 0
0 0 0
0 0 0
0 0 0
0 0 0
0 0 0
0 0 0
0 0 0
0 0 0
0 0 0
0 0 0
0 0 0
0 0 0
0 0 0
0 0 0
0 0 0
0 0 0
0 0 0
0 0 0
0 0 0
0 0 0
0 0 0
0 0 0
0 0 0
0 0 0
0 0 0
0 0 0
0 0 0
0 0 0
0 0 0
0 0 0
0 0 0
0 0 0
0 0 0
0 0 0
0 0 0
0 0 0
0 0 0
0 0 0
0 0 0
0 0 0
0 0 0
0 0 0
0 0 0
0 0 0
179 179 179
179 179 179
179 179 179
179 179 179
179 179 179
179 179 179
179 179 179
179 179 179
179 179 179
179 179 179
179 179 179
179 179 179
179 179 179
179 179 179
179 179 179
179 179 179
179 179 179
179 179 179
179 179 179
179 179 179
179 179 179
179 179 179
179 179 179
179 179 179
179 179 179
179 179 179
179 179 179
179 179 179
179 179 179
179 179 179
179 179 179
179 179 179
179 179 179
179 179 179
179 179 179
179 179 179
179 179 179
179 179 179
179 179 179
179 179 179
179 179 179
179 179 179
179 179 179
179 179 179
179 179 179
179 179 179
179 179 179
179 179 179
179 179 179
179 179 179
179 179 179
179 179 179
179 179 179
179 179 179
179 179 179
179 179 179
179 179 179
179 179 179
179 179 179
179 179 179
179 179 179
179 179 179
179 179 179
179 179 179
179 179 179
179 179 179
179 179 179
179 179 179
179 179 179
179 179 179
179 179 179
179 179 179
179 179 179
179 179 179
179 179 179
179 179 179
179 179 179
179 179 179
179 179 179
179 179 179
179 179 179
179 179 179
179 179 179
179 179 179
179 179 179
179 179 179
179 179 179
179 179 179
179 179 179
179 179 179
179 179 179
179 179 179
179 179 179
179 179 179
179 179 179
179 179 179
179 179 179
179 179 179
179 179 179
179 179 179
179 179 179
179 179 179
179 179 179
179 179 179
179 179 179
179 179 179
179 179 179
179 179 179
179 179 179
179 179 179
179 179 179
179 179 179
179 179 179
179 179 179
179 179 179
179 179 179
179 179 179
179 179 179
179 179 179
179 179 179
179 179 179
179 179 179
179 179 179
179 179 179
179 179 179
179 179 179
179 179 179
179 179 179
179 179 179
179 179 179
179 179 179
179 179 179
179 179 179
179 179 179
179 179 179
179 179 179
179 179 179
179 179 179
179 179 179
179 179 179
179 179 179
179 179 179
179 179 179
179 179 179
179 179 179
179 179 179
179 179 179
179 179 179
179 179 179
179 179 179
179 179 179
179 179 179
179 179 179
179 179 179
179 179 179
179 179 179
179 179 179
179 179 179
179 179 179
179 179 179
179 179 179
179 179 179
179 179 179
179 179 179
179 179 179
179 179 179
179 179 179
179 179 179
179 179 179
179 179 179
179 179 179
179 179 179
179 179 179
179 179 179
179 179 179
179 179 179
179 179 179
179 179 179
179 179 179
179 179 179
179 179 179
179 179 179
179 179 179
179 179 179
179 179 179
179 179 179
179 179 179
179 179 179
179 179 179
179 179 179
179 179 179
179 179 179
179 179 179
179 179 179
179 179 179
179 179 179
179 179 179
179 179 179
179 179 179
179 179 179
179 179 179
179 179 179
179 179 179
179 179 179
179 179 179
179 179 179
179 179 179
179 179 179
179 179 179
179 179 179
179 179 179
179 179 179
179 179 179
179 179 179
179 179 179
179 179 179
179 179 179
179 179 179
179 179 179
179 179 179
179 179 179
179 179 179
179 179 179
179 179 179
179 179 179
179 179 179
179 179 179
179 179 179
179 179 179
179 179 179
179 179 179
179 179 179
179 179 179
179 179 179
179 179 179
179 179 179
179 179 179
179 179 179
179 179 179
179 179 179
179 179 179
179 179 179
179 179 179
179 179 179
179 179 179
179 179 179
179 179 179
179 179 179
179 179 179
179 179 179
179 179 179
179 179 179
179 179 179
179 179 179
179 179 179
179 179 179
179 179 179
179 179 179
179 179 179
179 179 179
179 179 179
179 179 179
179 179 179
179 179 179
179 179 179
179 179 179
179 179 179
179 179 179
179 179 179
179 179 179
179 179 179
179 179 179
179 179 179
179 179 179
179 179 179
179 179 179
179 179 179
179 179 179
179 179 179
179 179 179
179 179 179
179 179 179
179 179 179
179 179 179
179 179 179
179 179 179
179 179 179
0 0 0
0 0 0
0 0 0
0 0 0
0 0 0
0 0 0
0 0 0
0 0 0
0 0 0
0 0 0
0 0 0
0 0 0
0 0 0
0 0 0
0 0 0
0 0 0
0 0 0
0 0 0
0 0 0
0 0 0
0 0 0
0 0 0
0 0 0
0 0 0
0 0 0
0 0 0
0 0 0
0 0 0
0 0 0
0 0 0
0 0 0
0 0 0
0 0 0
0 0 0
0 0 0
0 0 0
0 0 0
0 0 0
0 0 0
0 0 0
0 0 0
0 0 0
0 0 0
0 0 0
0 0 0
0 0 0
0 0 0
0 0 0
0 0 0
0 0 0
0 0 0
0 0 0
0 0 0
0 0 0
0 0 0
0 0 0
0 0 0
0 0 0
0 0 0
0 0 0
0 0 0
0 0 0
0 0 0
0 0 0
0 0 0
0 0 0
0 0 0
0 0 0
0 0 0
0 0 0
0 0 0
0 0 0
0 0 0
0 0 0
0 0 0
0 0 0
0 0 0
0 0 0
0 0 0
0 0 0
0 0 0
0 0 0
0 0 0
0 0 0
0 0 0
0 0 0
0 0 0
0 0 0
0 0 0
0 0 0
0 0 0
0 0 0
0 0 0
0 0 0
0 0 0
0 0 0
0 0 0
0 0 0
0 0 0
0 0 0
0 0 0
0 0 0
0 0 0
0 0 0
0 0 0
0 0 0
0 0 0
0 0 0
0 0 0
0 0 0
0 0 0
0 0 0
0 0 0
0 0 0
179 179 179
179 179 179
179 179 179
179 179 179
179 179 179
179 179 179
179 179 179
179 179 179
179 179 179
179 179 179
179 179 179
179 179 179
179 179 179
179 179 179
179 179 179
179 179 179
179 179 179
179 179 179
179 179 179
179 179 179
179 179 179
179 179 179
179 179 179
179 179 179
179 179 179
179 179 179
179 179 179
179 179 179
179 179 179
179 179 179
179 179 179
179 179 179
179 179 179
179 179 179
179 179 179
179 179 179
179 179 179
179 179 179
179 179 179
179 179 179
179 179 179
179 179 179
179 179 179
179 179 179
179 179 179
179 179 179
179 179 179
179 179 179
179 179 179
179 179 179
179 179 179
179 179 179
179 179 179
179 179 179
179 179 179
179 179 179
179 179 179
179 179 179
179 179 179
179 179 179
179 179 179
179 179 179
179 179 179
179 179 179
179 179 179
179 179 179
179 179 179
179 179 179
179 179 179
179 179 179
179 179 179
179 179 179
179 179 179
179 179 179
179 179 179
179 179 179
179 179 179
179 179 179
179 179 179
179 179 179
179 179 179
179 179 179
179 179 179
179 179 179
179 179 179
179 179 179
179 179 179
179 179 179
179 179 179
179 179 179
179 179 179
179 179 179
179 179 179
179 179 179
179 179 179
179 179 179
179 179 179
179 179 179
179 179 179
179 179 179
179 179 179
179 179 179
179 179 179
179 179 179
179 179 179
179 179 179
179 179 179
179 179 179
179 179 179
179 179 179
179 179 179
179 179 179
179 179 179
179 179 179
179 179 179
179 179 179
179 179 179
179 179 179
179 179 179
179 179 179
179 179 179
179 179 179
179 179 179
179 179 179
179 179 179
179 179 179
179 179 179
179 179 179
179 179 179
179 179 179
179 179 179
179 179 179
179 179 179
179 179 179
179 179 179
179 179 179
179 179 179
179 179 179
179 179 179
179 179 179
179 179 179
179 179 179
179 179 179
179 179 179
179 179 179
179 179 179
179 179 179
179 179 179
179 179 179
179 179 179
179 179 179
179 179 179
179 179 179
179 179 179
179 179 179
179 179 179
179 179 179
179 179 179
179 179 179
179 179 179
179 179 179
179 179 179
179 179 179
179 179 179
179 179 179
179 179 179
179 179 179
179 179 179
179 179 179
179 179 179
179 179 179
179 179 179
179 179 179
179 179 179
179 179 179
179 179 179
179 179 179
179 179 179
179 179 179
179 179 179
179 179 179
179 179 179
179 179 179
179 179 179
179 179 179
179 179 179
179 179 179
179 179 179
179 179 179
179 179 179
179 179 179
179 179 179
179 179 179
179 179 179
179 179 179
179 179 179
179 179 179
179 179 179
179 179 179
179 179 179
179 179 179
179 179 179
179 179 179
179 179 179
179 179 179
179 179 179
179 179 179
179 179 179
179 179 179
179 179 179
179 179 179
179 179 179
179 179 179
179 179 179
179 179 179
179 179 179
179 179 179
179 179 179
179 179 179
179 179 179
179 179 179
179 179 179
179 179 179
179 179 179
179 179 179
179 179 179
179 179 179
179 179 179
179 179 179
179 179 179
179 179 179
179 179 179
179 179 179
179 179 179
179 179 179
179 179 179
179 179 179
179 179 179
179 179 179
179 179 179
179 179 179
179 179 179
179 179 179
179 179 179
179 179 179
179 179 179
179 179 179
179 179 179
179 179 179
179 179 179
179 179 179
179 179 179
179 179 179
179 179 179
179 179 179
179 179 179
179 179 179
179 179 179
179 179 179
179 179 179
179 179 179
179 179 179
179 179 179
179 179 179
179 179 179
179 179 179
179 179 179
179 179 179
179 179 179
179 179 179
179 179 179
179 179 179
179 179 179
179 179 179
179 179 179
179 179 179
179 179 179
179 179 179
179 179 179
179 179 179
179 179 179
179 179 179
179 179 179
179 179 179
0 0 0
0 0 0
0 0 0
0 0 0
0 0 0
0 0 0
0 0 0
0 0 0
0 0 0
0 0 0
0 0 0
0 0 0
0 0 0
0 0 0
0 0 0
0 0 0
0 0 0
0 0 0
0 0 0
0 0 0
0 0 0
0 0 0
0 0 0
0 0 0
0 0 0
0 0 0
0 0 0
0 0 0
0 0 0
0 0 0
0 0 0
0 0 0
0 0 0
0 0 0
0 0 0
0 0 0
0 0 0
0 0 0
0 0 0
0 0 0
0 0 0
0 0 0
0 0 0
0 0 0
0 0 0
0 0 0
0 0 0
0 0 0
0 0 0
0 0 0
0 0 0
0 0 0
0 0 0
0 0 0
0 0 0
0 0 0
0 0 0
0 0 0
0 0 0
0 0 0
0 0 0
0 0 0
0 0 0
0 0 0
0 0 0
0 0 0
0 0 0
0 0 0
0 0 0
0 0 0
0 0 0
0 0 0
0 0 0
0 0 0
0 0 0
0 0 0
0 0 0
0 0 0
0 0 0
0 0 0
0 0 0
0 0 0
0 0 0
0 0 0
0 0 0
0 0 0
0 0 0
0 0 0
0 0 0
0 0 0
0 0 0
0 0 0
0 0 0
0 0 0
0 0 0
0 0 0
0 0 0
0 0 0
0 0 0
0 0 0
0 0 0
0 0 0
0 0 0
0 0 0
0 0 0
0 0 0
0 0 0
0 0 0
0 0 0
0 0 0
0 0 0
0 0 0
0 0 0
0 0 0
0 0 0
0 0 0
0 0 0
0 0 0
179 179 179
179 179 179
179 179 179
179 179 179
179 179 179
179 179 179
179 179 179
179 179 179
179 179 179
179 179 179
179 179 179
179 179 179
179 179 179
179 179 179
179 179 179
179 179 179
179 179 179
179 179 179
179 179 179
179 179 179
179 179 179
179 179 179
179 179 179
179 179 179
179 179 179
179 179 179
179 179 179
179 179 179
179 179 179
179 179 179
179 179 179
179 179 179
179 179 179
179 179 179
179 179 179
179 179 179
179 179 179
179 179 179
179 179 179
179 179 179
179 179 179
179 179 179
179 179 179
179 179 179
179 179 179
179 179 179
179 179 179
179 179 179
179 179 179
179 179 179
179 179 179
179 179 179
179 179 179
179 179 179
179 179 179
179 179 179
179 179 179
179 179 179
179 179 179
179 179 179
179 179 179
179 179 179
179 179 179
179 179 179
179 179 179
179 179 179
179 179 179
179 179 179
179 179 179
179 179 179
179 179 179
179 179 179
179 179 179
179 179 179
179 179 179
179 179 179
179 179 179
179 179 179
179 179 179
179 179 179
179 179 179
179 179 179
179 179 179
179 179 179
179 179 179
179 179 179
179 179 179
179 179 179
179 179 179
179 179 179
179 179 179
179 179 179
179 179 179
179 179 179
179 179 179
179 179 179
179 179 179
179 179 179
179 179 179
179 179 179
179 179 179
179 179 179
179 179 179
179 179 179
179 179 179
179 179 179
179 179 179
179 179 179
179 179 179
179 179 179
179 179 179
179 179 179
179 179 179
179 179 179
179 179 179
179 179 179
179 179 179
179 179 179
179 179 179
179 179 179
179 179 179
179 179 179
179 179 179
179 179 179
179 179 179
179 179 179
179 179 179
179 179 179
179 179 179
179 179 179
179 179 179
179 179 179
179 179 179
179 179 179
179 179 179
179 179 179
179 179 179
179 179 179
179 179 179
179 179 179
179 179 179
179 179 179
179 179 179
179 179 179
179 179 179
179 179 179
179 179 179
179 179 179
179 179 179
179 179 179
179 179 179
179 179 179
179 179 179
179 179 179
179 179 179
179 179 179
179 179 179
179 179 179
179 179 179
179 179 179
179 179 179
179 179 179
179 179 179
179 179 179
179 179 179
179 179 179
179 179 179
179 179 179
179 179 179
179 179 179
179 179 179
179 179 179
179 179 179
179 179 179
179 179 179
179 179 179
179 179 179
179 179 179
179 179 179
179 179 179
179 179 179
179 179 179
179 179 179
179 179 179
179 179 179
179 179 179
179 179 179
179 179 179
179 179 179
179 179 179
179 179 179
179 179 179
179 179 179
179 179 179
179 179 179
179 179 179
179 179 179
179 179 179
179 179 179
179 179 179
179 179 179
179 179 179
179 179 179
179 179 179
179 179 179
179 179 179
179 179 179
179 179 179
179 179 179
179 179 179
179 179 179
179 179 179
179 179 179
179 179 179
179 179 179
179 179 179
179 179 179
179 179 179
179 179 179
179 179 179
179 179 179
179 179 179
179 179 179
179 179 179
179 179 179
179 179 179
179 179 179
179 179 179
179 179 179
179 179 179
179 179 179
179 179 179
179 179 179
179 179 179
179 179 179
179 179 179
179 179 179
179 179 179
179 179 179
179 179 179
179 179 179
179 179 179
179 179 179
179 179 179
179 179 179
179 179 179
179 179 179
179 179 179
179 179 179
179 179 179
179 179 179
179 179 179
179 179 179
179 179 179
179 179 179
179 179 179
179 179 179
179 179 179
179 179 179
179 179 179
179 179 179
179 179 179
179 179 179
179 179 179
179 179 179
179 179 179
179 179 179
179 179 179
179 179 179
179 179 179
179 179 179
179 179 179
179 179 179
179 179 179
179 179 179
179 179 179
179 179 179
179 179 179
179 179 179
179 179 179
179 179 179
0 0 0
0 0 0
0 0 0
0 0 0
0 0 0
0 0 0
0 0 0
0 0 0
0 0 0
0 0 0
0 0 0
0 0 0
0 0 0
0 0 0
0 0 0
0 0 0
0 0 0
0 0 0
0 0 0
0 0 0
0 0 0
0 0 0
0 0 0
0 0 0
0 0 0
0 0 0
0 0 0
0 0 0
0 0 0
0 0 0
0 0 0
0 0 0
0 0 0
0 0 0
0 0 0
0 0 0
0 0 0
0 0 0
0 0 0
0 0 0
0 0 0
0 0 0
0 0 0
0 0 0
0 0 0
0 0 0
0 0 0
0 0 0
0 0 0
0 0 0
0 0 0
0 0 0
0 0 0
0 0 0
0 0 0
0 0 0
0 0 0
0 0 0
0 0 0
0 0 0
0 0 0
0 0 0
0 0 0
0 0 0
0 0 0
0 0 0
0 0 0
0 0 0
0 0 0
0 0 0
0 0 0
0 0 0
0 0 0
0 0 0
0 0 0
0 0 0
0 0 0
0 0 0
0 0 0
0 0 0
0 0 0
0 0 0
0 0 0
0 0 0
0 0 0
0 0 0
0 0 0
0 0 0
0 0 0
0 0 0
0 0 0
0 0 0
0 0 0
0 0 0
0 0 0
0 0 0
0 0 0
0 0 0
0 0 0
0 0 0
0 0 0
0 0 0
0 0 0
0 0 0
0 0 0
0 0 0
0 0 0
0 0 0
0 0 0
0 0 0
0 0 0
0 0 0
0 0 0
0 0 0
0 0 0
0 0 0
0 0 0
0 0 0
0 0 0
0 0 0
179 179 179
179 179 179
179 179 179
179 179 179
179 179 179
179 179 179
179 179 179
179 179 179
179 179 179
179 179 179
179 179 179
179 179 179
179 179 179
179 179 179
179 179 179
179 179 179
179 179 179
179 179 179
179 179 179
179 179 179
179 179 179
179 179 179
179 179 179
179 179 179
179 179 179
179 179 179
179 179 179
179 179 179
179 179 179
179 179 179
179 179 179
179 179 179
179 179 179
179 179 179
179 179 179
179 179 179
179 179 179
179 179 179
179 179 179
179 179 179
179 179 179
179 179 179
179 179 179
179 179 179
179 179 179
179 179 179
179 179 179
179 179 179
179 179 179
179 179 179
179 179 179
179 179 179
179 179 179
179 179 179
179 179 179
179 179 179
179 179 179
179 179 179
179 179 179
179 179 179
179 179 179
179 179 179
179 179 179
179 179 179
179 179 179
179 179 179
179 179 179
179 179 179
179 179 179
179 179 179
179 179 179
179 179 179
179 179 179
179 179 179
179 179 179
179 179 179
179 179 179
179 179 179
179 179 179
179 179 179
179 179 179
179 179 179
179 179 179
179 179 179
179 179 179
179 179 179
179 179 179
179 179 179
179 179 179
179 179 179
179 179 179
179 179 179
179 179 179
179 179 179
179 179 179
179 179 179
179 179 179
179 179 179
179 179 179
179 179 179
179 179 179
179 179 179
179 179 179
179 179 179
179 179 179
179 179 179
179 179 179
179 179 179
179 179 179
179 179 179
179 179 179
179 179 179
179 179 179
179 179 179
179 179 179
179 179 179
179 179 179
179 179 179
179 179 179
179 179 179
179 179 179
179 179 179
179 179 179
179 179 179
179 179 179
179 179 179
179 179 179
179 179 179
179 179 179
179 179 179
179 179 179
179 179 179
179 179 179
179 179 179
179 179 179
179 179 179
179 179 179
179 179 179
179 179 179
179 179 179
179 179 179
179 179 179
179 179 179
179 179 179
179 179 179
179 179 179
179 179 179
179 179 179
179 179 179
179 179 179
179 179 179
179 179 179
179 179 179
179 179 179
179 179 179
179 179 179
179 179 179
179 179 179
179 179 179
179 179 179
179 179 179
179 179 179
179 179 179
179 179 179
179 179 179
179 179 179
179 179 179
179 179 179
179 179 179
179 179 179
179 179 179
179 179 179
179 179 179
179 179 179
179 179 179
179 179 179
179 179 179
179 179 179
179 179 179
179 179 179
179 179 179
179 179 179
179 179 179
179 179 179
179 179 179
179 179 179
179 179 179
179 179 179
179 179 179
179 179 179
179 179 179
179 179 179
179 179 179
179 179 179
179 179 179
179 179 179
179 179 179
179 179 179
179 179 179
179 179 179
179 179 179
179 179 179
179 179 179
179 179 179
179 179 179
179 179 179
179 179 179
179 179 179
179 179 179
179 179 179
179 179 179
179 179 179
179 179 179
179 179 179
179 179 179
179 179 179
179 179 179
179 179 179
179 179 179
179 179 179
179 179 179
179 179 179
179 179 179
179 179 179
179 179 179
179 179 179
179 179 179
179 179 179
179 179 179
179 179 179
179 179 179
179 179 179
179 179 179
179 179 179
179 179 179
179 179 179
179 179 179
179 179 179
179 179 179
179 179 179
179 179 179
179 179 179
179 179 179
179 179 179
179 179 179
179 179 179
179 179 179
179 179 179
179 179 179
179 179 179
179 179 179
179 179 179
179 179 179
179 179 179
179 179 179
179 179 179
179 179 179
179 179 179
179 179 179
179 179 179
179 179 179
179 179 179
179 179 179
179 179 179
179 179 179
179 179 179
179 179 179
179 179 179
179 179 179
179 179 179
179 179 179
179 179 179
179 179 179
179 179 179
179 179 179
179 179 179
179 179 179
179 179 179
0 0 0
0 0 0
0 0 0
0 0 0
0 0 0
0 0 0
0 0 0
0 0 0
0 0 0
0 0 0
0 0 0
0 0 0
0 0 0
0 0 0
0 0 0
0 0 0
0 0 0
0 0 0
0 0 0
0 0 0
0 0 0
0 0 0
0 0 0
0 0 0
0 0 0
0 0 0
0 0 0
0 0 0
0 0 0
0 0 0
0 0 0
0 0 0
0 0 0
0 0 0
0 0 0
0 0 0
0 0 0
0 0 0
0 0 0
0 0 0
0 0 0
0 0 0
0 0 0
0 0 0
0 0 0
0 0 0
0 0 0
0 0 0
0 0 0
0 0 0
0 0 0
0 0 0
0 0 0
0 0 0
0 0 0
0 0 0
0 0 0
0 0 0
0 0 0
0 0 0
0 0 0
0 0 0
0 0 0
0 0 0
0 0 0
0 0 0
0 0 0
0 0 0
0 0 0
0 0 0
0 0 0
0 0 0
0 0 0
0 0 0
0 0 0
0 0 0
0 0 0
0 0 0
0 0 0
0 0 0
0 0 0
0 0 0
0 0 0
0 0 0
0 0 0
0 0 0
0 0 0
0 0 0
0 0 0
0 0 0
0 0 0
0 0 0
0 0 0
0 0 0
0 0 0
0 0 0
0 0 0
0 0 0
0 0 0
0 0 0
0 0 0
0 0 0
0 0 0
0 0 0
0 0 0
0 0 0
0 0 0
0 0 0
0 0 0
0 0 0
0 0 0
0 0 0
0 0 0
0 0 0
0 0 0
0 0 0
0 0 0
0 0 0
0 0 0
0 0 0
0 0 0
0 0 0
0 0 0
0 0 0
179 179 179
179 179 179
179 179 179
179 179 179
179 179 179
179 179 179
179 179 179
179 179 179
179 179 179
179 179 179
179 179 179
179 179 179
179 179 179
179 179 179
179 179 179
179 179 179
179 179 179
179 179 179
179 179 179
179 179 179
179 179 179
179 179 179
179 179 179
179 179 179
179 179 179
179 179 179
179 179 179
179 179 179
179 179 179
179 179 179
179 179 179
179 179 179
179 179 179
179 179 179
179 179 179
179 179 179
179 179 179
179 179 179
179 179 179
179 179 179
179 179 179
179 179 179
179 179 179
179 179 179
179 179 179
179 179 179
179 179 179
179 179 179
179 179 179
179 179 179
179 179 179
179 179 179
179 179 179
179 179 179
179 179 179
179 179 179
179 179 179
179 179 179
179 179 179
179 179 179
179 179 179
179 179 179
179 179 179
179 179 179
179 179 179
179 179 179
179 179 179
179 179 179
179 179 179
179 179 179
179 179 179
179 179 179
179 179 179
179 179 179
179 179 179
179 179 179
179 179 179
179 179 179
179 179 179
179 179 179
179 179 179
179 179 179
179 179 179
179 179 179
179 179 179
179 179 179
179 179 179
179 179 179
179 179 179
179 179 179
179 179 179
179 179 179
179 179 179
179 179 179
179 179 179
179 179 179
179 179 179
179 179 179
179 179 179
179 179 179
179 179 179
179 179 179
179 179 179
179 179 179
179 179 179
179 179 179
179 179 179
179 179 179
179 179 179
179 179 179
179 179 179
179 179 179
179 179 179
179 179 179
179 179 179
179 179 179
179 179 179
179 179 179
179 179 179
179 179 179
179 179 179
179 179 179
179 179 179
179 179 179
179 179 179
179 179 179
179 179 179
179 179 179
179 179 179
179 179 179
179 179 179
179 179 179
179 179 179
179 179 179
179 179 179
179 179 179
179 179 179
179 179 179
179 179 179
179 179 179
179 179 179
179 179 179
179 179 179
179 179 179
179 179 179
179 179 179
179 179 179
179 179 179
179 179 179
179 179 179
179 179 179
179 179 179
179 179 179
179 179 179
179 179 179
179 179 179
179 179 179
179 179 179
179 179 179
179 179 179
179 179 179
179 179 179
179 179 179
179 179 179
179 179 179
179 179 179
179 179 179
179 179 179
179 179 179
179 179 179
179 179 179
179 179 179
179 179 179
179 179 179
179 179 179
179 179 179
179 179 179
179 179 179
179 179 179
179 179 179
179 179 179
179 179 179
179 179 179
179 179 179
179 179 179
179 179 179
179 179 179
179 179 179
179 179 179
179 179 179
179 179 179
179 179 179
179 179 179
179 179 179
179 179 179
179 179 179
179 179 179
179 179 179
179 179 179
179 179 179
179 179 179
179 179 179
179 179 179
179 179 179
179 179 179
179 179 179
179 179 179
179 179 179
179 179 179
179 179 179
179 179 179
179 179 179
179 179 179
179 179 179
179 179 179
179 179 179
179 179 179
179 179 179
179 179 179
179 179 179
179 179 179
179 179 179
179 179 179
179 179 179
179 179 179
179 179 179
179 179 179
179 179 179
179 179 179
179 179 179
179 179 179
179 179 179
179 179 179
179 179 179
179 179 179
179 179 179
179 179 179
179 179 179
179 179 179
179 179 179
179 179 179
179 179 179
179 179 179
179 179 179
179 179 179
179 179 179
179 179 179
179 179 179
179 179 179
179 179 179
179 179 179
179 179 179
179 179 179
179 179 179
179 179 179
179 179 179
179 179 179
179 179 179
179 179 179
179 179 179
179 179 179
179 179 179
179 179 179
179 179 179
179 179 179
179 179 179
179 179 179
179 179 179
179 179 179
179 179 179
179 179 179
179 179 179
179 179 179
179 179 179
179 179 179
0 0 0
0 0 0
0 0 0
0 0 0
0 0 0
0 0 0
0 0 0
0 0 0
0 0 0
0 0 0
0 0 0
0 0 0
0 0 0
0 0 0
0 0 0
0 0 0
0 0 0
0 0 0
0 0 0
0 0 0
0 0 0
0 0 0
0 0 0
0 0 0
0 0 0
0 0 0
0 0 0
0 0 0
0 0 0
0 0 0
0 0 0
0 0 0
0 0 0
0 0 0
0 0 0
0 0 0
0 0 0
0 0 0
0 0 0
0 0 0
0 0 0
0 0 0
0 0 0
0 0 0
0 0 0
0 0 0
0 0 0
0 0 0
0 0 0
0 0 0
0 0 0
0 0 0
0 0 0
0 0 0
0 0 0
0 0 0
0 0 0
0 0 0
0 0 0
0 0 0
0 0 0
0 0 0
0 0 0
0 0 0
0 0 0
0 0 0
0 0 0
0 0 0
0 0 0
0 0 0
0 0 0
0 0 0
0 0 0
0 0 0
0 0 0
0 0 0
0 0 0
0 0 0
0 0 0
0 0 0
0 0 0
0 0 0
0 0 0
0 0 0
0 0 0
0 0 0
0 0 0
0 0 0
0 0 0
0 0 0
0 0 0
0 0 0
0 0 0
0 0 0
0 0 0
0 0 0
0 0 0
0 0 0
0 0 0
0 0 0
0 0 0
0 0 0
0 0 0
0 0 0
0 0 0
0 0 0
0 0 0
0 0 0
0 0 0
0 0 0
0 0 0
0 0 0
0 0 0
0 0 0
0 0 0
0 0 0
0 0 0
0 0 0
0 0 0
0 0 0
0 0 0
0 0 0
0 0 0
0 0 0
0 0 0
0 0 0
179 179 179
179 179 179
179 179 179
179 179 179
179 179 179
179 179 179
179 179 179
179 179 179
179 179 179
179 179 179
179 179 179
179 179 179
179 179 179
179 179 179
179 179 179
179 179 179
179 179 179
179 179 179
179 179 179
179 179 179
179 179 179
179 179 179
179 179 179
179 179 179
179 179 179
179 179 179
179 179 179
179 179 179
179 179 179
179 179 179
179 179 179
179 179 179
179 179 179
179 179 179
179 179 179
179 179 179
179 179 179
179 179 179
179 179 179
179 179 179
179 179 179
179 179 179
179 179 179
179 179 179
179 179 179
179 179 179
179 179 179
179 179 179
179 179 179
179 179 179
179 179 179
179 179 179
179 179 179
179 179 179
179 179 179
179 179 179
179 179 179
179 179 179
179 179 179
179 179 179
179 179 179
179 179 179
179 179 179
179 179 179
179 179 179
179 179 179
179 179 179
179 179 179
179 179 179
179 179 179
179 179 179
179 179 179
179 179 179
179 179 179
179 179 179
179 179 179
179 179 179
179 179 179
179 179 179
179 179 179
179 179 179
179 179 179
179 179 179
179 179 179
179 179 179
179 179 179
179 179 179
179 179 179
179 179 179
179 179 179
179 179 179
179 179 179
179 179 179
179 179 179
179 179 179
179 179 179
179 179 179
179 179 179
179 179 179
179 179 179
179 179 179
179 179 179
179 179 179
179 179 179
179 179 179
179 179 179
179 179 179
179 179 179
179 179 179
179 179 179
179 179 179
179 179 179
179 179 179
179 179 179
179 179 179
179 179 179
179 179 179
179 179 179
179 179 179
179 179 179
179 179 179
179 179 179
179 179 179
179 179 179
179 179 179
179 179 179
179 179 179
179 179 179
179 179 179
179 179 179
179 179 179
179 179 179
179 179 179
179 179 179
179 179 179
179 179 179
179 179 179
179 179 179
179 179 179
179 179 179
179 179 179
179 179 179
179 179 179
179 179 179
179 179 179
179 179 179
179 179 179
179 179 179
179 179 179
179 179 179
179 179 179
179 179 179
179 179 179
179 179 179
179 179 179
179 179 179
179 179 179
179 179 179
179 179 179
179 179 179
179 179 179
179 179 179
179 179 179
179 179 179
179 179 179
179 179 179
179 179 179
179 179 179
179 179 179
179 179 179
179 179 179
179 179 179
179 179 179
179 179 179
179 179 179
179 179 179
179 179 179
179 179 179
179 179 179
179 179 179
179 179 179
179 179 179
179 179 179
179 179 179
179 179 179
179 179 179
179 179 179
179 179 179
179 179 179
179 179 179
179 179 179
179 179 179
179 179 179
179 179 179
179 179 179
179 179 179
179 179 179
179 179 179
179 179 179
179 179 179
179 179 179
179 179 179
179 179 179
179 179 179
179 179 179
179 179 179
179 179 179
179 179 179
179 179 179
179 179 179
179 179 179
179 179 179
179 179 179
179 179 179
179 179 179
179 179 179
179 179 179
179 179 179
179 179 179
179 179 179
179 179 179
179 179 179
179 179 179
179 179 179
179 179 179
179 179 179
179 179 179
179 179 179
179 179 179
179 179 179
179 179 179
179 179 179
179 179 179
179 179 179
179 179 179
179 179 179
179 179 179
179 179 179
179 179 179
179 179 179
179 179 179
179 179 179
179 179 179
179 179 179
179 179 179
179 179 179
179 179 179
179 179 179
179 179 179
179 179 179
179 179 179
179 179 179
179 179 179
179 179 179
179 179 179
179 179 179
179 179 179
179 179 179
179 179 179
179 179 179
179 179 179
179 179 179
179 179 179
179 179 179
179 179 179
179 179 179
179 179 179
179 179 179
179 179 179
179 179 179
179 179 179
179 179 179
179 179 179
0 0 0
0 0 0
0 0 0
0 0 0
0 0 0
0 0 0
0 0 0
0 0 0
0 0 0
0 0 0
0 0 0
0 0 0
0 0 0
0 0 0
0 0 0
0 0 0
0 0 0
0 0 0
0 0 0
0 0 0
0 0 0
0 0 0
0 0 0
0 0 0
0 0 0
0 0 0
0 0 0
0 0 0
0 0 0
0 0 0
0 0 0
0 0 0
0 0 0
0 0 0
0 0 0
0 0 0
0 0 0
0 0 0
0 0 0
0 0 0
0 0 0
0 0 0
0 0 0
0 0 0
0 0 0
0 0 0
0 0 0
0 0 0
0 0 0
0 0 0
0 0 0
0 0 0
0 0 0
0 0 0
0 0 0
0 0 0
0 0 0
0 0 0
0 0 0
0 0 0
0 0 0
0 0 0
0 0 0
0 0 0
0 0 0
0 0 0
0 0 0
0 0 0
0 0 0
0 0 0
0 0 0
0 0 0
0 0 0
0 0 0
0 0 0
0 0 0
0 0 0
0 0 0
0 0 0
0 0 0
0 0 0
0 0 0
0 0 0
0 0 0
0 0 0
0 0 0
0 0 0
0 0 0
0 0 0
0 0 0
0 0 0
0 0 0
0 0 0
0 0 0
0 0 0
0 0 0
0 0 0
0 0 0
0 0 0
0 0 0
0 0 0
0 0 0
0 0 0
0 0 0
0 0 0
0 0 0
0 0 0
0 0 0
0 0 0
0 0 0
0 0 0
0 0 0
0 0 0
0 0 0
0 0 0
0 0 0
0 0 0
0 0 0
0 0 0
0 0 0
0 0 0
0 0 0
0 0 0
0 0 0
0 0 0
0 0 0
0 0 0
0 0 0
179 179 179
179 179 179
179 179 179
179 179 179
179 179 179
179 179 179
179 179 179
179 179 179
179 179 179
179 179 179
179 179 179
179 179 179
179 179 179
179 179 179
179 179 179
179 179 179
179 179 179
179 179 179
179 179 179
179 179 179
179 179 179
179 179 179
179 179 179
179 179 179
179 179 179
179 179 179
179 179 179
179 179 179
179 179 179
179 179 179
179 179 179
179 179 179
179 179 179
179 179 179
179 179 179
179 179 179
179 179 179
179 179 179
179 179 179
179 179 179
179 179 179
179 179 179
179 179 179
179 179 179
179 179 179
179 179 179
179 179 179
179 179 179
179 179 179
179 179 179
179 179 179
179 179 179
179 179 179
179 179 179
179 179 179
179 179 179
179 179 179
179 179 179
179 179 179
179 179 179
179 179 179
179 179 179
179 179 179
179 179 179
179 179 179
179 179 179
179 179 179
179 179 179
179 179 179
179 179 179
179 179 179
179 179 179
179 179 179
179 179 179
179 179 179
179 179 179
179 179 179
179 179 179
179 179 179
179 179 179
179 179 179
179 179 179
179 179 179
179 179 179
179 179 179
179 179 179
179 179 179
179 179 179
179 179 179
179 179 179
179 179 179
179 179 179
179 179 179
179 179 179
179 179 179
179 179 179
179 179 179
179 179 179
179 179 179
179 179 179
179 179 179
179 179 179
179 179 179
179 179 179
179 179 179
179 179 179
179 179 179
179 179 179
179 179 179
179 179 179
179 179 179
179 179 179
179 179 179
179 179 179
179 179 179
179 179 179
179 179 179
179 179 179
179 179 179
179 179 179
179 179 179
179 179 179
179 179 179
179 179 179
179 179 179
179 179 179
179 179 179
179 179 179
179 179 179
179 179 179
179 179 179
179 179 179
179 179 179
179 179 179
179 179 179
179 179 179
179 179 179
179 179 179
179 179 179
179 179 179
179 179 179
179 179 179
179 179 179
179 179 179
179 179 179
179 179 179
179 179 179
179 179 179
179 179 179
179 179 179
179 179 179
179 179 179
179 179 179
179 179 179
179 179 179
179 179 179
179 179 179
179 179 179
179 179 179
179 179 179
179 179 179
179 179 179
179 179 179
179 179 179
179 179 179
179 179 179
179 179 179
179 179 179
179 179 179
179 179 179
179 179 179
179 179 179
179 179 179
179 179 179
179 179 179
179 179 179
179 179 179
179 179 179
179 179 179
179 179 179
179 179 179
179 179 179
179 179 179
179 179 179
179 179 179
179 179 179
179 179 179
179 179 179
179 179 179
179 179 179
179 179 179
179 179 179
179 179 179
179 179 179
179 179 179
179 179 179
179 179 179
179 179 179
179 179 179
179 179 179
179 179 179
179 179 179
179 179 179
179 179 179
179 179 179
179 179 179
179 179 179
179 179 179
179 179 179
179 179 179
179 179 179
179 179 179
179 179 179
179 179 179
179 179 179
179 179 179
179 179 179
179 179 179
179 179 179
179 179 179
179 179 179
179 179 179
179 179 179
179 179 179
179 179 179
179 179 179
179 179 179
179 179 179
179 179 179
179 179 179
179 179 179
179 179 179
179 179 179
179 179 179
179 179 179
179 179 179
179 179 179
179 179 179
179 179 179
179 179 179
179 179 179
179 179 179
179 179 179
179 179 179
179 179 179
179 179 179
179 179 179
179 179 179
179 179 179
179 179 179
179 179 179
179 179 179
179 179 179
179 179 179
179 179 179
179 179 179
179 179 179
179 179 179
179 179 179
179 179 179
179 179 179
179 179 179
179 179 179
179 179 179
179 179 179
179 179 179
179 179 179
179 179 179
179 179 179
179 179 179
0 0 0
0 0 0
0 0 0
0 0 0
0 0 0
0 0 0
0 0 0
0 0 0
0 0 0
0 0 0
0 0 0
0 0 0
0 0 0
0 0 0
0 0 0
0 0 0
0 0 0
0 0 0
0 0 0
0 0 0
0 0 0
0 0 0
0 0 0
0 0 0
0 0 0
0 0 0
0 0 0
0 0 0
0 0 0
0 0 0
0 0 0
0 0 0
0 0 0
0 0 0
0 0 0
0 0 0
0 0 0
0 0 0
0 0 0
0 0 0
0 0 0
0 0 0
0 0 0
0 0 0
0 0 0
0 0 0
0 0 0
0 0 0
0 0 0
0 0 0
0 0 0
0 0 0
0 0 0
0 0 0
0 0 0
0 0 0
0 0 0
0 0 0
0 0 0
0 0 0
0 0 0
0 0 0
0 0 0
0 0 0
0 0 0
0 0 0
0 0 0
0 0 0
0 0 0
0 0 0
0 0 0
0 0 0
0 0 0
0 0 0
0 0 0
0 0 0
0 0 0
0 0 0
0 0 0
0 0 0
0 0 0
0 0 0
0 0 0
0 0 0
0 0 0
0 0 0
0 0 0
0 0 0
0 0 0
0 0 0
0 0 0
0 0 0
0 0 0
0 0 0
0 0 0
0 0 0
0 0 0
0 0 0
0 0 0
0 0 0
0 0 0
0 0 0
0 0 0
0 0 0
0 0 0
0 0 0
0 0 0
0 0 0
0 0 0
0 0 0
0 0 0
0 0 0
0 0 0
0 0 0
0 0 0
0 0 0
0 0 0
0 0 0
0 0 0
0 0 0
0 0 0
0 0 0
0 0 0
0 0 0
0 0 0
0 0 0
0 0 0
0 0 0
0 0 0
0 0 0
0 0 0
0 0 0
179 179 179
179 179 179
179 179 179
179 179 179
179 179 179
179 179 179
179 179 179
179 179 179
179 179 179
179 179 179
179 179 179
179 179 179
179 179 179
179 179 179
179 179 179
179 179 179
179 179 179
179 179 179
179 179 179
179 179 179
179 179 179
179 179 179
179 179 179
179 179 179
179 179 179
179 179 179
179 179 179
179 179 179
179 179 179
179 179 179
179 179 179
179 179 179
179 179 179
179 179 179
179 179 179
179 179 179
179 179 179
179 179 179
179 179 179
179 179 179
179 179 179
179 179 179
179 179 179
179 179 179
179 179 179
179 179 179
179 179 179
179 179 179
179 179 179
179 179 179
179 179 179
179 179 179
179 179 179
179 179 179
179 179 179
179 179 179
179 179 179
179 179 179
179 179 179
179 179 179
179 179 179
179 179 179
179 179 179
179 179 179
179 179 179
179 179 179
179 179 179
179 179 179
179 179 179
179 179 179
179 179 179
179 179 179
179 179 179
179 179 179
179 179 179
179 179 179
179 179 179
179 179 179
179 179 179
179 179 179
179 179 179
179 179 179
179 179 179
179 179 179
179 179 179
179 179 179
179 179 179
179 179 179
179 179 179
179 179 179
179 179 179
179 179 179
179 179 179
179 179 179
179 179 179
179 179 179
179 179 179
179 179 179
179 179 179
179 179 179
179 179 179
179 179 179
179 179 179
179 179 179
179 179 179
179 179 179
179 179 179
179 179 179
179 179 179
179 179 179
179 179 179
179 179 179
179 179 179
179 179 179
179 179 179
179 179 179
179 179 179
179 179 179
179 179 179
179 179 179
179 179 179
179 179 179
179 179 179
179 179 179
179 179 179
179 179 179
179 179 179
179 179 179
179 179 179
179 179 179
179 179 179
179 179 179
179 179 179
179 179 179
179 179 179
179 179 179
179 179 179
179 179 179
179 179 179
179 179 179
179 179 179
179 179 179
179 179 179
179 179 179
179 179 179
179 179 179
179 179 179
179 179 179
179 179 179
179 179 179
179 179 179
179 179 179
179 179 179
179 179 179
179 179 179
179 179 179
179 179 179
179 179 179
179 179 179
179 179 179
179 179 179
179 179 179
179 179 179
179 179 179
179 179 179
179 179 179
179 179 179
179 179 179
179 179 179
179 179 179
179 179 179
179 179 179
179 179 179
179 179 179
179 179 179
179 179 179
179 179 179
179 179 179
179 179 179
179 179 179
179 179 179
179 179 179
179 179 179
179 179 179
179 179 179
179 179 179
179 179 179
179 179 179
179 179 179
179 179 179
179 179 179
179 179 179
179 179 179
179 179 179
179 179 179
179 179 179
179 179 179
179 179 179
179 179 179
179 179 179
179 179 179
179 179 179
179 179 179
179 179 179
179 179 179
179 179 179
179 179 179
179 179 179
179 179 179
179 179 179
179 179 179
179 179 179
179 179 179
179 179 179
179 179 179
179 179 179
179 179 179
179 179 179
179 179 179
179 179 179
179 179 179
179 179 179
179 179 179
179 179 179
179 179 179
179 179 179
179 179 179
179 179 179
179 179 179
179 179 179
179 179 179
179 179 179
179 179 179
179 179 179
179 179 179
179 179 179
179 179 179
179 179 179
179 179 179
179 179 179
179 179 179
179 179 179
179 179 179
179 179 179
179 179 179
179 179 179
179 179 179
179 179 179
179 179 179
179 179 179
179 179 179
179 179 179
179 179 179
179 179 179
179 179 179
179 179 179
179 179 179
179 179 179
179 179 179
179 179 179
179 179 179
179 179 179
179 179 179
179 179 179
179 179 179
179 179 179
179 179 179
0 0 0
0 0 0
0 0 0
0 0 0
0 0 0
0 0 0
0 0 0
0 0 0
0 0 0
0 0 0
0 0 0
0 0 0
0 0 0
0 0 0
0 0 0
0 0 0
0 0 0
0 0 0
0 0 0
0 0 0
0 0 0
0 0 0
0 0 0
0 0 0
0 0 0
0 0 0
0 0 0
0 0 0
0 0 0
0 0 0
0 0 0
0 0 0
0 0 0
0 0 0
0 0 0
0 0 0
0 0 0
0 0 0
0 0 0
0 0 0
0 0 0
0 0 0
0 0 0
0 0 0
0 0 0
0 0 0
0 0 0
0 0 0
0 0 0
0 0 0
0 0 0
0 0 0
0 0 0
0 0 0
0 0 0
0 0 0
0 0 0
0 0 0
0 0 0
0 0 0
0 0 0
0 0 0
0 0 0
0 0 0
0 0 0
0 0 0
0 0 0
0 0 0
0 0 0
0 0 0
0 0 0
0 0 0
0 0 0
0 0 0
0 0 0
0 0 0
0 0 0
0 0 0
0 0 0
0 0 0
0 0 0
0 0 0
0 0 0
0 0 0
0 0 0
0 0 0
0 0 0
0 0 0
0 0 0
0 0 0
0 0 0
0 0 0
0 0 0
0 0 0
0 0 0
0 0 0
0 0 0
0 0 0
0 0 0
0 0 0
0 0 0
0 0 0
0 0 0
0 0 0
0 0 0
0 0 0
0 0 0
0 0 0
0 0 0
0 0 0
0 0 0
0 0 0
0 0 0
0 0 0
0 0 0
0 0 0
0 0 0
0 0 0
0 0 0
0 0 0
0 0 0
0 0 0
0 0 0
0 0 0
0 0 0
0 0 0
0 0 0
0 0 0
0 0 0
0 0 0
0 0 0
0 0 0
0 0 0
0 0 0
179 179 179
179 179 179
179 179 179
179 179 179
179 179 179
179 179 179
179 179 179
179 179 179
179 179 179
179 179 179
179 179 179
179 179 179
179 179 179
179 179 179
179 179 179
179 179 179
179 179 179
179 179 179
179 179 179
179 179 179
179 179 179
179 179 179
179 179 179
179 179 179
179 179 179
179 179 179
179 179 179
179 179 179
179 179 179
179 179 179
179 179 179
179 179 179
179 179 179
179 179 179
179 179 179
179 179 179
179 179 179
179 179 179
179 179 179
179 179 179
179 179 179
179 179 179
179 179 179
179 179 179
179 179 179
179 179 179
179 179 179
179 179 179
179 179 179
179 179 179
179 179 179
179 179 179
179 179 179
179 179 179
179 179 179
179 179 179
179 179 179
179 179 179
179 179 179
179 179 179
179 179 179
179 179 179
179 179 179
179 179 179
179 179 179
179 179 179
179 179 179
179 179 179
179 179 179
179 179 179
179 179 179
179 179 179
179 179 179
179 179 179
179 179 179
179 179 179
179 179 179
179 179 179
179 179 179
179 179 179
179 179 179
179 179 179
179 179 179
179 179 179
179 179 179
179 179 179
179 179 179
179 179 179
179 179 179
179 179 179
179 179 179
179 179 179
179 179 179
179 179 179
179 179 179
179 179 179
179 179 179
179 179 179
179 179 179
179 179 179
179 179 179
179 179 179
179 179 179
179 179 179
179 179 179
179 179 179
179 179 179
179 179 179
179 179 179
179 179 179
179 179 179
179 179 179
179 179 179
179 179 179
179 179 179
179 179 179
179 179 179
179 179 179
179 179 179
179 179 179
179 179 179
179 179 179
179 179 179
179 179 179
179 179 179
179 179 179
179 179 179
179 179 179
179 179 179
179 179 179
179 179 179
179 179 179
179 179 179
179 179 179
179 179 179
179 179 179
179 179 179
179 179 179
179 179 179
179 179 179
179 179 179
179 179 179
179 179 179
179 179 179
179 179 179
179 179 179
179 179 179
179 179 179
179 179 179
179 179 179
179 179 179
179 179 179
179 179 179
179 179 179
179 179 179
179 179 179
179 179 179
179 179 179
179 179 179
179 179 179
179 179 179
179 179 179
179 179 179
179 179 179
179 179 179
179 179 179
179 179 179
179 179 179
179 179 179
179 179 179
179 179 179
179 179 179
179 179 179
179 179 179
179 179 179
179 179 179
179 179 179
179 179 179
179 179 179
179 179 179
179 179 179
179 179 179
179 179 179
179 179 179
179 179 179
179 179 179
179 179 179
179 179 179
179 179 179
179 179 179
179 179 179
179 179 179
179 179 179
179 179 179
179 179 179
179 179 179
179 179 179
179 179 179
179 179 179
179 179 179
179 179 179
179 179 179
179 179 179
179 179 179
179 179 179
179 179 179
179 179 179
179 179 179
179 179 179
179 179 179
179 179 179
179 179 179
179 179 179
179 179 179
179 179 179
179 179 179
179 179 179
179 179 179
179 179 179
179 179 179
179 179 179
179 179 179
179 179 179
179 179 179
179 179 179
179 179 179
179 179 179
179 179 179
179 179 179
179 179 179
179 179 179
179 179 179
179 179 179
179 179 179
179 179 179
179 179 179
179 179 179
179 179 179
179 179 179
179 179 179
179 179 179
179 179 179
179 179 179
179 179 179
179 179 179
179 179 179
179 179 179
179 179 179
179 179 179
179 179 179
179 179 179
179 179 179
179 179 179
179 179 179
179 179 179
179 179 179
179 179 179
179 179 179
179 179 179
179 179 179
179 179 179
179 179 179
179 179 179
179 179 179
179 179 179
0 0 0
0 0 0
0 0 0
0 0 0
0 0 0
0 0 0
0 0 0
0 0 0
0 0 0
0 0 0
0 0 0
0 0 0
0 0 0
0 0 0
0 0 0
0 0 0
0 0 0
0 0 0
0 0 0
0 0 0
0 0 0
0 0 0
0 0 0
0 0 0
0 0 0
0 0 0
0 0 0
0 0 0
0 0 0
0 0 0
0 0 0
0 0 0
0 0 0
0 0 0
0 0 0
0 0 0
0 0 0
0 0 0
0 0 0
0 0 0
0 0 0
0 0 0
0 0 0
0 0 0
0 0 0
0 0 0
0 0 0
0 0 0
0 0 0
0 0 0
0 0 0
0 0 0
0 0 0
0 0 0
0 0 0
0 0 0
0 0 0
0 0 0
0 0 0
0 0 0
0 0 0
0 0 0
0 0 0
0 0 0
0 0 0
0 0 0
0 0 0
0 0 0
0 0 0
0 0 0
0 0 0
0 0 0
0 0 0
0 0 0
0 0 0
0 0 0
0 0 0
0 0 0
0 0 0
0 0 0
0 0 0
0 0 0
0 0 0
0 0 0
0 0 0
0 0 0
0 0 0
0 0 0
0 0 0
0 0 0
0 0 0
0 0 0
0 0 0
0 0 0
0 0 0
0 0 0
0 0 0
0 0 0
0 0 0
0 0 0
0 0 0
0 0 0
0 0 0
0 0 0
0 0 0
0 0 0
0 0 0
0 0 0
0 0 0
0 0 0
0 0 0
0 0 0
0 0 0
0 0 0
0 0 0
0 0 0
0 0 0
0 0 0
0 0 0
0 0 0
0 0 0
0 0 0
0 0 0
0 0 0
0 0 0
0 0 0
0 0 0
0 0 0
0 0 0
0 0 0
0 0 0
0 0 0
0 0 0
0 0 0
0 0 0
0 0 0
179 179 179
179 179 179
179 179 179
179 179 179
179 179 179
179 179 179
179 179 179
179 179 179
179 179 179
179 179 179
179 179 179
179 179 179
179 179 179
179 179 179
179 179 179
179 179 179
179 179 179
179 179 179
179 179 179
179 179 179
179 179 179
179 179 179
179 179 179
179 179 179
179 179 179
179 179 179
179 179 179
179 179 179
179 179 179
179 179 179
179 179 179
179 179 179
179 179 179
179 179 179
179 179 179
179 179 179
179 179 179
179 179 179
179 179 179
179 179 179
179 179 179
179 179 179
179 179 179
179 179 179
179 179 179
179 179 179
179 179 179
179 179 179
179 179 179
179 179 179
179 179 179
179 179 179
179 179 179
179 179 179
179 179 179
179 179 179
179 179 179
179 179 179
179 179 179
179 179 179
179 179 179
179 179 179
179 179 179
179 179 179
179 179 179
179 179 179
179 179 179
179 179 179
179 179 179
179 179 179
179 179 179
179 179 179
179 179 179
179 179 179
179 179 179
179 179 179
179 179 179
179 179 179
179 179 179
179 179 179
179 179 179
179 179 179
179 179 179
179 179 179
179 179 179
179 179 179
179 179 179
179 179 179
179 179 179
179 179 179
179 179 179
179 179 179
179 179 179
179 179 179
179 179 179
179 179 179
179 179 179
179 179 179
179 179 179
179 179 179
179 179 179
179 179 179
179 179 179
179 179 179
179 179 179
179 179 179
179 179 179
179 179 179
179 179 179
179 179 179
179 179 179
179 179 179
179 179 179
179 179 179
179 179 179
179 179 179
179 179 179
179 179 179
179 179 179
179 179 179
179 179 179
179 179 179
179 179 179
179 179 179
179 179 179
179 179 179
179 179 179
179 179 179
179 179 179
179 179 179
179 179 179
179 179 179
179 179 179
179 179 179
179 179 179
179 179 179
179 179 179
179 179 179
179 179 179
179 179 179
179 179 179
179 179 179
179 179 179
179 179 179
179 179 179
179 179 179
179 179 179
179 179 179
179 179 179
179 179 179
179 179 179
179 179 179
179 179 179
179 179 179
179 179 179
179 179 179
179 179 179
179 179 179
179 179 179
179 179 179
179 179 179
179 179 179
179 179 179
179 179 179
179 179 179
179 179 179
179 179 179
179 179 179
179 179 179
179 179 179
179 179 179
179 179 179
179 179 179
179 179 179
179 179 179
179 179 179
179 179 179
179 179 179
179 179 179
179 179 179
179 179 179
179 179 179
179 179 179
179 179 179
179 179 179
179 179 179
179 179 179
179 179 179
179 179 179
179 179 179
179 179 179
179 179 179
179 179 179
179 179 179
179 179 179
179 179 179
179 179 179
179 179 179
179 179 179
179 179 179
179 179 179
179 179 179
179 179 179
179 179 179
179 179 179
179 179 179
179 179 179
179 179 179
179 179 179
179 179 179
179 179 179
179 179 179
179 179 179
179 179 179
179 179 179
179 179 179
179 179 179
179 179 179
179 179 179
179 179 179
179 179 179
179 179 179
179 179 179
179 179 179
179 179 179
179 179 179
179 179 179
179 179 179
179 179 179
179 179 179
179 179 179
179 179 179
179 179 179
179 179 179
179 179 179
179 179 179
179 179 179
179 179 179
179 179 179
179 179 179
179 179 179
179 179 179
179 179 179
179 179 179
179 179 179
179 179 179
179 179 179
179 179 179
179 179 179
179 179 179
179 179 179
179 179 179
179 179 179
179 179 179
179 179 179
179 179 179
179 179 179
179 179 179
179 179 179
179 179 179
179 179 179
179 179 179
179 179 179
0 0 0
0 0 0
0 0 0
0 0 0
0 0 0
0 0 0
0 0 0
0 0 0
0 0 0
0 0 0
0 0 0
0 0 0
0 0 0
0 0 0
0 0 0
0 0 0
0 0 0
0 0 0
0 0 0
0 0 0
0 0 0
0 0 0
0 0 0
0 0 0
0 0 0
0 0 0
0 0 0
0 0 0
0 0 0
0 0 0
0 0 0
0 0 0
0 0 0
0 0 0
0 0 0
0 0 0
0 0 0
0 0 0
0 0 0
0 0 0
0 0 0
0 0 0
0 0 0
0 0 0
0 0 0
0 0 0
0 0 0
0 0 0
0 0 0
0 0 0
0 0 0
0 0 0
0 0 0
0 0 0
0 0 0
0 0 0
0 0 0
0 0 0
0 0 0
0 0 0
0 0 0
0 0 0
0 0 0
0 0 0
0 0 0
0 0 0
0 0 0
0 0 0
0 0 0
0 0 0
0 0 0
0 0 0
0 0 0
0 0 0
0 0 0
0 0 0
0 0 0
0 0 0
0 0 0
0 0 0
0 0 0
0 0 0
0 0 0
0 0 0
0 0 0
0 0 0
0 0 0
0 0 0
0 0 0
0 0 0
0 0 0
0 0 0
0 0 0
0 0 0
0 0 0
0 0 0
0 0 0
0 0 0
0 0 0
0 0 0
0 0 0
0 0 0
0 0 0
0 0 0
0 0 0
0 0 0
0 0 0
0 0 0
0 0 0
0 0 0
0 0 0
0 0 0
0 0 0
0 0 0
0 0 0
0 0 0
0 0 0
0 0 0
0 0 0
0 0 0
0 0 0
0 0 0
0 0 0
0 0 0
0 0 0
0 0 0
0 0 0
0 0 0
0 0 0
0 0 0
0 0 0
0 0 0
0 0 0
0 0 0
0 0 0
0 0 0
0 0 0
0 0 0
179 179 179
179 179 179
179 179 179
179 179 179
179 179 179
179 179 179
179 179 179
179 179 179
179 179 179
179 179 179
179 179 179
179 179 179
179 179 179
179 179 179
179 179 179
179 179 179
179 179 179
179 179 179
179 179 179
179 179 179
179 179 179
179 179 179
179 179 179
179 179 179
179 179 179
179 179 179
179 179 179
179 179 179
179 179 179
179 179 179
179 179 179
179 179 179
179 179 179
179 179 179
179 179 179
179 179 179
179 179 179
179 179 179
179 179 179
179 179 179
179 179 179
179 179 179
179 179 179
179 179 179
179 179 179
179 179 179
179 179 179
179 179 179
179 179 179
179 179 179
179 179 179
179 179 179
179 179 179
179 179 179
179 179 179
179 179 179
179 179 179
179 179 179
179 179 179
179 179 179
179 179 179
179 179 179
179 179 179
179 179 179
179 179 179
179 179 179
179 179 179
179 179 179
179 179 179
179 179 179
179 179 179
179 179 179
179 179 179
179 179 179
179 179 179
179 179 179
179 179 179
179 179 179
179 179 179
179 179 179
179 179 179
179 179 179
179 179 179
179 179 179
179 179 179
179 179 179
179 179 179
179 179 179
179 179 179
179 179 179
179 179 179
179 179 179
179 179 179
179 179 179
179 179 179
179 179 179
179 179 179
179 179 179
179 179 179
179 179 179
179 179 179
179 179 179
179 179 179
179 179 179
179 179 179
179 179 179
179 179 179
179 179 179
179 179 179
179 179 179
179 179 179
179 179 179
179 179 179
179 179 179
179 179 179
179 179 179
179 179 179
179 179 179
179 179 179
179 179 179
179 179 179
179 179 179
179 179 179
179 179 179
179 179 179
179 179 179
179 179 179
179 179 179
179 179 179
179 179 179
179 179 179
179 179 179
179 179 179
179 179 179
179 179 179
179 179 179
179 179 179
179 179 179
179 179 179
179 179 179
179 179 179
179 179 179
179 179 179
179 179 179
179 179 179
179 179 179
179 179 179
179 179 179
179 179 179
179 179 179
179 179 179
179 179 179
179 179 179
179 179 179
179 179 179
179 179 179
179 179 179
179 179 179
179 179 179
179 179 179
179 179 179
179 179 179
179 179 179
179 179 179
179 179 179
179 179 179
179 179 179
179 179 179
179 179 179
179 179 179
179 179 179
179 179 179
179 179 179
179 179 179
179 179 179
179 179 179
179 179 179
179 179 179
179 179 179
179 179 179
179 179 179
179 179 179
179 179 179
179 179 179
179 179 179
179 179 179
179 179 179
179 179 179
179 179 179
179 179 179
179 179 179
179 179 179
179 179 179
179 179 179
179 179 179
179 179 179
179 179 179
179 179 179
179 179 179
179 179 179
179 179 179
179 179 179
179 179 179
179 179 179
179 179 179
179 179 179
179 179 179
179 179 179
179 179 179
179 179 179
179 179 179
179 179 179
179 179 179
179 179 179
179 179 179
179 179 179
179 179 179
179 179 179
179 179 179
179 179 179
179 179 179
179 179 179
179 179 179
179 179 179
179 179 179
179 179 179
179 179 179
179 179 179
179 179 179
179 179 179
179 179 179
179 179 179
179 179 179
179 179 179
179 179 179
179 179 179
179 179 179
179 179 179
179 179 179
179 179 179
179 179 179
179 179 179
179 179 179
179 179 179
179 179 179
179 179 179
179 179 179
179 179 179
179 179 179
179 179 179
179 179 179
179 179 179
179 179 179
179 179 179
179 179 179
179 179 179
179 179 179
179 179 179
179 179 179
179 179 179
0 0 0
0 0 0
0 0 0
0 0 0
0 0 0
0 0 0
0 0 0
0 0 0
0 0 0
0 0 0
0 0 0
0 0 0
0 0 0
0 0 0
0 0 0
0 0 0
0 0 0
0 0 0
0 0 0
0 0 0
0 0 0
0 0 0
0 0 0
0 0 0
0 0 0
0 0 0
0 0 0
0 0 0
0 0 0
0 0 0
0 0 0
0 0 0
0 0 0
0 0 0
0 0 0
0 0 0
0 0 0
0 0 0
0 0 0
0 0 0
0 0 0
0 0 0
0 0 0
0 0 0
0 0 0
0 0 0
0 0 0
0 0 0
0 0 0
0 0 0
0 0 0
0 0 0
0 0 0
0 0 0
0 0 0
0 0 0
0 0 0
0 0 0
0 0 0
0 0 0
0 0 0
0 0 0
0 0 0
0 0 0
0 0 0
0 0 0
0 0 0
0 0 0
0 0 0
0 0 0
0 0 0
0 0 0
0 0 0
0 0 0
0 0 0
0 0 0
0 0 0
0 0 0
0 0 0
0 0 0
0 0 0
0 0 0
0 0 0
0 0 0
0 0 0
0 0 0
0 0 0
0 0 0
0 0 0
0 0 0
0 0 0
0 0 0
0 0 0
0 0 0
0 0 0
0 0 0
0 0 0
0 0 0
0 0 0
0 0 0
0 0 0
0 0 0
0 0 0
0 0 0
0 0 0
0 0 0
0 0 0
0 0 0
0 0 0
0 0 0
0 0 0
0 0 0
0 0 0
0 0 0
0 0 0
0 0 0
0 0 0
0 0 0
0 0 0
0 0 0
0 0 0
0 0 0
0 0 0
0 0 0
0 0 0
0 0 0
0 0 0
0 0 0
0 0 0
0 0 0
0 0 0
0 0 0
0 0 0
0 0 0
0 0 0
0 0 0
0 0 0
0 0 0
0 0 0
0 0 0
0 0 0
0 0 0
179 179 179
179 179 179
179 179 179
179 179 179
179 179 179
179 179 179
179 179 179
179 179 179
179 179 179
179 179 179
179 179 179
179 179 179
179 179 179
179 179 179
179 179 179
179 179 179
179 179 179
179 179 179
179 179 179
179 179 179
179 179 179
179 179 179
179 179 179
179 179 179
179 179 179
179 179 179
179 179 179
179 179 179
179 179 179
179 179 179
179 179 179
179 179 179
179 179 179
179 179 179
179 179 179
179 179 179
179 179 179
179 179 179
179 179 179
179 179 179
179 179 179
179 179 179
179 179 179
179 179 179
179 179 179
179 179 179
179 179 179
179 179 179
179 179 179
179 179 179
179 179 179
179 179 179
179 179 179
179 179 179
179 179 179
179 179 179
179 179 179
179 179 179
179 179 179
179 179 179
179 179 179
179 179 179
179 179 179
179 179 179
179 179 179
179 179 179
179 179 179
179 179 179
179 179 179
179 179 179
179 179 179
179 179 179
179 179 179
179 179 179
179 179 179
179 179 179
179 179 179
179 179 179
179 179 179
179 179 179
179 179 179
179 179 179
179 179 179
179 179 179
179 179 179
179 179 179
179 179 179
179 179 179
179 179 179
179 179 179
179 179 179
179 179 179
179 179 179
179 179 179
179 179 179
179 179 179
179 179 179
179 179 179
179 179 179
179 179 179
179 179 179
179 179 179
179 179 179
179 179 179
179 179 179
179 179 179
179 179 179
179 179 179
179 179 179
179 179 179
179 179 179
179 179 179
179 179 179
179 179 179
179 179 179
179 179 179
179 179 179
179 179 179
179 179 179
179 179 179
179 179 179
179 179 179
179 179 179
179 179 179
179 179 179
179 179 179
179 179 179
179 179 179
179 179 179
179 179 179
179 179 179
179 179 179
179 179 179
179 179 179
179 179 179
179 179 179
179 179 179
179 179 179
179 179 179
179 179 179
179 179 179
179 179 179
179 179 179
179 179 179
179 179 179
179 179 179
179 179 179
179 179 179
179 179 179
179 179 179
179 179 179
179 179 179
179 179 179
179 179 179
179 179 179
179 179 179
179 179 179
179 179 179
179 179 179
179 179 179
179 179 179
179 179 179
179 179 179
179 179 179
179 179 179
179 179 179
179 179 179
179 179 179
179 179 179
179 179 179
179 179 179
179 179 179
179 179 179
179 179 179
179 179 179
179 179 179
179 179 179
179 179 179
179 179 179
179 179 179
179 179 179
179 179 179
179 179 179
179 179 179
179 179 179
179 179 179
179 179 179
179 179 179
179 179 179
179 179 179
179 179 179
179 179 179
179 179 179
179 179 179
179 179 179
179 179 179
179 179 179
179 179 179
179 179 179
179 179 179
179 179 179
179 179 179
179 179 179
179 179 179
179 179 179
179 179 179
179 179 179
179 179 179
179 179 179
179 179 179
179 179 179
179 179 179
179 179 179
179 179 179
179 179 179
179 179 179
179 179 179
179 179 179
179 179 179
179 179 179
179 179 179
179 179 179
179 179 179
179 179 179
179 179 179
179 179 179
179 179 179
179 179 179
179 179 179
179 179 179
179 179 179
179 179 179
179 179 179
179 179 179
179 179 179
179 179 179
179 179 179
179 179 179
179 179 179
179 179 179
179 179 179
179 179 179
179 179 179
179 179 179
179 179 179
179 179 179
179 179 179
179 179 179
179 179 179
179 179 179
179 179 179
179 179 179
179 179 179
179 179 179
179 179 179
179 179 179
179 179 179
0 0 0
0 0 0
0 0 0
0 0 0
0 0 0
0 0 0
0 0 0
0 0 0
0 0 0
0 0 0
0 0 0
0 0 0
0 0 0
0 0 0
0 0 0
0 0 0
0 0 0
0 0 0
0 0 0
0 0 0
0 0 0
0 0 0
0 0 0
0 0 0
0 0 0
0 0 0
0 0 0
0 0 0
0 0 0
0 0 0
0 0 0
0 0 0
0 0 0
0 0 0
0 0 0
0 0 0
0 0 0
0 0 0
0 0 0
0 0 0
0 0 0
0 0 0
0 0 0
0 0 0
0 0 0
0 0 0
0 0 0
0 0 0
0 0 0
0 0 0
0 0 0
0 0 0
0 0 0
0 0 0
0 0 0
0 0 0
0 0 0
0 0 0
0 0 0
0 0 0
0 0 0
0 0 0
0 0 0
0 0 0
0 0 0
0 0 0
0 0 0
0 0 0
0 0 0
0 0 0
0 0 0
0 0 0
0 0 0
0 0 0
0 0 0
0 0 0
0 0 0
0 0 0
0 0 0
0 0 0
0 0 0
0 0 0
0 0 0
0 0 0
0 0 0
0 0 0
0 0 0
0 0 0
0 0 0
0 0 0
0 0 0
0 0 0
0 0 0
0 0 0
0 0 0
0 0 0
0 0 0
0 0 0
0 0 0
0 0 0
0 0 0
0 0 0
0 0 0
0 0 0
0 0 0
0 0 0
0 0 0
0 0 0
0 0 0
0 0 0
0 0 0
0 0 0
0 0 0
0 0 0
0 0 0
0 0 0
0 0 0
0 0 0
0 0 0
0 0 0
0 0 0
0 0 0
0 0 0
0 0 0
0 0 0
0 0 0
0 0 0
0 0 0
0 0 0
0 0 0
0 0 0
0 0 0
0 0 0
0 0 0
0 0 0
0 0 0
0 0 0
0 0 0
0 0 0
0 0 0
0 0 0
0 0 0
0 0 0
0 0 0
179 179 179
179 179 179
179 179 179
179 179 179
179 179 179
179 179 179
179 179 179
179 179 179
179 179 179
179 179 179
179 179 179
179 179 179
179 179 179
179 179 179
179 179 179
179 179 179
179 179 179
179 179 179
179 179 179
179 179 179
179 179 179
179 179 179
179 179 179
179 179 179
179 179 179
179 179 179
179 179 179
179 179 179
179 179 179
179 179 179
179 179 179
179 179 179
179 179 179
179 179 179
179 179 179
179 179 179
179 179 179
179 179 179
179 179 179
179 179 179
179 179 179
179 179 179
179 179 179
179 179 179
179 179 179
179 179 179
179 179 179
179 179 179
179 179 179
179 179 179
179 179 179
179 179 179
179 179 179
179 179 179
179 179 179
179 179 179
179 179 179
179 179 179
179 179 179
179 179 179
179 179 179
179 179 179
179 179 179
179 179 179
179 179 179
179 179 179
179 179 179
179 179 179
179 179 179
179 179 179
179 179 179
179 179 179
179 179 179
179 179 179
179 179 179
179 179 179
179 179 179
179 179 179
179 179 179
179 179 179
179 179 179
179 179 179
179 179 179
179 179 179
179 179 179
179 179 179
179 179 179
179 179 179
179 179 179
179 179 179
179 179 179
179 179 179
179 179 179
179 179 179
179 179 179
179 179 179
179 179 179
179 179 179
179 179 179
179 179 179
179 179 179
179 179 179
179 179 179
179 179 179
179 179 179
179 179 179
179 179 179
179 179 179
179 179 179
179 179 179
179 179 179
179 179 179
179 179 179
179 179 179
179 179 179
179 179 179
179 179 179
179 179 179
179 179 179
179 179 179
179 179 179
179 179 179
179 179 179
179 179 179
179 179 179
179 179 179
179 179 179
179 179 179
179 179 179
179 179 179
179 179 179
179 179 179
179 179 179
179 179 179
179 179 179
179 179 179
179 179 179
179 179 179
179 179 179
179 179 179
179 179 179
179 179 179
179 179 179
179 179 179
179 179 179
179 179 179
179 179 179
179 179 179
179 179 179
179 179 179
179 179 179
179 179 179
179 179 179
179 179 179
179 179 179
179 179 179
179 179 179
179 179 179
179 179 179
179 179 179
179 179 179
179 179 179
179 179 179
179 179 179
179 179 179
179 179 179
179 179 179
179 179 179
179 179 179
179 179 179
179 179 179
179 179 179
179 179 179
179 179 179
179 179 179
179 179 179
179 179 179
179 179 179
179 179 179
179 179 179
179 179 179
179 179 179
179 179 179
179 179 179
179 179 179
179 179 179
179 179 179
179 179 179
179 179 179
179 179 179
179 179 179
179 179 179
179 179 179
179 179 179
179 179 179
179 179 179
179 179 179
179 179 179
179 179 179
179 179 179
179 179 179
179 179 179
179 179 179
179 179 179
179 179 179
179 179 179
179 179 179
179 179 179
179 179 179
179 179 179
179 179 179
179 179 179
179 179 179
179 179 179
179 179 179
179 179 179
179 179 179
179 179 179
179 179 179
179 179 179
179 179 179
179 179 179
179 179 179
179 179 179
179 179 179
179 179 179
179 179 179
179 179 179
179 179 179
179 179 179
179 179 179
179 179 179
179 179 179
179 179 179
179 179 179
179 179 179
179 179 179
179 179 179
179 179 179
179 179 179
179 179 179
179 179 179
179 179 179
179 179 179
179 179 179
179 179 179
179 179 179
179 179 179
179 179 179
179 179 179
179 179 179
179 179 179
179 179 179
179 179 179
179 179 179
0 0 0
0 0 0
0 0 0
0 0 0
0 0 0
0 0 0
0 0 0
0 0 0
0 0 0
0 0 0
0 0 0
0 0 0
0 0 0
0 0 0
0 0 0
0 0 0
0 0 0
0 0 0
0 0 0
0 0 0
0 0 0
0 0 0
0 0 0
0 0 0
0 0 0
0 0 0
0 0 0
0 0 0
0 0 0
0 0 0
0 0 0
0 0 0
0 0 0
0 0 0
0 0 0
0 0 0
0 0 0
0 0 0
0 0 0
0 0 0
0 0 0
0 0 0
0 0 0
0 0 0
0 0 0
0 0 0
0 0 0
0 0 0
0 0 0
0 0 0
0 0 0
0 0 0
0 0 0
0 0 0
0 0 0
0 0 0
0 0 0
0 0 0
0 0 0
0 0 0
0 0 0
0 0 0
0 0 0
0 0 0
0 0 0
0 0 0
0 0 0
0 0 0
0 0 0
0 0 0
0 0 0
0 0 0
0 0 0
0 0 0
0 0 0
0 0 0
0 0 0
0 0 0
0 0 0
0 0 0
0 0 0
0 0 0
0 0 0
0 0 0
0 0 0
0 0 0
0 0 0
0 0 0
0 0 0
0 0 0
0 0 0
0 0 0
0 0 0
0 0 0
0 0 0
0 0 0
0 0 0
0 0 0
0 0 0
0 0 0
0 0 0
0 0 0
0 0 0
0 0 0
0 0 0
0 0 0
0 0 0
0 0 0
0 0 0
0 0 0
0 0 0
0 0 0
0 0 0
0 0 0
0 0 0
0 0 0
0 0 0
0 0 0
0 0 0
0 0 0
0 0 0
0 0 0
0 0 0
0 0 0
0 0 0
0 0 0
0 0 0
0 0 0
0 0 0
0 0 0
0 0 0
0 0 0
0 0 0
0 0 0
0 0 0
0 0 0
0 0 0
0 0 0
0 0 0
0 0 0
0 0 0
0 0 0
0 0 0
0 0 0
0 0 0
0 0 0
179 179 179
179 179 179
179 179 179
179 179 179
179 179 179
179 179 179
179 179 179
179 179 179
179 179 179
179 179 179
179 179 179
179 179 179
179 179 179
179 179 179
179 179 179
179 179 179
179 179 179
179 179 179
179 179 179
179 179 179
179 179 179
179 179 179
179 179 179
179 179 179
179 179 179
179 179 179
179 179 179
179 179 179
179 179 179
179 179 179
179 179 179
179 179 179
179 179 179
179 179 179
179 179 179
179 179 179
179 179 179
179 179 179
179 179 179
179 179 179
179 179 179
179 179 179
179 179 179
179 179 179
179 179 179
179 179 179
179 179 179
179 179 179
179 179 179
179 179 179
179 179 179
179 179 179
179 179 179
179 179 179
179 179 179
179 179 179
179 179 179
179 179 179
179 179 179
179 179 179
179 179 179
179 179 179
179 179 179
179 179 179
179 179 179
179 179 179
179 179 179
179 179 179
179 179 179
179 179 179
179 179 179
179 179 179
179 179 179
179 179 179
179 179 179
179 179 179
179 179 179
179 179 179
179 179 179
179 179 179
179 179 179
179 179 179
179 179 179
179 179 179
179 179 179
179 179 179
179 179 179
179 179 179
179 179 179
179 179 179
179 179 179
179 179 179
179 179 179
179 179 179
179 179 179
179 179 179
179 179 179
179 179 179
179 179 179
179 179 179
179 179 179
179 179 179
179 179 179
179 179 179
179 179 179
179 179 179
179 179 179
179 179 179
179 179 179
179 179 179
179 179 179
179 179 179
179 179 179
179 179 179
179 179 179
179 179 179
179 179 179
179 179 179
179 179 179
179 179 179
179 179 179
179 179 179
179 179 179
179 179 179
179 179 179
179 179 179
179 179 179
179 179 179
179 179 179
179 179 179
179 179 179
179 179 179
179 179 179
179 179 179
179 179 179
179 179 179
179 179 179
179 179 179
179 179 179
179 179 179
179 179 179
179 179 179
179 179 179
179 179 179
179 179 179
179 179 179
179 179 179
179 179 179
179 179 179
179 179 179
179 179 179
179 179 179
179 179 179
179 179 179
179 179 179
179 179 179
179 179 179
179 179 179
179 179 179
179 179 179
179 179 179
179 179 179
179 179 179
179 179 179
179 179 179
179 179 179
179 179 179
179 179 179
179 179 179
179 179 179
179 179 179
179 179 179
179 179 179
179 179 179
179 179 179
179 179 179
179 179 179
179 179 179
179 179 179
179 179 179
179 179 179
179 179 179
179 179 179
179 179 179
179 179 179
179 179 179
179 179 179
179 179 179
179 179 179
179 179 179
179 179 179
179 179 179
179 179 179
179 179 179
179 179 179
179 179 179
179 179 179
179 179 179
179 179 179
179 179 179
179 179 179
179 179 179
179 179 179
179 179 179
179 179 179
179 179 179
179 179 179
179 179 179
179 179 179
179 179 179
179 179 179
179 179 179
179 179 179
179 179 179
179 179 179
179 179 179
179 179 179
179 179 179
179 179 179
179 179 179
179 179 179
179 179 179
179 179 179
179 179 179
179 179 179
179 179 179
179 179 179
179 179 179
179 179 179
179 179 179
179 179 179
179 179 179
179 179 179
179 179 179
179 179 179
179 179 179
179 179 179
179 179 179
179 179 179
179 179 179
179 179 179
179 179 179
179 179 179
179 179 179
179 179 179
179 179 179
179 179 179
179 179 179
179 179 179
179 179 179
179 179 179
179 179 179
179 179 179
0 0 0
0 0 0
0 0 0
0 0 0
0 0 0
0 0 0
0 0 0
0 0 0
0 0 0
0 0 0
0 0 0
0 0 0
0 0 0
0 0 0
0 0 0
0 0 0
0 0 0
0 0 0
0 0 0
0 0 0
0 0 0
0 0 0
0 0 0
0 0 0
0 0 0
0 0 0
0 0 0
0 0 0
0 0 0
0 0 0
0 0 0
0 0 0
0 0 0
0 0 0
0 0 0
0 0 0
0 0 0
0 0 0
0 0 0
0 0 0
0 0 0
0 0 0
0 0 0
0 0 0
0 0 0
0 0 0
0 0 0
0 0 0
0 0 0
0 0 0
0 0 0
0 0 0
0 0 0
0 0 0
0 0 0
0 0 0
0 0 0
0 0 0
0 0 0
0 0 0
0 0 0
0 0 0
0 0 0
0 0 0
0 0 0
0 0 0
0 0 0
0 0 0
0 0 0
0 0 0
0 0 0
0 0 0
0 0 0
0 0 0
0 0 0
0 0 0
0 0 0
0 0 0
0 0 0
0 0 0
0 0 0
0 0 0
0 0 0
0 0 0
0 0 0
0 0 0
0 0 0
0 0 0
0 0 0
0 0 0
0 0 0
0 0 0
0 0 0
0 0 0
0 0 0
0 0 0
0 0 0
0 0 0
0 0 0
0 0 0
0 0 0
0 0 0
0 0 0
0 0 0
0 0 0
0 0 0
0 0 0
0 0 0
0 0 0
0 0 0
0 0 0
0 0 0
0 0 0
0 0 0
0 0 0
0 0 0
0 0 0
0 0 0
0 0 0
0 0 0
0 0 0
0 0 0
0 0 0
0 0 0
0 0 0
0 0 0
0 0 0
0 0 0
0 0 0
0 0 0
0 0 0
0 0 0
0 0 0
0 0 0
0 0 0
0 0 0
0 0 0
0 0 0
0 0 0
0 0 0
0 0 0
0 0 0
0 0 0
0 0 0
0 0 0
0 0 0
0 0 0
0 0 0
179 179 179
179 179 179
179 179 179
179 179 179
179 179 179
179 179 179
179 179 179
179 179 179
179 179 179
179 179 179
179 179 179
179 179 179
179 179 179
179 179 179
179 179 179
179 179 179
179 179 179
179 179 179
179 179 179
179 179 179
179 179 179
179 179 179
179 179 179
179 179 179
179 179 179
179 179 179
179 179 179
179 179 179
179 179 179
179 179 179
179 179 179
179 179 179
179 179 179
179 179 179
179 179 179
179 179 179
179 179 179
179 179 179
179 179 179
179 179 179
179 179 179
179 179 179
179 179 179
179 179 179
179 179 179
179 179 179
179 179 179
179 179 179
179 179 179
179 179 179
179 179 179
179 179 179
179 179 179
179 179 179
179 179 179
179 179 179
179 179 179
179 179 179
179 179 179
179 179 179
179 179 179
179 179 179
179 179 179
179 179 179
179 179 179
179 179 179
179 179 179
179 179 179
179 179 179
179 179 179
179 179 179
179 179 179
179 179 179
179 179 179
179 179 179
179 179 179
179 179 179
179 179 179
179 179 179
179 179 179
179 179 179
179 179 179
179 179 179
179 179 179
179 179 179
179 179 179
179 179 179
179 179 179
179 179 179
179 179 179
179 179 179
179 179 179
179 179 179
179 179 179
179 179 179
179 179 179
179 179 179
179 179 179
179 179 179
179 179 179
179 179 179
179 179 179
179 179 179
179 179 179
179 179 179
179 179 179
179 179 179
179 179 179
179 179 179
179 179 179
179 179 179
179 179 179
179 179 179
179 179 179
179 179 179
179 179 179
179 179 179
179 179 179
179 179 179
179 179 179
179 179 179
179 179 179
179 179 179
179 179 179
179 179 179
179 179 179
179 179 179
179 179 179
179 179 179
179 179 179
179 179 179
179 179 179
179 179 179
179 179 179
179 179 179
179 179 179
179 179 179
179 179 179
179 179 179
179 179 179
179 179 179
179 179 179
179 179 179
179 179 179
179 179 179
179 179 179
179 179 179
179 179 179
179 179 179
179 179 179
179 179 179
179 179 179
179 179 179
179 179 179
179 179 179
179 179 179
179 179 179
179 179 179
179 179 179
179 179 179
179 179 179
179 179 179
179 179 179
179 179 179
179 179 179
179 179 179
179 179 179
179 179 179
179 179 179
179 179 179
179 179 179
179 179 179
179 179 179
179 179 179
179 179 179
179 179 179
179 179 179
179 179 179
179 179 179
179 179 179
179 179 179
179 179 179
179 179 179
179 179 179
179 179 179
179 179 179
179 179 179
179 179 179
179 179 179
179 179 179
179 179 179
179 179 179
179 179 179
179 179 179
179 179 179
179 179 179
179 179 179
179 179 179
179 179 179
179 179 179
179 179 179
179 179 179
179 179 179
179 179 179
179 179 179
179 179 179
179 179 179
179 179 179
179 179 179
179 179 179
179 179 179
179 179 179
179 179 179
179 179 179
179 179 179
179 179 179
179 179 179
179 179 179
179 179 179
179 179 179
179 179 179
179 179 179
179 179 179
179 179 179
179 179 179
179 179 179
179 179 179
179 179 179
179 179 179
179 179 179
179 179 179
179 179 179
179 179 179
179 179 179
179 179 179
179 179 179
179 179 179
179 179 179
179 179 179
179 179 179
179 179 179
179 179 179
179 179 179
179 179 179
179 179 179
179 179 179
179 179 179
179 179 179
179 179 179
179 179 179
179 179 179
0 0 0
0 0 0
0 0 0
0 0 0
0 0 0
0 0 0
0 0 0
0 0 0
0 0 0
0 0 0
0 0 0
0 0 0
0 0 0
0 0 0
0 0 0
0 0 0
0 0 0
0 0 0
0 0 0
0 0 0
0 0 0
0 0 0
0 0 0
0 0 0
0 0 0
0 0 0
0 0 0
0 0 0
0 0 0
0 0 0
0 0 0
0 0 0
0 0 0
0 0 0
0 0 0
0 0 0
0 0 0
0 0 0
0 0 0
0 0 0
0 0 0
0 0 0
0 0 0
0 0 0
0 0 0
0 0 0
0 0 0
0 0 0
0 0 0
0 0 0
0 0 0
0 0 0
0 0 0
0 0 0
0 0 0
0 0 0
0 0 0
0 0 0
0 0 0
0 0 0
0 0 0
0 0 0
0 0 0
0 0 0
0 0 0
0 0 0
0 0 0
0 0 0
0 0 0
0 0 0
0 0 0
0 0 0
0 0 0
0 0 0
0 0 0
0 0 0
0 0 0
0 0 0
0 0 0
0 0 0
0 0 0
0 0 0
0 0 0
0 0 0
0 0 0
0 0 0
0 0 0
0 0 0
0 0 0
0 0 0
0 0 0
0 0 0
0 0 0
0 0 0
0 0 0
0 0 0
0 0 0
0 0 0
0 0 0
0 0 0
0 0 0
0 0 0
0 0 0
0 0 0
0 0 0
0 0 0
0 0 0
0 0 0
0 0 0
0 0 0
0 0 0
0 0 0
0 0 0
0 0 0
0 0 0
0 0 0
0 0 0
0 0 0
0 0 0
0 0 0
0 0 0
0 0 0
0 0 0
0 0 0
0 0 0
0 0 0
0 0 0
0 0 0
0 0 0
0 0 0
0 0 0
0 0 0
0 0 0
0 0 0
0 0 0
0 0 0
0 0 0
0 0 0
0 0 0
0 0 0
0 0 0
0 0 0
0 0 0
0 0 0
0 0 0
0 0 0
0 0 0
0 0 0
0 0 0
0 0 0
179 179 179
179 179 179
179 179 179
179 179 179
179 179 179
179 179 179
179 179 179
179 179 179
179 179 179
179 179 179
179 179 179
179 179 179
179 179 179
179 179 179
179 179 179
179 179 179
179 179 179
179 179 179
179 179 179
179 179 179
179 179 179
179 179 179
179 179 179
179 179 179
179 179 179
179 179 179
179 179 179
179 179 179
179 179 179
179 179 179
179 179 179
179 179 179
179 179 179
179 179 179
179 179 179
179 179 179
179 179 179
179 179 179
179 179 179
179 179 179
179 179 179
179 179 179
179 179 179
179 179 179
179 179 179
179 179 179
179 179 179
179 179 179
179 179 179
179 179 179
179 179 179
179 179 179
179 179 179
179 179 179
179 179 179
179 179 179
179 179 179
179 179 179
179 179 179
179 179 179
179 179 179
179 179 179
179 179 179
179 179 179
179 179 179
179 179 179
179 179 179
179 179 179
179 179 179
179 179 179
179 179 179
179 179 179
179 179 179
179 179 179
179 179 179
179 179 179
179 179 179
179 179 179
179 179 179
179 179 179
179 179 179
179 179 179
179 179 179
179 179 179
179 179 179
179 179 179
179 179 179
179 179 179
179 179 179
179 179 179
179 179 179
179 179 179
179 179 179
179 179 179
179 179 179
179 179 179
179 179 179
179 179 179
179 179 179
179 179 179
179 179 179
179 179 179
179 179 179
179 179 179
179 179 179
179 179 179
179 179 179
179 179 179
179 179 179
179 179 179
179 179 179
179 179 179
179 179 179
179 179 179
179 179 179
179 179 179
179 179 179
179 179 179
179 179 179
179 179 179
179 179 179
179 179 179
179 179 179
179 179 179
179 179 179
179 179 179
179 179 179
179 179 179
179 179 179
179 179 179
179 179 179
179 179 179
179 179 179
179 179 179
179 179 179
179 179 179
179 179 179
179 179 179
179 179 179
179 179 179
179 179 179
179 179 179
179 179 179
179 179 179
179 179 179
179 179 179
179 179 179
179 179 179
179 179 179
179 179 179
179 179 179
179 179 179
179 179 179
179 179 179
179 179 179
179 179 179
179 179 179
179 179 179
179 179 179
179 179 179
179 179 179
179 179 179
179 179 179
179 179 179
179 179 179
179 179 179
179 179 179
179 179 179
179 179 179
179 179 179
179 179 179
179 179 179
179 179 179
179 179 179
179 179 179
179 179 179
179 179 179
179 179 179
179 179 179
179 179 179
179 179 179
179 179 179
179 179 179
179 179 179
179 179 179
179 179 179
179 179 179
179 179 179
179 179 179
179 179 179
179 179 179
179 179 179
179 179 179
179 179 179
179 179 179
179 179 179
179 179 179
179 179 179
179 179 179
179 179 179
179 179 179
179 179 179
179 179 179
179 179 179
179 179 179
179 179 179
179 179 179
179 179 179
179 179 179
179 179 179
179 179 179
179 179 179
179 179 179
179 179 179
179 179 179
179 179 179
179 179 179
179 179 179
179 179 179
179 179 179
179 179 179
179 179 179
179 179 179
179 179 179
179 179 179
179 179 179
179 179 179
179 179 179
179 179 179
179 179 179
179 179 179
179 179 179
179 179 179
179 179 179
179 179 179
179 179 179
179 179 179
179 179 179
179 179 179
179 179 179
179 179 179
179 179 179
179 179 179
179 179 179
179 179 179
179 179 179
179 179 179
179 179 179
179 179 179
0 0 0
0 0 0
0 0 0
0 0 0
0 0 0
0 0 0
0 0 0
0 0 0
0 0 0
0 0 0
0 0 0
0 0 0
0 0 0
0 0 0
0 0 0
0 0 0
0 0 0
0 0 0
0 0 0
0 0 0
0 0 0
0 0 0
0 0 0
0 0 0
0 0 0
0 0 0
0 0 0
0 0 0
0 0 0
0 0 0
0 0 0
0 0 0
0 0 0
0 0 0
0 0 0
0 0 0
0 0 0
0 0 0
0 0 0
0 0 0
0 0 0
0 0 0
0 0 0
0 0 0
0 0 0
0 0 0
0 0 0
0 0 0
0 0 0
0 0 0
0 0 0
0 0 0
0 0 0
0 0 0
0 0 0
0 0 0
0 0 0
0 0 0
0 0 0
0 0 0
0 0 0
0 0 0
0 0 0
0 0 0
0 0 0
0 0 0
0 0 0
0 0 0
0 0 0
0 0 0
0 0 0
0 0 0
0 0 0
0 0 0
0 0 0
0 0 0
0 0 0
0 0 0
0 0 0
0 0 0
0 0 0
0 0 0
0 0 0
0 0 0
0 0 0
0 0 0
0 0 0
0 0 0
0 0 0
0 0 0
0 0 0
0 0 0
0 0 0
0 0 0
0 0 0
0 0 0
0 0 0
0 0 0
0 0 0
0 0 0
0 0 0
0 0 0
0 0 0
0 0 0
0 0 0
0 0 0
0 0 0
0 0 0
0 0 0
0 0 0
0 0 0
0 0 0
0 0 0
0 0 0
0 0 0
0 0 0
0 0 0
0 0 0
0 0 0
0 0 0
0 0 0
0 0 0
0 0 0
0 0 0
0 0 0
0 0 0
0 0 0
0 0 0
0 0 0
0 0 0
0 0 0
0 0 0
0 0 0
0 0 0
0 0 0
0 0 0
0 0 0
0 0 0
0 0 0
0 0 0
0 0 0
0 0 0
0 0 0
0 0 0
0 0 0
0 0 0
0 0 0
0 0 0
0 0 0
0 0 0
0 0 0
0 0 0
179 179 179
179 179 179
179 179 179
179 179 179
179 179 179
179 179 179
179 179 179
179 179 179
179 179 179
179 179 179
179 179 179
179 179 179
179 179 179
179 179 179
179 179 179
179 179 179
179 179 179
179 179 179
179 179 179
179 179 179
179 179 179
179 179 179
179 179 179
179 179 179
179 179 179
179 179 179
179 179 179
179 179 179
179 179 179
179 179 179
179 179 179
179 179 179
179 179 179
179 179 179
179 179 179
179 179 179
179 179 179
179 179 179
179 179 179
179 179 179
179 179 179
179 179 179
179 179 179
179 179 179
179 179 179
179 179 179
179 179 179
179 179 179
179 179 179
179 179 179
179 179 179
179 179 179
179 179 179
179 179 179
179 179 179
179 179 179
179 179 179
179 179 179
179 179 179
179 179 179
179 179 179
179 179 179
179 179 179
179 179 179
179 179 179
179 179 179
179 179 179
179 179 179
179 179 179
179 179 179
179 179 179
179 179 179
179 179 179
179 179 179
179 179 179
179 179 179
179 179 179
179 179 179
179 179 179
179 179 179
179 179 179
179 179 179
179 179 179
179 179 179
179 179 179
179 179 179
179 179 179
179 179 179
179 179 179
179 179 179
179 179 179
179 179 179
179 179 179
179 179 179
179 179 179
179 179 179
179 179 179
179 179 179
179 179 179
179 179 179
179 179 179
179 179 179
179 179 179
179 179 179
179 179 179
179 179 179
179 179 179
179 179 179
179 179 179
179 179 179
179 179 179
179 179 179
179 179 179
179 179 179
179 179 179
179 179 179
179 179 179
179 179 179
179 179 179
179 179 179
179 179 179
179 179 179
179 179 179
179 179 179
179 179 179
179 179 179
179 179 179
179 179 179
179 179 179
179 179 179
179 179 179
179 179 179
179 179 179
179 179 179
179 179 179
179 179 179
179 179 179
179 179 179
179 179 179
179 179 179
179 179 179
179 179 179
179 179 179
179 179 179
179 179 179
179 179 179
179 179 179
179 179 179
179 179 179
179 179 179
179 179 179
179 179 179
179 179 179
179 179 179
179 179 179
179 179 179
179 179 179
179 179 179
179 179 179
179 179 179
179 179 179
179 179 179
179 179 179
179 179 179
179 179 179
179 179 179
179 179 179
179 179 179
179 179 179
179 179 179
179 179 179
179 179 179
179 179 179
179 179 179
179 179 179
179 179 179
179 179 179
179 179 179
179 179 179
179 179 179
179 179 179
179 179 179
179 179 179
179 179 179
179 179 179
179 179 179
179 179 179
179 179 179
179 179 179
179 179 179
179 179 179
179 179 179
179 179 179
179 179 179
179 179 179
179 179 179
179 179 179
179 179 179
179 179 179
179 179 179
179 179 179
179 179 179
179 179 179
179 179 179
179 179 179
179 179 179
179 179 179
179 179 179
179 179 179
179 179 179
179 179 179
179 179 179
179 179 179
179 179 179
179 179 179
179 179 179
179 179 179
179 179 179
179 179 179
179 179 179
179 179 179
179 179 179
179 179 179
179 179 179
179 179 179
179 179 179
179 179 179
179 179 179
179 179 179
179 179 179
179 179 179
179 179 179
179 179 179
179 179 179
179 179 179
179 179 179
179 179 179
179 179 179
179 179 179
179 179 179
179 179 179
179 179 179
179 179 179
179 179 179
179 179 179
179 179 179
179 179 179
0 0 0
0 0 0
0 0 0
0 0 0
0 0 0
0 0 0
0 0 0
0 0 0
0 0 0
0 0 0
0 0 0
0 0 0
0 0 0
0 0 0
0 0 0
0 0 0
0 0 0
0 0 0
0 0 0
0 0 0
0 0 0
0 0 0
0 0 0
0 0 0
0 0 0
0 0 0
0 0 0
0 0 0
0 0 0
0 0 0
0 0 0
0 0 0
0 0 0
0 0 0
0 0 0
0 0 0
0 0 0
0 0 0
0 0 0
0 0 0
0 0 0
0 0 0
0 0 0
0 0 0
0 0 0
0 0 0
0 0 0
0 0 0
0 0 0
0 0 0
0 0 0
0 0 0
0 0 0
0 0 0
0 0 0
0 0 0
0 0 0
0 0 0
0 0 0
0 0 0
0 0 0
0 0 0
0 0 0
0 0 0
0 0 0
0 0 0
0 0 0
0 0 0
0 0 0
0 0 0
0 0 0
0 0 0
0 0 0
0 0 0
0 0 0
0 0 0
0 0 0
0 0 0
0 0 0
0 0 0
0 0 0
0 0 0
0 0 0
0 0 0
0 0 0
0 0 0
0 0 0
0 0 0
0 0 0
0 0 0
0 0 0
0 0 0
0 0 0
0 0 0
0 0 0
0 0 0
0 0 0
0 0 0
0 0 0
0 0 0
0 0 0
0 0 0
0 0 0
0 0 0
0 0 0
0 0 0
0 0 0
0 0 0
0 0 0
0 0 0
0 0 0
0 0 0
0 0 0
0 0 0
0 0 0
0 0 0
0 0 0
0 0 0
0 0 0
0 0 0
0 0 0
0 0 0
0 0 0
0 0 0
0 0 0
0 0 0
0 0 0
0 0 0
0 0 0
0 0 0
0 0 0
0 0 0
0 0 0
0 0 0
0 0 0
0 0 0
0 0 0
0 0 0
0 0 0
0 0 0
0 0 0
0 0 0
0 0 0
0 0 0
0 0 0
0 0 0
0 0 0
0 0 0
0 0 0
0 0 0
0 0 0
0 0 0
0 0 0
0 0 0
179 179 179
179 179 179
179 179 179
179 179 179
179 179 179
179 179 179
179 179 179
179 179 179
179 179 179
179 179 179
179 179 179
179 179 179
179 179 179
179 179 179
179 179 179
179 179 179
179 179 179
179 179 179
179 179 179
179 179 179
179 179 179
179 179 179
179 179 179
179 179 179
179 179 179
179 179 179
179 179 179
179 179 179
179 179 179
179 179 179
179 179 179
179 179 179
179 179 179
179 179 179
179 179 179
179 179 179
179 179 179
179 179 179
179 179 179
179 179 179
179 179 179
179 179 179
179 179 179
179 179 179
179 179 179
179 179 179
179 179 179
179 179 179
179 179 179
179 179 179
179 179 179
179 179 179
179 179 179
179 179 179
179 179 179
179 179 179
179 179 179
179 179 179
179 179 179
179 179 179
179 179 179
179 179 179
179 179 179
179 179 179
179 179 179
179 179 179
179 179 179
179 179 179
179 179 179
179 179 179
179 179 179
179 179 179
179 179 179
179 179 179
179 179 179
179 179 179
179 179 179
179 179 179
179 179 179
179 179 179
179 179 179
179 179 179
179 179 179
179 179 179
179 179 179
179 179 179
179 179 179
179 179 179
179 179 179
179 179 179
179 179 179
179 179 179
179 179 179
179 179 179
179 179 179
179 179 179
179 179 179
179 179 179
179 179 179
179 179 179
179 179 179
179 179 179
179 179 179
179 179 179
179 179 179
179 179 179
179 179 179
179 179 179
179 179 179
179 179 179
179 179 179
179 179 179
179 179 179
179 179 179
179 179 179
179 179 179
179 179 179
179 179 179
179 179 179
179 179 179
179 179 179
179 179 179
179 179 179
179 179 179
179 179 179
179 179 179
179 179 179
179 179 179
179 179 179
179 179 179
179 179 179
179 179 179
179 179 179
179 179 179
179 179 179
179 179 179
179 179 179
179 179 179
179 179 179
179 179 179
179 179 179
179 179 179
179 179 179
179 179 179
179 179 179
179 179 179
179 179 179
179 179 179
179 179 179
179 179 179
179 179 179
179 179 179
179 179 179
179 179 179
179 179 179
179 179 179
179 179 179
179 179 179
179 179 179
179 179 179
179 179 179
179 179 179
179 179 179
179 179 179
179 179 179
179 179 179
179 179 179
179 179 179
179 179 179
179 179 179
179 179 179
179 179 179
179 179 179
179 179 179
179 179 179
179 179 179
179 179 179
179 179 179
179 179 179
179 179 179
179 179 179
179 179 179
179 179 179
179 179 179
179 179 179
179 179 179
179 179 179
179 179 179
179 179 179
179 179 179
179 179 179
179 179 179
179 179 179
179 179 179
179 179 179
179 179 179
179 179 179
179 179 179
179 179 179
179 179 179
179 179 179
179 179 179
179 179 179
179 179 179
179 179 179
179 179 179
179 179 179
179 179 179
179 179 179
179 179 179
179 179 179
179 179 179
179 179 179
179 179 179
179 179 179
179 179 179
179 179 179
179 179 179
179 179 179
179 179 179
179 179 179
179 179 179
179 179 179
179 179 179
179 179 179
179 179 179
179 179 179
179 179 179
179 179 179
179 179 179
179 179 179
179 179 179
179 179 179
179 179 179
179 179 179
179 179 179
179 179 179
179 179 179
179 179 179
179 179 179
179 179 179
179 179 179
179 179 179
179 179 179
179 179 179
0 0 0
0 0 0
0 0 0
0 0 0
0 0 0
0 0 0
0 0 0
0 0 0
0 0 0
0 0 0
0 0 0
0 0 0
0 0 0
0 0 0
0 0 0
0 0 0
0 0 0
0 0 0
0 0 0
0 0 0
0 0 0
0 0 0
0 0 0
0 0 0
0 0 0
0 0 0
0 0 0
0 0 0
0 0 0
0 0 0
0 0 0
0 0 0
0 0 0
0 0 0
0 0 0
0 0 0
0 0 0
0 0 0
0 0 0
0 0 0
0 0 0
0 0 0
0 0 0
0 0 0
0 0 0
0 0 0
0 0 0
0 0 0
0 0 0
0 0 0
0 0 0
0 0 0
0 0 0
0 0 0
0 0 0
0 0 0
0 0 0
0 0 0
0 0 0
0 0 0
0 0 0
0 0 0
0 0 0
0 0 0
0 0 0
0 0 0
0 0 0
0 0 0
0 0 0
0 0 0
0 0 0
0 0 0
0 0 0
0 0 0
0 0 0
0 0 0
0 0 0
0 0 0
0 0 0
0 0 0
0 0 0
0 0 0
0 0 0
0 0 0
0 0 0
0 0 0
0 0 0
0 0 0
0 0 0
0 0 0
0 0 0
0 0 0
0 0 0
0 0 0
0 0 0
0 0 0
0 0 0
0 0 0
0 0 0
0 0 0
0 0 0
0 0 0
0 0 0
0 0 0
0 0 0
0 0 0
0 0 0
0 0 0
0 0 0
0 0 0
0 0 0
0 0 0
0 0 0
0 0 0
0 0 0
0 0 0
0 0 0
0 0 0
0 0 0
0 0 0
0 0 0
0 0 0
0 0 0
0 0 0
0 0 0
0 0 0
0 0 0
0 0 0
0 0 0
0 0 0
0 0 0
0 0 0
0 0 0
0 0 0
0 0 0
0 0 0
0 0 0
0 0 0
0 0 0
0 0 0
0 0 0
0 0 0
0 0 0
0 0 0
0 0 0
0 0 0
0 0 0
0 0 0
0 0 0
0 0 0
0 0 0
0 0 0
0 0 0
0 0 0
0 0 0
0 0 0
179 179 179
179 179 179
179 179 179
179 179 179
179 179 179
179 179 179
179 179 179
179 179 179
179 179 179
179 179 179
179 179 179
179 179 179
179 179 179
179 179 179
179 179 179
179 179 179
179 179 179
179 179 179
179 179 179
179 179 179
179 179 179
179 179 179
179 179 179
179 179 179
179 179 179
179 179 179
179 179 179
179 179 179
179 179 179
179 179 179
179 179 179
179 179 179
179 179 179
179 179 179
179 179 179
179 179 179
179 179 179
179 179 179
179 179 179
179 179 179
179 179 179
179 179 179
179 179 179
179 179 179
179 179 179
179 179 179
179 179 179
179 179 179
179 179 179
179 179 179
179 179 179
179 179 179
179 179 179
179 179 179
179 179 179
179 179 179
179 179 179
179 179 179
179 179 179
179 179 179
179 179 179
179 179 179
179 179 179
179 179 179
179 179 179
179 179 179
179 179 179
179 179 179
179 179 179
179 179 179
179 179 179
179 179 179
179 179 179
179 179 179
179 179 179
179 179 179
179 179 179
179 179 179
179 179 179
179 179 179
179 179 179
179 179 179
179 179 179
179 179 179
179 179 179
179 179 179
179 179 179
179 179 179
179 179 179
179 179 179
179 179 179
179 179 179
179 179 179
179 179 179
179 179 179
179 179 179
179 179 179
179 179 179
179 179 179
179 179 179
179 179 179
179 179 179
179 179 179
179 179 179
179 179 179
179 179 179
179 179 179
179 179 179
179 179 179
179 179 179
179 179 179
179 179 179
179 179 179
179 179 179
179 179 179
179 179 179
179 179 179
179 179 179
179 179 179
179 179 179
179 179 179
179 179 179
179 179 179
179 179 179
179 179 179
179 179 179
179 179 179
179 179 179
179 179 179
179 179 179
179 179 179
179 179 179
179 179 179
179 179 179
179 179 179
179 179 179
179 179 179
179 179 179
179 179 179
179 179 179
179 179 179
179 179 179
179 179 179
179 179 179
179 179 179
179 179 179
179 179 179
179 179 179
179 179 179
179 179 179
179 179 179
179 179 179
179 179 179
179 179 179
179 179 179
179 179 179
179 179 179
179 179 179
179 179 179
179 179 179
179 179 179
179 179 179
179 179 179
179 179 179
179 179 179
179 179 179
179 179 179
179 179 179
179 179 179
179 179 179
179 179 179
179 179 179
179 179 179
179 179 179
179 179 179
179 179 179
179 179 179
179 179 179
179 179 179
179 179 179
179 179 179
179 179 179
179 179 179
179 179 179
179 179 179
179 179 179
179 179 179
179 179 179
179 179 179
179 179 179
179 179 179
179 179 179
179 179 179
179 179 179
179 179 179
179 179 179
179 179 179
179 179 179
179 179 179
179 179 179
179 179 179
179 179 179
179 179 179
179 179 179
179 179 179
179 179 179
179 179 179
179 179 179
179 179 179
179 179 179
179 179 179
179 179 179
179 179 179
179 179 179
179 179 179
179 179 179
179 179 179
179 179 179
179 179 179
179 179 179
179 179 179
179 179 179
179 179 179
179 179 179
179 179 179
179 179 179
179 179 179
179 179 179
179 179 179
179 179 179
179 179 179
179 179 179
179 179 179
179 179 179
179 179 179
179 179 179
179 179 179
179 179 179
179 179 179
179 179 179
179 179 179
179 179 179
179 179 179
0 0 0
0 0 0
0 0 0
0 0 0
0 0 0
0 0 0
0 0 0
0 0 0
0 0 0
0 0 0
0 0 0
0 0 0
0 0 0
0 0 0
0 0 0
0 0 0
0 0 0
0 0 0
0 0 0
0 0 0
0 0 0
0 0 0
0 0 0
0 0 0
0 0 0
0 0 0
0 0 0
0 0 0
0 0 0
0 0 0
0 0 0
0 0 0
0 0 0
0 0 0
0 0 0
0 0 0
0 0 0
0 0 0
0 0 0
0 0 0
0 0 0
0 0 0
0 0 0
0 0 0
0 0 0
0 0 0
0 0 0
0 0 0
0 0 0
0 0 0
0 0 0
0 0 0
0 0 0
0 0 0
0 0 0
0 0 0
0 0 0
0 0 0
0 0 0
0 0 0
0 0 0
0 0 0
0 0 0
0 0 0
0 0 0
0 0 0
0 0 0
0 0 0
0 0 0
0 0 0
0 0 0
0 0 0
0 0 0
0 0 0
0 0 0
0 0 0
0 0 0
0 0 0
0 0 0
0 0 0
0 0 0
0 0 0
0 0 0
0 0 0
0 0 0
0 0 0
0 0 0
0 0 0
0 0 0
0 0 0
0 0 0
0 0 0
0 0 0
0 0 0
0 0 0
0 0 0
0 0 0
0 0 0
0 0 0
0 0 0
0 0 0
0 0 0
0 0 0
0 0 0
0 0 0
0 0 0
0 0 0
0 0 0
0 0 0
0 0 0
0 0 0
0 0 0
0 0 0
0 0 0
0 0 0
0 0 0
0 0 0
0 0 0
0 0 0
0 0 0
0 0 0
0 0 0
0 0 0
0 0 0
0 0 0
0 0 0
0 0 0
0 0 0
0 0 0
0 0 0
0 0 0
0 0 0
0 0 0
0 0 0
0 0 0
0 0 0
0 0 0
0 0 0
0 0 0
0 0 0
0 0 0
0 0 0
0 0 0
0 0 0
0 0 0
0 0 0
0 0 0
0 0 0
0 0 0
0 0 0
0 0 0
0 0 0
0 0 0
0 0 0
0 0 0
0 0 0
0 0 0
0 0 0
179 179 179
179 179 179
179 179 179
179 179 179
179 179 179
179 179 179
179 179 179
179 179 179
179 179 179
179 179 179
179 179 179
179 179 179
179 179 179
179 179 179
179 179 179
179 179 179
179 179 179
179 179 179
179 179 179
179 179 179
179 179 179
179 179 179
179 179 179
179 179 179
179 179 179
179 179 179
179 179 179
179 179 179
179 179 179
179 179 179
179 179 179
179 179 179
179 179 179
179 179 179
179 179 179
179 179 179
179 179 179
179 179 179
179 179 179
179 179 179
179 179 179
179 179 179
179 179 179
179 179 179
179 179 179
179 179 179
179 179 179
179 179 179
179 179 179
179 179 179
179 179 179
179 179 179
179 179 179
179 179 179
179 179 179
179 179 179
179 179 179
179 179 179
179 179 179
179 179 179
179 179 179
179 179 179
179 179 179
179 179 179
179 179 179
179 179 179
179 179 179
179 179 179
179 179 179
179 179 179
179 179 179
179 179 179
179 179 179
179 179 179
179 179 179
179 179 179
179 179 179
179 179 179
179 179 179
179 179 179
179 179 179
179 179 179
179 179 179
179 179 179
179 179 179
179 179 179
179 179 179
179 179 179
179 179 179
179 179 179
179 179 179
179 179 179
179 179 179
179 179 179
179 179 179
179 179 179
179 179 179
179 179 179
179 179 179
179 179 179
179 179 179
179 179 179
179 179 179
179 179 179
179 179 179
179 179 179
179 179 179
179 179 179
179 179 179
179 179 179
179 179 179
179 179 179
179 179 179
179 179 179
179 179 179
179 179 179
179 179 179
179 179 179
179 179 179
179 179 179
179 179 179
179 179 179
179 179 179
179 179 179
179 179 179
179 179 179
179 179 179
179 179 179
179 179 179
179 179 179
179 179 179
179 179 179
179 179 179
179 179 179
179 179 179
179 179 179
179 179 179
179 179 179
179 179 179
179 179 179
179 179 179
179 179 179
179 179 179
179 179 179
179 179 179
179 179 179
179 179 179
179 179 179
179 179 179
179 179 179
179 179 179
179 179 179
179 179 179
179 179 179
179 179 179
179 179 179
179 179 179
179 179 179
179 179 179
179 179 179
179 179 179
179 179 179
179 179 179
179 179 179
179 179 179
179 179 179
179 179 179
179 179 179
179 179 179
179 179 179
179 179 179
179 179 179
179 179 179
179 179 179
179 179 179
179 179 179
179 179 179
179 179 179
179 179 179
179 179 179
179 179 179
179 179 179
179 179 179
179 179 179
179 179 179
179 179 179
179 179 179
179 179 179
179 179 179
179 179 179
179 179 179
179 179 179
179 179 179
179 179 179
179 179 179
179 179 179
179 179 179
179 179 179
179 179 179
179 179 179
179 179 179
179 179 179
179 179 179
179 179 179
179 179 179
179 179 179
179 179 179
179 179 179
179 179 179
179 179 179
179 179 179
179 179 179
179 179 179
179 179 179
179 179 179
179 179 179
179 179 179
179 179 179
179 179 179
179 179 179
179 179 179
179 179 179
179 179 179
179 179 179
179 179 179
179 179 179
179 179 179
179 179 179
179 179 179
179 179 179
179 179 179
179 179 179
179 179 179
179 179 179
179 179 179
179 179 179
179 179 179
179 179 179
179 179 179
179 179 179
179 179 179
0 0 0
0 0 0
0 0 0
0 0 0
0 0 0
0 0 0
0 0 0
0 0 0
0 0 0
0 0 0
0 0 0
0 0 0
0 0 0
0 0 0
0 0 0
0 0 0
0 0 0
0 0 0
0 0 0
0 0 0
0 0 0
0 0 0
0 0 0
0 0 0
0 0 0
0 0 0
0 0 0
0 0 0
0 0 0
0 0 0
0 0 0
0 0 0
0 0 0
0 0 0
0 0 0
0 0 0
0 0 0
0 0 0
0 0 0
0 0 0
0 0 0
0 0 0
0 0 0
0 0 0
0 0 0
0 0 0
0 0 0
0 0 0
0 0 0
0 0 0
0 0 0
0 0 0
0 0 0
0 0 0
0 0 0
0 0 0
0 0 0
0 0 0
0 0 0
0 0 0
0 0 0
0 0 0
0 0 0
0 0 0
0 0 0
0 0 0
0 0 0
0 0 0
0 0 0
0 0 0
0 0 0
0 0 0
0 0 0
0 0 0
0 0 0
0 0 0
0 0 0
0 0 0
0 0 0
0 0 0
0 0 0
0 0 0
0 0 0
0 0 0
0 0 0
0 0 0
0 0 0
0 0 0
0 0 0
0 0 0
0 0 0
0 0 0
0 0 0
0 0 0
0 0 0
0 0 0
0 0 0
0 0 0
0 0 0
0 0 0
0 0 0
0 0 0
0 0 0
0 0 0
0 0 0
0 0 0
0 0 0
0 0 0
0 0 0
0 0 0
0 0 0
0 0 0
0 0 0
0 0 0
0 0 0
0 0 0
0 0 0
0 0 0
0 0 0
0 0 0
0 0 0
0 0 0
0 0 0
0 0 0
0 0 0
0 0 0
0 0 0
0 0 0
0 0 0
0 0 0
0 0 0
0 0 0
0 0 0
0 0 0
0 0 0
0 0 0
0 0 0
0 0 0
0 0 0
0 0 0
0 0 0
0 0 0
0 0 0
0 0 0
0 0 0
0 0 0
0 0 0
0 0 0
0 0 0
0 0 0
0 0 0
0 0 0
0 0 0
0 0 0
0 0 0
0 0 0
0 0 0
0 0 0
0 0 0
0 0 0
179 179 179
179 179 179
179 179 179
179 179 179
179 179 179
179 179 179
179 179 179
179 179 179
179 179 179
179 179 179
179 179 179
179 179 179
179 179 179
179 179 179
179 179 179
179 179 179
179 179 179
179 179 179
179 179 179
179 179 179
179 179 179
179 179 179
179 179 179
179 179 179
179 179 179
179 179 179
179 179 179
179 179 179
179 179 179
179 179 179
179 179 179
179 179 179
179 179 179
179 179 179
179 179 179
179 179 179
179 179 179
179 179 179
179 179 179
179 179 179
179 179 179
179 179 179
179 179 179
179 179 179
179 179 179
179 179 179
179 179 179
179 179 179
179 179 179
179 179 179
179 179 179
179 179 179
179 179 179
179 179 179
179 179 179
179 179 179
179 179 179
179 179 179
179 179 179
179 179 179
179 179 179
179 179 179
179 179 179
179 179 179
179 179 179
179 179 179
179 179 179
179 179 179
179 179 179
179 179 179
179 179 179
179 179 179
179 179 179
179 179 179
179 179 179
179 179 179
179 179 179
179 179 179
179 179 179
179 179 179
179 179 179
179 179 179
179 179 179
179 179 179
179 179 179
179 179 179
179 179 179
179 179 179
179 179 179
179 179 179
179 179 179
179 179 179
179 179 179
179 179 179
179 179 179
179 179 179
179 179 179
179 179 179
179 179 179
179 179 179
179 179 179
179 179 179
179 179 179
179 179 179
179 179 179
179 179 179
179 179 179
179 179 179
179 179 179
179 179 179
179 179 179
179 179 179
179 179 179
179 179 179
179 179 179
179 179 179
179 179 179
179 179 179
179 179 179
179 179 179
179 179 179
179 179 179
179 179 179
179 179 179
179 179 179
179 179 179
179 179 179
179 179 179
179 179 179
179 179 179
179 179 179
179 179 179
179 179 179
179 179 179
179 179 179
179 179 179
179 179 179
179 179 179
179 179 179
179 179 179
179 179 179
179 179 179
179 179 179
179 179 179
179 179 179
179 179 179
179 179 179
179 179 179
179 179 179
179 179 179
179 179 179
179 179 179
179 179 179
179 179 179
179 179 179
179 179 179
179 179 179
179 179 179
179 179 179
179 179 179
179 179 179
179 179 179
179 179 179
179 179 179
179 179 179
179 179 179
179 179 179
179 179 179
179 179 179
179 179 179
179 179 179
179 179 179
179 179 179
179 179 179
179 179 179
179 179 179
179 179 179
179 179 179
179 179 179
179 179 179
179 179 179
179 179 179
179 179 179
179 179 179
179 179 179
179 179 179
179 179 179
179 179 179
179 179 179
179 179 179
179 179 179
179 179 179
179 179 179
179 179 179
179 179 179
179 179 179
179 179 179
179 179 179
179 179 179
179 179 179
179 179 179
179 179 179
179 179 179
179 179 179
179 179 179
179 179 179
179 179 179
179 179 179
179 179 179
179 179 179
179 179 179
179 179 179
179 179 179
179 179 179
179 179 179
179 179 179
179 179 179
179 179 179
179 179 179
179 179 179
179 179 179
179 179 179
179 179 179
179 179 179
179 179 179
179 179 179
179 179 179
179 179 179
179 179 179
179 179 179
179 179 179
179 179 179
179 179 179
179 179 179
179 179 179
179 179 179
179 179 179
179 179 179
179 179 179
0 0 0
0 0 0
0 0 0
0 0 0
0 0 0
0 0 0
0 0 0
0 0 0
0 0 0
0 0 0
0 0 0
0 0 0
0 0 0
0 0 0
0 0 0
0 0 0
0 0 0
0 0 0
0 0 0
0 0 0
0 0 0
0 0 0
0 0 0
0 0 0
0 0 0
0 0 0
0 0 0
0 0 0
0 0 0
0 0 0
0 0 0
0 0 0
0 0 0
0 0 0
0 0 0
0 0 0
0 0 0
0 0 0
0 0 0
0 0 0
0 0 0
0 0 0
0 0 0
0 0 0
0 0 0
0 0 0
0 0 0
0 0 0
0 0 0
0 0 0
0 0 0
0 0 0
0 0 0
0 0 0
0 0 0
0 0 0
0 0 0
0 0 0
0 0 0
0 0 0
0 0 0
0 0 0
0 0 0
0 0 0
0 0 0
0 0 0
0 0 0
0 0 0
0 0 0
0 0 0
0 0 0
0 0 0
0 0 0
0 0 0
0 0 0
0 0 0
0 0 0
0 0 0
0 0 0
0 0 0
0 0 0
0 0 0
0 0 0
0 0 0
0 0 0
0 0 0
0 0 0
0 0 0
0 0 0
0 0 0
0 0 0
0 0 0
0 0 0
0 0 0
0 0 0
0 0 0
0 0 0
0 0 0
0 0 0
0 0 0
0 0 0
0 0 0
0 0 0
0 0 0
0 0 0
0 0 0
0 0 0
0 0 0
0 0 0
0 0 0
0 0 0
0 0 0
0 0 0
0 0 0
0 0 0
0 0 0
0 0 0
0 0 0
0 0 0
0 0 0
0 0 0
0 0 0
0 0 0
0 0 0
0 0 0
0 0 0
0 0 0
0 0 0
0 0 0
0 0 0
0 0 0
0 0 0
0 0 0
0 0 0
0 0 0
0 0 0
0 0 0
0 0 0
0 0 0
0 0 0
0 0 0
0 0 0
0 0 0
0 0 0
0 0 0
0 0 0
0 0 0
0 0 0
0 0 0
0 0 0
0 0 0
0 0 0
0 0 0
0 0 0
0 0 0
0 0 0
0 0 0
0 0 0
0 0 0
0 0 0
0 0 0
0 0 0
179 179 179
179 179 179
179 179 179
179 179 179
179 179 179
179 179 179
179 179 179
179 179 179
179 179 179
179 179 179
179 179 179
179 179 179
179 179 179
179 179 179
179 179 179
179 179 179
179 179 179
179 179 179
179 179 179
179 179 179
179 179 179
179 179 179
179 179 179
179 179 179
179 179 179
179 179 179
179 179 179
179 179 179
179 179 179
179 179 179
179 179 179
179 179 179
179 179 179
179 179 179
179 179 179
179 179 179
179 179 179
179 179 179
179 179 179
179 179 179
179 179 179
179 179 179
179 179 179
179 179 179
179 179 179
179 179 179
179 179 179
179 179 179
179 179 179
179 179 179
179 179 179
179 179 179
179 179 179
179 179 179
179 179 179
179 179 179
179 179 179
179 179 179
179 179 179
179 179 179
179 179 179
179 179 179
179 179 179
179 179 179
179 179 179
179 179 179
179 179 179
179 179 179
179 179 179
179 179 179
179 179 179
179 179 179
179 179 179
179 179 179
179 179 179
179 179 179
179 179 179
179 179 179
179 179 179
179 179 179
179 179 179
179 179 179
179 179 179
179 179 179
179 179 179
179 179 179
179 179 179
179 179 179
179 179 179
179 179 179
179 179 179
179 179 179
179 179 179
179 179 179
179 179 179
179 179 179
179 179 179
179 179 179
179 179 179
179 179 179
179 179 179
179 179 179
179 179 179
179 179 179
179 179 179
179 179 179
179 179 179
179 179 179
179 179 179
179 179 179
179 179 179
179 179 179
179 179 179
179 179 179
179 179 179
179 179 179
179 179 179
179 179 179
179 179 179
179 179 179
179 179 179
179 179 179
179 179 179
179 179 179
179 179 179
179 179 179
179 179 179
179 179 179
179 179 179
179 179 179
179 179 179
179 179 179
179 179 179
179 179 179
179 179 179
179 179 179
179 179 179
179 179 179
179 179 179
179 179 179
179 179 179
179 179 179
179 179 179
179 179 179
179 179 179
179 179 179
179 179 179
179 179 179
179 179 179
179 179 179
179 179 179
179 179 179
179 179 179
179 179 179
179 179 179
179 179 179
179 179 179
179 179 179
179 179 179
179 179 179
179 179 179
179 179 179
179 179 179
179 179 179
179 179 179
179 179 179
179 179 179
179 179 179
179 179 179
179 179 179
179 179 179
179 179 179
179 179 179
179 179 179
179 179 179
179 179 179
179 179 179
179 179 179
179 179 179
179 179 179
179 179 179
179 179 179
179 179 179
179 179 179
179 179 179
179 179 179
179 179 179
179 179 179
179 179 179
179 179 179
179 179 179
179 179 179
179 179 179
179 179 179
179 179 179
179 179 179
179 179 179
179 179 179
179 179 179
179 179 179
179 179 179
179 179 179
179 179 179
179 179 179
179 179 179
179 179 179
179 179 179
179 179 179
179 179 179
179 179 179
179 179 179
179 179 179
179 179 179
179 179 179
179 179 179
179 179 179
179 179 179
179 179 179
179 179 179
179 179 179
179 179 179
179 179 179
179 179 179
179 179 179
179 179 179
179 179 179
179 179 179
179 179 179
179 179 179
179 179 179
179 179 179
179 179 179
179 179 179
179 179 179
179 179 179
179 179 179
179 179 179
179 179 179
0 0 0
0 0 0
0 0 0
0 0 0
0 0 0
0 0 0
0 0 0
0 0 0
0 0 0
0 0 0
0 0 0
0 0 0
0 0 0
0 0 0
0 0 0
0 0 0
0 0 0
0 0 0
0 0 0
0 0 0
0 0 0
0 0 0
0 0 0
0 0 0
0 0 0
0 0 0
0 0 0
0 0 0
0 0 0
0 0 0
0 0 0
0 0 0
0 0 0
0 0 0
0 0 0
0 0 0
0 0 0
0 0 0
0 0 0
0 0 0
0 0 0
0 0 0
0 0 0
0 0 0
0 0 0
0 0 0
0 0 0
0 0 0
0 0 0
0 0 0
0 0 0
0 0 0
0 0 0
0 0 0
0 0 0
0 0 0
0 0 0
0 0 0
0 0 0
0 0 0
0 0 0
0 0 0
0 0 0
0 0 0
0 0 0
0 0 0
0 0 0
0 0 0
0 0 0
0 0 0
0 0 0
0 0 0
0 0 0
0 0 0
0 0 0
0 0 0
0 0 0
0 0 0
0 0 0
0 0 0
0 0 0
0 0 0
0 0 0
0 0 0
0 0 0
0 0 0
0 0 0
0 0 0
0 0 0
0 0 0
0 0 0
0 0 0
0 0 0
0 0 0
0 0 0
0 0 0
0 0 0
0 0 0
0 0 0
0 0 0
0 0 0
0 0 0
0 0 0
0 0 0
0 0 0
0 0 0
0 0 0
0 0 0
0 0 0
0 0 0
0 0 0
0 0 0
0 0 0
0 0 0
0 0 0
0 0 0
0 0 0
0 0 0
0 0 0
0 0 0
0 0 0
0 0 0
0 0 0
0 0 0
0 0 0
0 0 0
0 0 0
0 0 0
0 0 0
0 0 0
0 0 0
0 0 0
0 0 0
0 0 0
0 0 0
0 0 0
0 0 0
0 0 0
0 0 0
0 0 0
0 0 0
0 0 0
0 0 0
0 0 0
0 0 0
0 0 0
0 0 0
0 0 0
0 0 0
0 0 0
0 0 0
0 0 0
0 0 0
0 0 0
0 0 0
0 0 0
0 0 0
0 0 0
0 0 0
0 0 0
0 0 0
0 0 0
179 179 179
179 179 179
179 179 179
179 179 179
179 179 179
179 179 179
179 179 179
179 179 179
179 179 179
179 179 179
179 179 179
179 179 179
179 179 179
179 179 179
179 179 179
179 179 179
179 179 179
179 179 179
179 179 179
179 179 179
179 179 179
179 179 179
179 179 179
179 179 179
179 179 179
179 179 179
179 179 179
179 179 179
179 179 179
179 179 179
179 179 179
179 179 179
179 179 179
179 179 179
179 179 179
179 179 179
179 179 179
179 179 179
179 179 179
179 179 179
179 179 179
179 179 179
179 179 179
179 179 179
179 179 179
179 179 179
179 179 179
179 179 179
179 179 179
179 179 179
179 179 179
179 179 179
179 179 179
179 179 179
179 179 179
179 179 179
179 179 179
179 179 179
179 179 179
179 179 179
179 179 179
179 179 179
179 179 179
179 179 179
179 179 179
179 179 179
179 179 179
179 179 179
179 179 179
179 179 179
179 179 179
179 179 179
179 179 179
179 179 179
179 179 179
179 179 179
179 179 179
179 179 179
179 179 179
179 179 179
179 179 179
179 179 179
179 179 179
179 179 179
179 179 179
179 179 179
179 179 179
179 179 179
179 179 179
179 179 179
179 179 179
179 179 179
179 179 179
179 179 179
179 179 179
179 179 179
179 179 179
179 179 179
179 179 179
179 179 179
179 179 179
179 179 179
179 179 179
179 179 179
179 179 179
179 179 179
179 179 179
179 179 179
179 179 179
179 179 179
179 179 179
179 179 179
179 179 179
179 179 179
179 179 179
179 179 179
179 179 179
179 179 179
179 179 179
179 179 179
179 179 179
179 179 179
179 179 179
179 179 179
179 179 179
179 179 179
179 179 179
179 179 179
179 179 179
179 179 179
179 179 179
179 179 179
179 179 179
179 179 179
179 179 179
179 179 179
179 179 179
179 179 179
179 179 179
179 179 179
179 179 179
179 179 179
179 179 179
179 179 179
179 179 179
179 179 179
179 179 179
179 179 179
179 179 179
179 179 179
179 179 179
179 179 179
179 179 179
179 179 179
179 179 179
179 179 179
179 179 179
179 179 179
179 179 179
179 179 179
179 179 179
179 179 179
179 179 179
179 179 179
179 179 179
179 179 179
179 179 179
179 179 179
179 179 179
179 179 179
179 179 179
179 179 179
179 179 179
179 179 179
179 179 179
179 179 179
179 179 179
179 179 179
179 179 179
179 179 179
179 179 179
179 179 179
179 179 179
179 179 179
179 179 179
179 179 179
179 179 179
179 179 179
179 179 179
179 179 179
179 179 179
179 179 179
179 179 179
179 179 179
179 179 179
179 179 179
179 179 179
179 179 179
179 179 179
179 179 179
179 179 179
179 179 179
179 179 179
179 179 179
179 179 179
179 179 179
179 179 179
179 179 179
179 179 179
179 179 179
179 179 179
179 179 179
179 179 179
179 179 179
179 179 179
179 179 179
179 179 179
179 179 179
179 179 179
179 179 179
179 179 179
179 179 179
179 179 179
179 179 179
179 179 179
179 179 179
179 179 179
179 179 179
179 179 179
179 179 179
179 179 179
179 179 179
179 179 179
179 179 179
179 179 179
179 179 179
179 179 179
0 0 0
0 0 0
0 0 0
0 0 0
0 0 0
0 0 0
0 0 0
0 0 0
0 0 0
0 0 0
0 0 0
0 0 0
0 0 0
0 0 0
0 0 0
0 0 0
0 0 0
0 0 0
0 0 0
0 0 0
0 0 0
0 0 0
0 0 0
0 0 0
0 0 0
0 0 0
0 0 0
0 0 0
0 0 0
0 0 0
0 0 0
0 0 0
0 0 0
0 0 0
0 0 0
0 0 0
0 0 0
0 0 0
0 0 0
0 0 0
0 0 0
0 0 0
0 0 0
0 0 0
0 0 0
0 0 0
0 0 0
0 0 0
0 0 0
0 0 0
0 0 0
0 0 0
0 0 0
0 0 0
0 0 0
0 0 0
0 0 0
0 0 0
0 0 0
0 0 0
0 0 0
0 0 0
0 0 0
0 0 0
0 0 0
0 0 0
0 0 0
0 0 0
0 0 0
0 0 0
0 0 0
0 0 0
0 0 0
0 0 0
0 0 0
0 0 0
0 0 0
0 0 0
0 0 0
0 0 0
0 0 0
0 0 0
0 0 0
0 0 0
0 0 0
0 0 0
0 0 0
0 0 0
0 0 0
0 0 0
0 0 0
0 0 0
0 0 0
0 0 0
0 0 0
0 0 0
0 0 0
0 0 0
0 0 0
0 0 0
0 0 0
0 0 0
0 0 0
0 0 0
0 0 0
0 0 0
0 0 0
0 0 0
0 0 0
0 0 0
0 0 0
0 0 0
0 0 0
0 0 0
0 0 0
0 0 0
0 0 0
0 0 0
0 0 0
0 0 0
0 0 0
0 0 0
0 0 0
0 0 0
0 0 0
0 0 0
0 0 0
0 0 0
0 0 0
0 0 0
0 0 0
0 0 0
0 0 0
0 0 0
0 0 0
0 0 0
0 0 0
0 0 0
0 0 0
0 0 0
0 0 0
0 0 0
0 0 0
0 0 0
0 0 0
0 0 0
0 0 0
0 0 0
0 0 0
0 0 0
0 0 0
0 0 0
0 0 0
0 0 0
0 0 0
0 0 0
0 0 0
0 0 0
0 0 0
0 0 0
0 0 0
0 0 0
0 0 0
0 0 0
179 179 179
179 179 179
179 179 179
179 179 179
179 179 179
179 179 179
179 179 179
179 179 179
179 179 179
179 179 179
179 179 179
179 179 179
179 179 179
179 179 179
179 179 179
179 179 179
179 179 179
179 179 179
179 179 179
179 179 179
179 179 179
179 179 179
179 179 179
179 179 179
179 179 179
179 179 179
179 179 179
179 179 179
179 179 179
179 179 179
179 179 179
179 179 179
179 179 179
179 179 179
179 179 179
179 179 179
179 179 179
179 179 179
179 179 179
179 179 179
179 179 179
179 179 179
179 179 179
179 179 179
179 179 179
179 179 179
179 179 179
179 179 179
179 179 179
179 179 179
179 179 179
179 179 179
179 179 179
179 179 179
179 179 179
179 179 179
179 179 179
179 179 179
179 179 179
179 179 179
179 179 179
179 179 179
179 179 179
179 179 179
179 179 179
179 179 179
179 179 179
179 179 179
179 179 179
179 179 179
179 179 179
179 179 179
179 179 179
179 179 179
179 179 179
179 179 179
179 179 179
179 179 179
179 179 179
179 179 179
179 179 179
179 179 179
179 179 179
179 179 179
179 179 179
179 179 179
179 179 179
179 179 179
179 179 179
179 179 179
179 179 179
179 179 179
179 179 179
179 179 179
179 179 179
179 179 179
179 179 179
179 179 179
179 179 179
179 179 179
179 179 179
179 179 179
179 179 179
179 179 179
179 179 179
179 179 179
179 179 179
179 179 179
179 179 179
179 179 179
179 179 179
179 179 179
179 179 179
179 179 179
179 179 179
179 179 179
179 179 179
179 179 179
179 179 179
179 179 179
179 179 179
179 179 179
179 179 179
179 179 179
179 179 179
179 179 179
179 179 179
179 179 179
179 179 179
179 179 179
179 179 179
179 179 179
179 179 179
179 179 179
179 179 179
179 179 179
179 179 179
179 179 179
179 179 179
179 179 179
179 179 179
179 179 179
179 179 179
179 179 179
179 179 179
179 179 179
179 179 179
179 179 179
179 179 179
179 179 179
179 179 179
179 179 179
179 179 179
179 179 179
179 179 179
179 179 179
179 179 179
179 179 179
179 179 179
179 179 179
179 179 179
179 179 179
179 179 179
179 179 179
179 179 179
179 179 179
179 179 179
179 179 179
179 179 179
179 179 179
179 179 179
179 179 179
179 179 179
179 179 179
179 179 179
179 179 179
179 179 179
179 179 179
179 179 179
179 179 179
179 179 179
179 179 179
179 179 179
179 179 179
179 179 179
179 179 179
179 179 179
179 179 179
179 179 179
179 179 179
179 179 179
179 179 179
179 179 179
179 179 179
179 179 179
179 179 179
179 179 179
179 179 179
179 179 179
179 179 179
179 179 179
179 179 179
179 179 179
179 179 179
179 179 179
179 179 179
179 179 179
179 179 179
179 179 179
179 179 179
179 179 179
179 179 179
179 179 179
179 179 179
179 179 179
179 179 179
179 179 179
179 179 179
179 179 179
179 179 179
179 179 179
179 179 179
179 179 179
179 179 179
179 179 179
179 179 179
179 179 179
179 179 179
179 179 179
179 179 179
179 179 179
179 179 179
179 179 179
179 179 179
179 179 179
0 0 0
0 0 0
0 0 0
0 0 0
0 0 0
0 0 0
0 0 0
0 0 0
0 0 0
0 0 0
0 0 0
0 0 0
0 0 0
0 0 0
0 0 0
0 0 0
0 0 0
0 0 0
0 0 0
0 0 0
0 0 0
0 0 0
0 0 0
0 0 0
0 0 0
0 0 0
0 0 0
0 0 0
0 0 0
0 0 0
0 0 0
0 0 0
0 0 0
0 0 0
0 0 0
0 0 0
0 0 0
0 0 0
0 0 0
0 0 0
0 0 0
0 0 0
0 0 0
0 0 0
0 0 0
0 0 0
0 0 0
0 0 0
0 0 0
0 0 0
0 0 0
0 0 0
0 0 0
0 0 0
0 0 0
0 0 0
0 0 0
0 0 0
0 0 0
0 0 0
0 0 0
0 0 0
0 0 0
0 0 0
0 0 0
0 0 0
0 0 0
0 0 0
0 0 0
0 0 0
0 0 0
0 0 0
0 0 0
0 0 0
0 0 0
0 0 0
0 0 0
0 0 0
0 0 0
0 0 0
0 0 0
0 0 0
0 0 0
0 0 0
0 0 0
0 0 0
0 0 0
0 0 0
0 0 0
0 0 0
0 0 0
0 0 0
0 0 0
0 0 0
0 0 0
0 0 0
0 0 0
0 0 0
0 0 0
0 0 0
0 0 0
0 0 0
0 0 0
0 0 0
0 0 0
0 0 0
0 0 0
0 0 0
0 0 0
0 0 0
0 0 0
0 0 0
0 0 0
0 0 0
0 0 0
0 0 0
0 0 0
0 0 0
0 0 0
0 0 0
0 0 0
0 0 0
0 0 0
0 0 0
0 0 0
0 0 0
0 0 0
0 0 0
0 0 0
0 0 0
0 0 0
0 0 0
0 0 0
0 0 0
0 0 0
0 0 0
0 0 0
0 0 0
0 0 0
0 0 0
0 0 0
0 0 0
0 0 0
0 0 0
0 0 0
0 0 0
0 0 0
0 0 0
0 0 0
0 0 0
0 0 0
0 0 0
0 0 0
0 0 0
0 0 0
0 0 0
0 0 0
0 0 0
0 0 0
0 0 0
0 0 0
0 0 0
0 0 0
0 0 0
0 0 0
0 0 0
179 179 179
179 179 179
179 179 179
179 179 179
179 179 179
179 179 179
179 179 179
179 179 179
179 179 179
179 179 179
179 179 179
179 179 179
179 179 179
179 179 179
179 179 179
179 179 179
179 179 179
179 179 179
179 179 179
179 179 179
179 179 179
179 179 179
179 179 179
179 179 179
179 179 179
179 179 179
179 179 179
179 179 179
179 179 179
179 179 179
179 179 179
179 179 179
179 179 179
179 179 179
179 179 179
179 179 179
179 179 179
179 179 179
179 179 179
179 179 179
179 179 179
179 179 179
179 179 179
179 179 179
179 179 179
179 179 179
179 179 179
179 179 179
179 179 179
179 179 179
179 179 179
179 179 179
179 179 179
179 179 179
179 179 179
179 179 179
179 179 179
179 179 179
179 179 179
179 179 179
179 179 179
179 179 179
179 179 179
179 179 179
179 179 179
179 179 179
179 179 179
179 179 179
179 179 179
179 179 179
179 179 179
179 179 179
179 179 179
179 179 179
179 179 179
179 179 179
179 179 179
179 179 179
179 179 179
179 179 179
179 179 179
179 179 179
179 179 179
179 179 179
179 179 179
179 179 179
179 179 179
179 179 179
179 179 179
179 179 179
179 179 179
179 179 179
179 179 179
179 179 179
179 179 179
179 179 179
179 179 179
179 179 179
179 179 179
179 179 179
179 179 179
179 179 179
179 179 179
179 179 179
179 179 179
179 179 179
179 179 179
179 179 179
179 179 179
179 179 179
179 179 179
179 179 179
179 179 179
179 179 179
179 179 179
179 179 179
179 179 179
179 179 179
179 179 179
179 179 179
179 179 179
179 179 179
179 179 179
179 179 179
179 179 179
179 179 179
179 179 179
179 179 179
179 179 179
179 179 179
179 179 179
179 179 179
179 179 179
179 179 179
179 179 179
179 179 179
179 179 179
179 179 179
179 179 179
179 179 179
179 179 179
179 179 179
179 179 179
179 179 179
179 179 179
179 179 179
179 179 179
179 179 179
179 179 179
179 179 179
179 179 179
179 179 179
179 179 179
179 179 179
179 179 179
179 179 179
179 179 179
179 179 179
179 179 179
179 179 179
179 179 179
179 179 179
179 179 179
179 179 179
179 179 179
179 179 179
179 179 179
179 179 179
179 179 179
179 179 179
179 179 179
179 179 179
179 179 179
179 179 179
179 179 179
179 179 179
179 179 179
179 179 179
179 179 179
179 179 179
179 179 179
179 179 179
179 179 179
179 179 179
179 179 179
179 179 179
179 179 179
179 179 179
179 179 179
179 179 179
179 179 179
179 179 179
179 179 179
179 179 179
179 179 179
179 179 179
179 179 179
179 179 179
179 179 179
179 179 179
179 179 179
179 179 179
179 179 179
179 179 179
179 179 179
179 179 179
179 179 179
179 179 179
179 179 179
179 179 179
179 179 179
179 179 179
179 179 179
179 179 179
179 179 179
179 179 179
179 179 179
179 179 179
179 179 179
179 179 179
179 179 179
179 179 179
179 179 179
179 179 179
179 179 179
179 179 179
179 179 179
179 179 179
179 179 179
179 179 179
179 179 179
179 179 179
179 179 179
0 0 0
0 0 0
0 0 0
0 0 0
0 0 0
0 0 0
0 0 0
0 0 0
0 0 0
0 0 0
0 0 0
0 0 0
0 0 0
0 0 0
0 0 0
0 0 0
0 0 0
0 0 0
0 0 0
0 0 0
0 0 0
0 0 0
0 0 0
0 0 0
0 0 0
0 0 0
0 0 0
0 0 0
0 0 0
0 0 0
0 0 0
0 0 0
0 0 0
0 0 0
0 0 0
0 0 0
0 0 0
0 0 0
0 0 0
0 0 0
0 0 0
0 0 0
0 0 0
0 0 0
0 0 0
0 0 0
0 0 0
0 0 0
0 0 0
0 0 0
0 0 0
0 0 0
0 0 0
0 0 0
0 0 0
0 0 0
0 0 0
0 0 0
0 0 0
0 0 0
0 0 0
0 0 0
0 0 0
0 0 0
0 0 0
0 0 0
0 0 0
0 0 0
0 0 0
0 0 0
0 0 0
0 0 0
0 0 0
0 0 0
0 0 0
0 0 0
0 0 0
0 0 0
0 0 0
0 0 0
0 0 0
0 0 0
0 0 0
0 0 0
0 0 0
0 0 0
0 0 0
0 0 0
0 0 0
0 0 0
0 0 0
0 0 0
0 0 0
0 0 0
0 0 0
0 0 0
0 0 0
0 0 0
0 0 0
0 0 0
0 0 0
0 0 0
0 0 0
0 0 0
0 0 0
0 0 0
0 0 0
0 0 0
0 0 0
0 0 0
0 0 0
0 0 0
0 0 0
0 0 0
0 0 0
0 0 0
0 0 0
0 0 0
0 0 0
0 0 0
0 0 0
0 0 0
0 0 0
0 0 0
0 0 0
0 0 0
0 0 0
0 0 0
0 0 0
0 0 0
0 0 0
0 0 0
0 0 0
0 0 0
0 0 0
0 0 0
0 0 0
0 0 0
0 0 0
0 0 0
0 0 0
0 0 0
0 0 0
0 0 0
0 0 0
0 0 0
0 0 0
0 0 0
0 0 0
0 0 0
0 0 0
0 0 0
0 0 0
0 0 0
0 0 0
0 0 0
0 0 0
0 0 0
0 0 0
0 0 0
0 0 0
0 0 0
0 0 0
0 0 0
0 0 0
0 0 0
0 0 0
0 0 0
179 179 179
179 179 179
179 179 179
179 179 179
179 179 179
179 179 179
179 179 179
179 179 179
179 179 179
179 179 179
179 179 179
179 179 179
179 179 179
179 179 179
179 179 179
179 179 179
179 179 179
179 179 179
179 179 179
179 179 179
179 179 179
179 179 179
179 179 179
179 179 179
179 179 179
179 179 179
179 179 179
179 179 179
179 179 179
179 179 179
179 179 179
179 179 179
179 179 179
179 179 179
179 179 179
179 179 179
179 179 179
179 179 179
179 179 179
179 179 179
179 179 179
179 179 179
179 179 179
179 179 179
179 179 179
179 179 179
179 179 179
179 179 179
179 179 179
179 179 179
179 179 179
179 179 179
179 179 179
179 179 179
179 179 179
179 179 179
179 179 179
179 179 179
179 179 179
179 179 179
179 179 179
179 179 179
179 179 179
179 179 179
179 179 179
179 179 179
179 179 179
179 179 179
179 179 179
179 179 179
179 179 179
179 179 179
179 179 179
179 179 179
179 179 179
179 179 179
179 179 179
179 179 179
179 179 179
179 179 179
179 179 179
179 179 179
179 179 179
179 179 179
179 179 179
179 179 179
179 179 179
179 179 179
179 179 179
179 179 179
179 179 179
179 179 179
179 179 179
179 179 179
179 179 179
179 179 179
179 179 179
179 179 179
179 179 179
179 179 179
179 179 179
179 179 179
179 179 179
179 179 179
179 179 179
179 179 179
179 179 179
179 179 179
179 179 179
179 179 179
179 179 179
179 179 179
179 179 179
179 179 179
179 179 179
179 179 179
179 179 179
179 179 179
179 179 179
179 179 179
179 179 179
179 179 179
179 179 179
179 179 179
179 179 179
179 179 179
179 179 179
179 179 179
179 179 179
179 179 179
179 179 179
179 179 179
179 179 179
179 179 179
179 179 179
179 179 179
179 179 179
179 179 179
179 179 179
179 179 179
179 179 179
179 179 179
179 179 179
179 179 179
179 179 179
179 179 179
179 179 179
179 179 179
179 179 179
179 179 179
179 179 179
179 179 179
179 179 179
179 179 179
179 179 179
179 179 179
179 179 179
179 179 179
179 179 179
179 179 179
179 179 179
179 179 179
179 179 179
179 179 179
179 179 179
179 179 179
179 179 179
179 179 179
179 179 179
179 179 179
179 179 179
179 179 179
179 179 179
179 179 179
179 179 179
179 179 179
179 179 179
179 179 179
179 179 179
179 179 179
179 179 179
179 179 179
179 179 179
179 179 179
179 179 179
179 179 179
179 179 179
179 179 179
179 179 179
179 179 179
179 179 179
179 179 179
179 179 179
179 179 179
179 179 179
179 179 179
179 179 179
179 179 179
179 179 179
179 179 179
179 179 179
179 179 179
179 179 179
179 179 179
179 179 179
179 179 179
179 179 179
179 179 179
179 179 179
179 179 179
179 179 179
179 179 179
179 179 179
179 179 179
179 179 179
179 179 179
179 179 179
179 179 179
179 179 179
179 179 179
179 179 179
179 179 179
179 179 179
179 179 179
179 179 179
179 179 179
179 179 179
179 179 179
179 179 179
179 179 179
179 179 179
0 0 0
0 0 0
0 0 0
0 0 0
0 0 0
0 0 0
0 0 0
0 0 0
0 0 0
0 0 0
0 0 0
0 0 0
0 0 0
0 0 0
0 0 0
0 0 0
0 0 0
0 0 0
0 0 0
0 0 0
0 0 0
0 0 0
0 0 0
0 0 0
0 0 0
0 0 0
0 0 0
0 0 0
0 0 0
0 0 0
0 0 0
0 0 0
0 0 0
0 0 0
0 0 0
0 0 0
0 0 0
0 0 0
0 0 0
0 0 0
0 0 0
0 0 0
0 0 0
0 0 0
0 0 0
0 0 0
0 0 0
0 0 0
0 0 0
0 0 0
0 0 0
0 0 0
0 0 0
0 0 0
0 0 0
0 0 0
0 0 0
0 0 0
0 0 0
0 0 0
0 0 0
0 0 0
0 0 0
0 0 0
0 0 0
0 0 0
0 0 0
0 0 0
0 0 0
0 0 0
0 0 0
0 0 0
0 0 0
0 0 0
0 0 0
0 0 0
0 0 0
0 0 0
0 0 0
0 0 0
0 0 0
0 0 0
0 0 0
0 0 0
0 0 0
0 0 0
0 0 0
0 0 0
0 0 0
0 0 0
0 0 0
0 0 0
0 0 0
0 0 0
0 0 0
0 0 0
0 0 0
0 0 0
0 0 0
0 0 0
0 0 0
0 0 0
0 0 0
0 0 0
0 0 0
0 0 0
0 0 0
0 0 0
0 0 0
0 0 0
0 0 0
0 0 0
0 0 0
0 0 0
0 0 0
0 0 0
0 0 0
0 0 0
0 0 0
0 0 0
0 0 0
0 0 0
0 0 0
0 0 0
0 0 0
0 0 0
0 0 0
0 0 0
0 0 0
0 0 0
0 0 0
0 0 0
0 0 0
0 0 0
0 0 0
0 0 0
0 0 0
0 0 0
0 0 0
0 0 0
0 0 0
0 0 0
0 0 0
0 0 0
0 0 0
0 0 0
0 0 0
0 0 0
0 0 0
0 0 0
0 0 0
0 0 0
0 0 0
0 0 0
0 0 0
0 0 0
0 0 0
0 0 0
0 0 0
0 0 0
0 0 0
0 0 0
0 0 0
0 0 0
0 0 0
0 0 0
0 0 0
0 0 0
0 0 0
0 0 0
179 179 179
179 179 179
179 179 179
179 179 179
179 179 179
179 179 179
179 179 179
179 179 179
179 179 179
179 179 179
179 179 179
179 179 179
179 179 179
179 179 179
179 179 179
179 179 179
179 179 179
179 179 179
179 179 179
179 179 179
179 179 179
179 179 179
179 179 179
179 179 179
179 179 179
179 179 179
179 179 179
179 179 179
179 179 179
179 179 179
179 179 179
179 179 179
179 179 179
179 179 179
179 179 179
179 179 179
179 179 179
179 179 179
179 179 179
179 179 179
179 179 179
179 179 179
179 179 179
179 179 179
179 179 179
179 179 179
179 179 179
179 179 179
179 179 179
179 179 179
179 179 179
179 179 179
179 179 179
179 179 179
179 179 179
179 179 179
179 179 179
179 179 179
179 179 179
179 179 179
179 179 179
179 179 179
179 179 179
179 179 179
179 179 179
179 179 179
179 179 179
179 179 179
179 179 179
179 179 179
179 179 179
179 179 179
179 179 179
179 179 179
179 179 179
179 179 179
179 179 179
179 179 179
179 179 179
179 179 179
179 179 179
179 179 179
179 179 179
179 179 179
179 179 179
179 179 179
179 179 179
179 179 179
179 179 179
179 179 179
179 179 179
179 179 179
179 179 179
179 179 179
179 179 179
179 179 179
179 179 179
179 179 179
179 179 179
179 179 179
179 179 179
179 179 179
179 179 179
179 179 179
179 179 179
179 179 179
179 179 179
179 179 179
179 179 179
179 179 179
179 179 179
179 179 179
179 179 179
179 179 179
179 179 179
179 179 179
179 179 179
179 179 179
179 179 179
179 179 179
179 179 179
179 179 179
179 179 179
179 179 179
179 179 179
179 179 179
179 179 179
179 179 179
179 179 179
179 179 179
179 179 179
179 179 179
179 179 179
179 179 179
179 179 179
179 179 179
179 179 179
179 179 179
179 179 179
179 179 179
179 179 179
179 179 179
179 179 179
179 179 179
179 179 179
179 179 179
179 179 179
179 179 179
179 179 179
179 179 179
179 179 179
179 179 179
179 179 179
179 179 179
179 179 179
179 179 179
179 179 179
179 179 179
179 179 179
179 179 179
179 179 179
179 179 179
179 179 179
179 179 179
179 179 179
179 179 179
179 179 179
179 179 179
179 179 179
179 179 179
179 179 179
179 179 179
179 179 179
179 179 179
179 179 179
179 179 179
179 179 179
179 179 179
179 179 179
179 179 179
179 179 179
179 179 179
179 179 179
179 179 179
179 179 179
179 179 179
179 179 179
179 179 179
179 179 179
179 179 179
179 179 179
179 179 179
179 179 179
179 179 179
179 179 179
179 179 179
179 179 179
179 179 179
179 179 179
179 179 179
179 179 179
179 179 179
179 179 179
179 179 179
179 179 179
179 179 179
179 179 179
179 179 179
179 179 179
179 179 179
179 179 179
179 179 179
179 179 179
179 179 179
179 179 179
179 179 179
179 179 179
179 179 179
179 179 179
179 179 179
179 179 179
179 179 179
179 179 179
179 179 179
179 179 179
179 179 179
179 179 179
179 179 179
179 179 179
179 179 179
0 0 0
0 0 0
0 0 0
0 0 0
0 0 0
0 0 0
0 0 0
0 0 0
0 0 0
0 0 0
0 0 0
0 0 0
0 0 0
0 0 0
0 0 0
0 0 0
0 0 0
0 0 0
0 0 0
0 0 0
0 0 0
0 0 0
0 0 0
0 0 0
0 0 0
0 0 0
0 0 0
0 0 0
0 0 0
0 0 0
0 0 0
0 0 0
0 0 0
0 0 0
0 0 0
0 0 0
0 0 0
0 0 0
0 0 0
0 0 0
0 0 0
0 0 0
0 0 0
0 0 0
0 0 0
0 0 0
0 0 0
0 0 0
0 0 0
0 0 0
0 0 0
0 0 0
0 0 0
0 0 0
0 0 0
0 0 0
0 0 0
0 0 0
0 0 0
0 0 0
0 0 0
0 0 0
0 0 0
0 0 0
0 0 0
0 0 0
0 0 0
0 0 0
0 0 0
0 0 0
0 0 0
0 0 0
0 0 0
0 0 0
0 0 0
0 0 0
0 0 0
0 0 0
0 0 0
0 0 0
0 0 0
0 0 0
0 0 0
0 0 0
0 0 0
0 0 0
0 0 0
0 0 0
0 0 0
0 0 0
0 0 0
0 0 0
0 0 0
0 0 0
0 0 0
0 0 0
0 0 0
0 0 0
0 0 0
0 0 0
0 0 0
0 0 0
0 0 0
0 0 0
0 0 0
0 0 0
0 0 0
0 0 0
0 0 0
0 0 0
0 0 0
0 0 0
0 0 0
0 0 0
0 0 0
0 0 0
0 0 0
0 0 0
0 0 0
0 0 0
0 0 0
0 0 0
0 0 0
0 0 0
0 0 0
0 0 0
0 0 0
0 0 0
0 0 0
0 0 0
0 0 0
0 0 0
0 0 0
0 0 0
0 0 0
0 0 0
0 0 0
0 0 0
0 0 0
0 0 0
0 0 0
0 0 0
0 0 0
0 0 0
0 0 0
0 0 0
0 0 0
0 0 0
0 0 0
0 0 0
0 0 0
0 0 0
0 0 0
0 0 0
0 0 0
0 0 0
0 0 0
0 0 0
0 0 0
0 0 0
0 0 0
0 0 0
0 0 0
0 0 0
0 0 0
0 0 0
0 0 0
0 0 0
0 0 0
0 0 0
179 179 179
179 179 179
179 179 179
179 179 179
179 179 179
179 179 179
179 179 179
179 179 179
179 179 179
179 179 179
179 179 179
179 179 179
179 179 179
179 179 179
179 179 179
179 179 179
179 179 179
179 179 179
179 179 179
179 179 179
179 179 179
179 179 179
179 179 179
179 179 179
179 179 179
179 179 179
179 179 179
179 179 179
179 179 179
179 179 179
179 179 179
179 179 179
179 179 179
179 179 179
179 179 179
179 179 179
179 179 179
179 179 179
179 179 179
179 179 179
179 179 179
179 179 179
179 179 179
179 179 179
179 179 179
179 179 179
179 179 179
179 179 179
179 179 179
179 179 179
179 179 179
179 179 179
179 179 179
179 179 179
179 179 179
179 179 179
179 179 179
179 179 179
179 179 179
179 179 179
179 179 179
179 179 179
179 179 179
179 179 179
179 179 179
179 179 179
179 179 179
179 179 179
179 179 179
179 179 179
179 179 179
179 179 179
179 179 179
179 179 179
179 179 179
179 179 179
179 179 179
179 179 179
179 179 179
179 179 179
179 179 179
179 179 179
179 179 179
179 179 179
179 179 179
179 179 179
179 179 179
179 179 179
179 179 179
179 179 179
179 179 179
179 179 179
179 179 179
179 179 179
179 179 179
179 179 179
179 179 179
179 179 179
179 179 179
179 179 179
179 179 179
179 179 179
179 179 179
179 179 179
179 179 179
179 179 179
179 179 179
179 179 179
179 179 179
179 179 179
179 179 179
179 179 179
179 179 179
179 179 179
179 179 179
179 179 179
179 179 179
179 179 179
179 179 179
179 179 179
179 179 179
179 179 179
179 179 179
179 179 179
179 179 179
179 179 179
179 179 179
179 179 179
179 179 179
179 179 179
179 179 179
179 179 179
179 179 179
179 179 179
179 179 179
179 179 179
179 179 179
179 179 179
179 179 179
179 179 179
179 179 179
179 179 179
179 179 179
179 179 179
179 179 179
179 179 179
179 179 179
179 179 179
179 179 179
179 179 179
179 179 179
179 179 179
179 179 179
179 179 179
179 179 179
179 179 179
179 179 179
179 179 179
179 179 179
179 179 179
179 179 179
179 179 179
179 179 179
179 179 179
179 179 179
179 179 179
179 179 179
179 179 179
179 179 179
179 179 179
179 179 179
179 179 179
179 179 179
179 179 179
179 179 179
179 179 179
179 179 179
179 179 179
179 179 179
179 179 179
179 179 179
179 179 179
179 179 179
179 179 179
179 179 179
179 179 179
179 179 179
179 179 179
179 179 179
179 179 179
179 179 179
179 179 179
179 179 179
179 179 179
179 179 179
179 179 179
179 179 179
179 179 179
179 179 179
179 179 179
179 179 179
179 179 179
179 179 179
179 179 179
179 179 179
179 179 179
179 179 179
179 179 179
179 179 179
179 179 179
179 179 179
179 179 179
179 179 179
179 179 179
179 179 179
179 179 179
179 179 179
179 179 179
179 179 179
179 179 179
179 179 179
179 179 179
179 179 179
179 179 179
179 179 179
179 179 179
179 179 179
179 179 179
179 179 179
0 0 0
0 0 0
0 0 0
0 0 0
0 0 0
0 0 0
0 0 0
0 0 0
0 0 0
0 0 0
0 0 0
0 0 0
0 0 0
0 0 0
0 0 0
0 0 0
0 0 0
0 0 0
0 0 0
0 0 0
0 0 0
0 0 0
0 0 0
0 0 0
0 0 0
0 0 0
0 0 0
0 0 0
0 0 0
0 0 0
0 0 0
0 0 0
0 0 0
0 0 0
0 0 0
0 0 0
0 0 0
0 0 0
0 0 0
0 0 0
0 0 0
0 0 0
0 0 0
0 0 0
0 0 0
0 0 0
0 0 0
0 0 0
0 0 0
0 0 0
0 0 0
0 0 0
0 0 0
0 0 0
0 0 0
0 0 0
0 0 0
0 0 0
0 0 0
0 0 0
0 0 0
0 0 0
0 0 0
0 0 0
0 0 0
0 0 0
0 0 0
0 0 0
0 0 0
0 0 0
0 0 0
0 0 0
0 0 0
0 0 0
0 0 0
0 0 0
0 0 0
0 0 0
0 0 0
0 0 0
0 0 0
0 0 0
0 0 0
0 0 0
0 0 0
0 0 0
0 0 0
0 0 0
0 0 0
0 0 0
0 0 0
0 0 0
0 0 0
0 0 0
0 0 0
0 0 0
0 0 0
0 0 0
0 0 0
0 0 0
0 0 0
0 0 0
0 0 0
0 0 0
0 0 0
0 0 0
0 0 0
0 0 0
0 0 0
0 0 0
0 0 0
0 0 0
0 0 0
0 0 0
0 0 0
0 0 0
0 0 0
0 0 0
0 0 0
0 0 0
0 0 0
0 0 0
0 0 0
0 0 0
0 0 0
0 0 0
0 0 0
0 0 0
0 0 0
0 0 0
0 0 0
0 0 0
0 0 0
0 0 0
0 0 0
0 0 0
0 0 0
0 0 0
0 0 0
0 0 0
0 0 0
0 0 0
0 0 0
0 0 0
0 0 0
0 0 0
0 0 0
0 0 0
0 0 0
0 0 0
0 0 0
0 0 0
0 0 0
0 0 0
0 0 0
0 0 0
0 0 0
0 0 0
0 0 0
0 0 0
0 0 0
0 0 0
0 0 0
0 0 0
0 0 0
0 0 0
0 0 0
0 0 0
0 0 0
0 0 0
0 0 0
0 0 0
179 179 179
179 179 179
179 179 179
179 179 179
179 179 179
179 179 179
179 179 179
179 179 179
179 179 179
179 179 179
179 179 179
179 179 179
179 179 179
179 179 179
179 179 179
179 179 179
179 179 179
179 179 179
179 179 179
179 179 179
179 179 179
179 179 179
179 179 179
179 179 179
179 179 179
179 179 179
179 179 179
179 179 179
179 179 179
179 179 179
179 179 179
179 179 179
179 179 179
179 179 179
179 179 179
179 179 179
179 179 179
179 179 179
179 179 179
179 179 179
179 179 179
179 179 179
179 179 179
179 179 179
179 179 179
179 179 179
179 179 179
179 179 179
179 179 179
179 179 179
179 179 179
179 179 179
179 179 179
179 179 179
179 179 179
179 179 179
179 179 179
179 179 179
179 179 179
179 179 179
179 179 179
179 179 179
179 179 179
179 179 179
179 179 179
179 179 179
179 179 179
179 179 179
179 179 179
179 179 179
179 179 179
179 179 179
179 179 179
179 179 179
179 179 179
179 179 179
179 179 179
179 179 179
179 179 179
179 179 179
179 179 179
179 179 179
179 179 179
179 179 179
179 179 179
179 179 179
179 179 179
179 179 179
179 179 179
179 179 179
179 179 179
179 179 179
179 179 179
179 179 179
179 179 179
179 179 179
179 179 179
179 179 179
179 179 179
179 179 179
179 179 179
179 179 179
179 179 179
179 179 179
179 179 179
179 179 179
179 179 179
179 179 179
179 179 179
179 179 179
179 179 179
179 179 179
179 179 179
179 179 179
179 179 179
179 179 179
179 179 179
179 179 179
179 179 179
179 179 179
179 179 179
179 179 179
179 179 179
179 179 179
179 179 179
179 179 179
179 179 179
179 179 179
179 179 179
179 179 179
179 179 179
179 179 179
179 179 179
179 179 179
179 179 179
179 179 179
179 179 179
179 179 179
179 179 179
179 179 179
179 179 179
179 179 179
179 179 179
179 179 179
179 179 179
179 179 179
179 179 179
179 179 179
179 179 179
179 179 179
179 179 179
179 179 179
179 179 179
179 179 179
179 179 179
179 179 179
179 179 179
179 179 179
179 179 179
179 179 179
179 179 179
179 179 179
179 179 179
179 179 179
179 179 179
179 179 179
179 179 179
179 179 179
179 179 179
179 179 179
179 179 179
179 179 179
179 179 179
179 179 179
179 179 179
179 179 179
179 179 179
179 179 179
179 179 179
179 179 179
179 179 179
179 179 179
179 179 179
179 179 179
179 179 179
179 179 179
179 179 179
179 179 179
179 179 179
179 179 179
179 179 179
179 179 179
179 179 179
179 179 179
179 179 179
179 179 179
179 179 179
179 179 179
179 179 179
179 179 179
179 179 179
179 179 179
179 179 179
179 179 179
179 179 179
179 179 179
179 179 179
179 179 179
179 179 179
179 179 179
179 179 179
179 179 179
179 179 179
179 179 179
179 179 179
179 179 179
179 179 179
179 179 179
179 179 179
179 179 179
179 179 179
179 179 179
179 179 179
179 179 179
179 179 179
179 179 179
179 179 179
0 0 0
0 0 0
0 0 0
0 0 0
0 0 0
0 0 0
0 0 0
0 0 0
0 0 0
0 0 0
0 0 0
0 0 0
0 0 0
0 0 0
0 0 0
0 0 0
0 0 0
0 0 0
0 0 0
0 0 0
0 0 0
0 0 0
0 0 0
0 0 0
0 0 0
0 0 0
0 0 0
0 0 0
0 0 0
0 0 0
0 0 0
0 0 0
0 0 0
0 0 0
0 0 0
0 0 0
0 0 0
0 0 0
0 0 0
0 0 0
0 0 0
0 0 0
0 0 0
0 0 0
0 0 0
0 0 0
0 0 0
0 0 0
0 0 0
0 0 0
0 0 0
0 0 0
0 0 0
0 0 0
0 0 0
0 0 0
0 0 0
0 0 0
0 0 0
0 0 0
0 0 0
0 0 0
0 0 0
0 0 0
0 0 0
0 0 0
0 0 0
0 0 0
0 0 0
0 0 0
0 0 0
0 0 0
0 0 0
0 0 0
0 0 0
0 0 0
0 0 0
0 0 0
0 0 0
0 0 0
0 0 0
0 0 0
0 0 0
0 0 0
0 0 0
0 0 0
0 0 0
0 0 0
0 0 0
0 0 0
0 0 0
0 0 0
0 0 0
0 0 0
0 0 0
0 0 0
0 0 0
0 0 0
0 0 0
0 0 0
0 0 0
0 0 0
0 0 0
0 0 0
0 0 0
0 0 0
0 0 0
0 0 0
0 0 0
0 0 0
0 0 0
0 0 0
0 0 0
0 0 0
0 0 0
0 0 0
0 0 0
0 0 0
0 0 0
0 0 0
0 0 0
0 0 0
0 0 0
0 0 0
0 0 0
0 0 0
0 0 0
0 0 0
0 0 0
0 0 0
0 0 0
0 0 0
0 0 0
0 0 0
0 0 0
0 0 0
0 0 0
0 0 0
0 0 0
0 0 0
0 0 0
0 0 0
0 0 0
0 0 0
0 0 0
0 0 0
0 0 0
0 0 0
0 0 0
0 0 0
0 0 0
0 0 0
0 0 0
0 0 0
0 0 0
0 0 0
0 0 0
0 0 0
0 0 0
0 0 0
0 0 0
0 0 0
0 0 0
0 0 0
0 0 0
0 0 0
0 0 0
0 0 0
0 0 0
0 0 0
0 0 0
0 0 0
0 0 0
0 0 0
179 179 179
179 179 179
179 179 179
179 179 179
179 179 179
179 179 179
179 179 179
179 179 179
179 179 179
179 179 179
179 179 179
179 179 179
179 179 179
179 179 179
179 179 179
179 179 179
179 179 179
179 179 179
179 179 179
179 179 179
179 179 179
179 179 179
179 179 179
179 179 179
179 179 179
179 179 179
179 179 179
179 179 179
179 179 179
179 179 179
179 179 179
179 179 179
179 179 179
179 179 179
179 179 179
179 179 179
179 179 179
179 179 179
179 179 179
179 179 179
179 179 179
179 179 179
179 179 179
179 179 179
179 179 179
179 179 179
179 179 179
179 179 179
179 179 179
179 179 179
179 179 179
179 179 179
179 179 179
179 179 179
179 179 179
179 179 179
179 179 179
179 179 179
179 179 179
179 179 179
179 179 179
179 179 179
179 179 179
179 179 179
179 179 179
179 179 179
179 179 179
179 179 179
179 179 179
179 179 179
179 179 179
179 179 179
179 179 179
179 179 179
179 179 179
179 179 179
179 179 179
179 179 179
179 179 179
179 179 179
179 179 179
179 179 179
179 179 179
179 179 179
179 179 179
179 179 179
179 179 179
179 179 179
179 179 179
179 179 179
179 179 179
179 179 179
179 179 179
179 179 179
179 179 179
179 179 179
179 179 179
179 179 179
179 179 179
179 179 179
179 179 179
179 179 179
179 179 179
179 179 179
179 179 179
179 179 179
179 179 179
179 179 179
179 179 179
179 179 179
179 179 179
179 179 179
179 179 179
179 179 179
179 179 179
179 179 179
179 179 179
179 179 179
179 179 179
179 179 179
179 179 179
179 179 179
179 179 179
179 179 179
179 179 179
179 179 179
179 179 179
179 179 179
179 179 179
179 179 179
179 179 179
179 179 179
179 179 179
179 179 179
179 179 179
179 179 179
179 179 179
179 179 179
179 179 179
179 179 179
179 179 179
179 179 179
179 179 179
179 179 179
179 179 179
179 179 179
179 179 179
179 179 179
179 179 179
179 179 179
179 179 179
179 179 179
179 179 179
179 179 179
179 179 179
179 179 179
179 179 179
179 179 179
179 179 179
179 179 179
179 179 179
179 179 179
179 179 179
179 179 179
179 179 179
179 179 179
179 179 179
179 179 179
179 179 179
179 179 179
179 179 179
179 179 179
179 179 179
179 179 179
179 179 179
179 179 179
179 179 179
179 179 179
179 179 179
179 179 179
179 179 179
179 179 179
179 179 179
179 179 179
179 179 179
179 179 179
179 179 179
179 179 179
179 179 179
179 179 179
179 179 179
179 179 179
179 179 179
179 179 179
179 179 179
179 179 179
179 179 179
179 179 179
179 179 179
179 179 179
179 179 179
179 179 179
179 179 179
179 179 179
179 179 179
179 179 179
179 179 179
179 179 179
179 179 179
179 179 179
179 179 179
179 179 179
179 179 179
179 179 179
179 179 179
179 179 179
179 179 179
179 179 179
179 179 179
179 179 179
179 179 179
179 179 179
179 179 179
179 179 179
179 179 179
0 0 0
0 0 0
0 0 0
0 0 0
0 0 0
0 0 0
0 0 0
0 0 0
0 0 0
0 0 0
0 0 0
0 0 0
0 0 0
0 0 0
0 0 0
0 0 0
0 0 0
0 0 0
0 0 0
0 0 0
0 0 0
0 0 0
0 0 0
0 0 0
0 0 0
0 0 0
0 0 0
0 0 0
0 0 0
0 0 0
0 0 0
0 0 0
0 0 0
0 0 0
0 0 0
0 0 0
0 0 0
0 0 0
0 0 0
0 0 0
0 0 0
0 0 0
0 0 0
0 0 0
0 0 0
0 0 0
0 0 0
0 0 0
0 0 0
0 0 0
0 0 0
0 0 0
0 0 0
0 0 0
0 0 0
0 0 0
0 0 0
0 0 0
0 0 0
0 0 0
0 0 0
0 0 0
0 0 0
0 0 0
0 0 0
0 0 0
0 0 0
0 0 0
0 0 0
0 0 0
0 0 0
0 0 0
0 0 0
0 0 0
0 0 0
0 0 0
0 0 0
0 0 0
0 0 0
0 0 0
0 0 0
0 0 0
0 0 0
0 0 0
0 0 0
0 0 0
0 0 0
0 0 0
0 0 0
0 0 0
0 0 0
0 0 0
0 0 0
0 0 0
0 0 0
0 0 0
0 0 0
0 0 0
0 0 0
0 0 0
0 0 0
0 0 0
0 0 0
0 0 0
0 0 0
0 0 0
0 0 0
0 0 0
0 0 0
0 0 0
0 0 0
0 0 0
0 0 0
0 0 0
0 0 0
0 0 0
0 0 0
0 0 0
0 0 0
0 0 0
0 0 0
0 0 0
0 0 0
0 0 0
0 0 0
0 0 0
0 0 0
0 0 0
0 0 0
0 0 0
0 0 0
0 0 0
0 0 0
0 0 0
0 0 0
0 0 0
0 0 0
0 0 0
0 0 0
0 0 0
0 0 0
0 0 0
0 0 0
0 0 0
0 0 0
0 0 0
0 0 0
0 0 0
0 0 0
0 0 0
0 0 0
0 0 0
0 0 0
0 0 0
0 0 0
0 0 0
0 0 0
0 0 0
0 0 0
0 0 0
0 0 0
0 0 0
0 0 0
0 0 0
0 0 0
0 0 0
0 0 0
0 0 0
0 0 0
0 0 0
0 0 0
0 0 0
0 0 0
0 0 0
0 0 0
0 0 0
179 179 179
179 179 179
179 179 179
179 179 179
179 179 179
179 179 179
179 179 179
179 179 179
179 179 179
179 179 179
179 179 179
179 179 179
179 179 179
179 179 179
179 179 179
179 179 179
179 179 179
179 179 179
179 179 179
179 179 179
179 179 179
179 179 179
179 179 179
179 179 179
179 179 179
179 179 179
179 179 179
179 179 179
179 179 179
179 179 179
179 179 179
179 179 179
179 179 179
179 179 179
179 179 179
179 179 179
179 179 179
179 179 179
179 179 179
179 179 179
179 179 179
179 179 179
179 179 179
179 179 179
179 179 179
179 179 179
179 179 179
179 179 179
179 179 179
179 179 179
179 179 179
179 179 179
179 179 179
179 179 179
179 179 179
179 179 179
179 179 179
179 179 179
179 179 179
179 179 179
179 179 179
179 179 179
179 179 179
179 179 179
179 179 179
179 179 179
179 179 179
179 179 179
179 179 179
179 179 179
179 179 179
179 179 179
179 179 179
179 179 179
179 179 179
179 179 179
179 179 179
179 179 179
179 179 179
179 179 179
179 179 179
179 179 179
179 179 179
179 179 179
179 179 179
179 179 179
179 179 179
179 179 179
179 179 179
179 179 179
179 179 179
179 179 179
179 179 179
179 179 179
179 179 179
179 179 179
179 179 179
179 179 179
179 179 179
179 179 179
179 179 179
179 179 179
179 179 179
179 179 179
179 179 179
179 179 179
179 179 179
179 179 179
179 179 179
179 179 179
179 179 179
179 179 179
179 179 179
179 179 179
179 179 179
179 179 179
179 179 179
179 179 179
179 179 179
179 179 179
179 179 179
179 179 179
179 179 179
179 179 179
179 179 179
179 179 179
179 179 179
179 179 179
179 179 179
179 179 179
179 179 179
179 179 179
179 179 179
179 179 179
179 179 179
179 179 179
179 179 179
179 179 179
179 179 179
179 179 179
179 179 179
179 179 179
179 179 179
179 179 179
179 179 179
179 179 179
179 179 179
179 179 179
179 179 179
179 179 179
179 179 179
179 179 179
179 179 179
179 179 179
179 179 179
179 179 179
179 179 179
179 179 179
179 179 179
179 179 179
179 179 179
179 179 179
179 179 179
179 179 179
179 179 179
179 179 179
179 179 179
179 179 179
179 179 179
179 179 179
179 179 179
179 179 179
179 179 179
179 179 179
179 179 179
179 179 179
179 179 179
179 179 179
179 179 179
179 179 179
179 179 179
179 179 179
179 179 179
179 179 179
179 179 179
179 179 179
179 179 179
179 179 179
179 179 179
179 179 179
179 179 179
179 179 179
179 179 179
179 179 179
179 179 179
179 179 179
179 179 179
179 179 179
179 179 179
179 179 179
179 179 179
179 179 179
179 179 179
179 179 179
179 179 179
179 179 179
179 179 179
179 179 179
179 179 179
179 179 179
179 179 179
179 179 179
179 179 179
179 179 179
179 179 179
179 179 179
179 179 179
179 179 179
179 179 179
179 179 179
179 179 179
179 179 179
179 179 179
179 179 179
0 0 0
0 0 0
0 0 0
0 0 0
0 0 0
0 0 0
0 0 0
0 0 0
0 0 0
0 0 0
0 0 0
0 0 0
0 0 0
0 0 0
0 0 0
0 0 0
0 0 0
0 0 0
0 0 0
0 0 0
0 0 0
0 0 0
0 0 0
0 0 0
0 0 0
0 0 0
0 0 0
0 0 0
0 0 0
0 0 0
0 0 0
0 0 0
0 0 0
0 0 0
0 0 0
0 0 0
0 0 0
0 0 0
0 0 0
0 0 0
0 0 0
0 0 0
0 0 0
0 0 0
0 0 0
0 0 0
0 0 0
0 0 0
0 0 0
0 0 0
0 0 0
0 0 0
0 0 0
0 0 0
0 0 0
0 0 0
0 0 0
0 0 0
0 0 0
0 0 0
0 0 0
0 0 0
0 0 0
0 0 0
0 0 0
0 0 0
0 0 0
0 0 0
0 0 0
0 0 0
0 0 0
0 0 0
0 0 0
0 0 0
0 0 0
0 0 0
0 0 0
0 0 0
0 0 0
0 0 0
0 0 0
0 0 0
0 0 0
0 0 0
0 0 0
0 0 0
0 0 0
0 0 0
0 0 0
0 0 0
0 0 0
0 0 0
0 0 0
0 0 0
0 0 0
0 0 0
0 0 0
0 0 0
0 0 0
0 0 0
0 0 0
0 0 0
0 0 0
0 0 0
0 0 0
0 0 0
0 0 0
0 0 0
0 0 0
0 0 0
0 0 0
0 0 0
0 0 0
0 0 0
0 0 0
0 0 0
0 0 0
0 0 0
0 0 0
0 0 0
0 0 0
0 0 0
0 0 0
0 0 0
0 0 0
0 0 0
0 0 0
0 0 0
0 0 0
0 0 0
0 0 0
0 0 0
0 0 0
0 0 0
0 0 0
0 0 0
0 0 0
0 0 0
0 0 0
0 0 0
0 0 0
0 0 0
0 0 0
0 0 0
0 0 0
0 0 0
0 0 0
0 0 0
0 0 0
0 0 0
0 0 0
0 0 0
0 0 0
0 0 0
0 0 0
0 0 0
0 0 0
0 0 0
0 0 0
0 0 0
0 0 0
0 0 0
0 0 0
0 0 0
0 0 0
0 0 0
0 0 0
0 0 0
0 0 0
0 0 0
0 0 0
0 0 0
0 0 0
0 0 0
0 0 0
0 0 0
179 179 179
179 179 179
179 179 179
179 179 179
179 179 179
179 179 179
179 179 179
179 179 179
179 179 179
179 179 179
179 179 179
179 179 179
179 179 179
179 179 179
179 179 179
179 179 179
179 179 179
179 179 179
179 179 179
179 179 179
179 179 179
179 179 179
179 179 179
179 179 179
179 179 179
179 179 179
179 179 179
179 179 179
179 179 179
179 179 179
179 179 179
179 179 179
179 179 179
179 179 179
179 179 179
179 179 179
179 179 179
179 179 179
179 179 179
179 179 179
179 179 179
179 179 179
179 179 179
179 179 179
179 179 179
179 179 179
179 179 179
179 179 179
179 179 179
179 179 179
179 179 179
179 179 179
179 179 179
179 179 179
179 179 179
179 179 179
179 179 179
179 179 179
179 179 179
179 179 179
179 179 179
179 179 179
179 179 179
179 179 179
179 179 179
179 179 179
179 179 179
179 179 179
179 179 179
179 179 179
179 179 179
179 179 179
179 179 179
179 179 179
179 179 179
179 179 179
179 179 179
179 179 179
179 179 179
179 179 179
179 179 179
179 179 179
179 179 179
179 179 179
179 179 179
179 179 179
179 179 179
179 179 179
179 179 179
179 179 179
179 179 179
179 179 179
179 179 179
179 179 179
179 179 179
179 179 179
179 179 179
179 179 179
179 179 179
179 179 179
179 179 179
179 179 179
179 179 179
179 179 179
179 179 179
179 179 179
179 179 179
179 179 179
179 179 179
179 179 179
179 179 179
179 179 179
179 179 179
179 179 179
179 179 179
179 179 179
179 179 179
179 179 179
179 179 179
179 179 179
179 179 179
179 179 179
179 179 179
179 179 179
179 179 179
179 179 179
179 179 179
179 179 179
179 179 179
179 179 179
179 179 179
179 179 179
179 179 179
179 179 179
179 179 179
179 179 179
179 179 179
179 179 179
179 179 179
179 179 179
179 179 179
179 179 179
179 179 179
179 179 179
179 179 179
179 179 179
179 179 179
179 179 179
179 179 179
179 179 179
179 179 179
179 179 179
179 179 179
179 179 179
179 179 179
179 179 179
179 179 179
179 179 179
179 179 179
179 179 179
179 179 179
179 179 179
179 179 179
179 179 179
179 179 179
179 179 179
179 179 179
179 179 179
179 179 179
179 179 179
179 179 179
179 179 179
179 179 179
179 179 179
179 179 179
179 179 179
179 179 179
179 179 179
179 179 179
179 179 179
179 179 179
179 179 179
179 179 179
179 179 179
179 179 179
179 179 179
179 179 179
179 179 179
179 179 179
179 179 179
179 179 179
179 179 179
179 179 179
179 179 179
179 179 179
179 179 179
179 179 179
179 179 179
179 179 179
179 179 179
179 179 179
179 179 179
179 179 179
179 179 179
179 179 179
179 179 179
179 179 179
179 179 179
179 179 179
179 179 179
179 179 179
179 179 179
179 179 179
179 179 179
179 179 179
179 179 179
179 179 179
179 179 179
179 179 179
179 179 179
179 179 179
179 179 179
179 179 179
0 0 0
0 0 0
0 0 0
0 0 0
0 0 0
0 0 0
0 0 0
0 0 0
0 0 0
0 0 0
0 0 0
0 0 0
0 0 0
0 0 0
0 0 0
0 0 0
0 0 0
0 0 0
0 0 0
0 0 0
0 0 0
0 0 0
0 0 0
0 0 0
0 0 0
0 0 0
0 0 0
0 0 0
0 0 0
0 0 0
0 0 0
0 0 0
0 0 0
0 0 0
0 0 0
0 0 0
0 0 0
0 0 0
0 0 0
0 0 0
0 0 0
0 0 0
0 0 0
0 0 0
0 0 0
0 0 0
0 0 0
0 0 0
0 0 0
0 0 0
0 0 0
0 0 0
0 0 0
0 0 0
0 0 0
0 0 0
0 0 0
0 0 0
0 0 0
0 0 0
0 0 0
0 0 0
0 0 0
0 0 0
0 0 0
0 0 0
0 0 0
0 0 0
0 0 0
0 0 0
0 0 0
0 0 0
0 0 0
0 0 0
0 0 0
0 0 0
0 0 0
0 0 0
0 0 0
0 0 0
0 0 0
0 0 0
0 0 0
0 0 0
0 0 0
0 0 0
0 0 0
0 0 0
0 0 0
0 0 0
0 0 0
0 0 0
0 0 0
0 0 0
0 0 0
0 0 0
0 0 0
0 0 0
0 0 0
0 0 0
0 0 0
0 0 0
0 0 0
0 0 0
0 0 0
0 0 0
0 0 0
0 0 0
0 0 0
0 0 0
0 0 0
0 0 0
0 0 0
0 0 0
0 0 0
0 0 0
0 0 0
0 0 0
0 0 0
0 0 0
0 0 0
0 0 0
0 0 0
0 0 0
0 0 0
0 0 0
0 0 0
0 0 0
0 0 0
0 0 0
0 0 0
0 0 0
0 0 0
0 0 0
0 0 0
0 0 0
0 0 0
0 0 0
0 0 0
0 0 0
0 0 0
0 0 0
0 0 0
0 0 0
0 0 0
0 0 0
0 0 0
0 0 0
0 0 0
0 0 0
0 0 0
0 0 0
0 0 0
0 0 0
0 0 0
0 0 0
0 0 0
0 0 0
0 0 0
0 0 0
0 0 0
0 0 0
0 0 0
0 0 0
0 0 0
0 0 0
0 0 0
0 0 0
0 0 0
0 0 0
0 0 0
0 0 0
0 0 0
0 0 0
0 0 0
0 0 0
0 0 0
0 0 0
179 179 179
179 179 179
179 179 179
179 179 179
179 179 179
179 179 179
179 179 179
179 179 179
179 179 179
179 179 179
179 179 179
179 179 179
179 179 179
179 179 179
179 179 179
179 179 179
179 179 179
179 179 179
179 179 179
179 179 179
179 179 179
179 179 179
179 179 179
179 179 179
179 179 179
179 179 179
179 179 179
179 179 179
179 179 179
179 179 179
179 179 179
179 179 179
179 179 179
179 179 179
179 179 179
179 179 179
179 179 179
179 179 179
179 179 179
179 179 179
179 179 179
179 179 179
179 179 179
179 179 179
179 179 179
179 179 179
179 179 179
179 179 179
179 179 179
179 179 179
179 179 179
179 179 179
179 179 179
179 179 179
179 179 179
179 179 179
179 179 179
179 179 179
179 179 179
179 179 179
179 179 179
179 179 179
179 179 179
179 179 179
179 179 179
179 179 179
179 179 179
179 179 179
179 179 179
179 179 179
179 179 179
179 179 179
179 179 179
179 179 179
179 179 179
179 179 179
179 179 179
179 179 179
179 179 179
179 179 179
179 179 179
179 179 179
179 179 179
179 179 179
179 179 179
179 179 179
179 179 179
179 179 179
179 179 179
179 179 179
179 179 179
179 179 179
179 179 179
179 179 179
179 179 179
179 179 179
179 179 179
179 179 179
179 179 179
179 179 179
179 179 179
179 179 179
179 179 179
179 179 179
179 179 179
179 179 179
179 179 179
179 179 179
179 179 179
179 179 179
179 179 179
179 179 179
179 179 179
179 179 179
179 179 179
179 179 179
179 179 179
179 179 179
179 179 179
179 179 179
179 179 179
179 179 179
179 179 179
179 179 179
179 179 179
179 179 179
179 179 179
179 179 179
179 179 179
179 179 179
179 179 179
179 179 179
179 179 179
179 179 179
179 179 179
179 179 179
179 179 179
179 179 179
179 179 179
179 179 179
179 179 179
179 179 179
179 179 179
179 179 179
179 179 179
179 179 179
179 179 179
179 179 179
179 179 179
179 179 179
179 179 179
179 179 179
179 179 179
179 179 179
179 179 179
179 179 179
179 179 179
179 179 179
179 179 179
179 179 179
179 179 179
179 179 179
179 179 179
179 179 179
179 179 179
179 179 179
179 179 179
179 179 179
179 179 179
179 179 179
179 179 179
179 179 179
179 179 179
179 179 179
179 179 179
179 179 179
179 179 179
179 179 179
179 179 179
179 179 179
179 179 179
179 179 179
179 179 179
179 179 179
179 179 179
179 179 179
179 179 179
179 179 179
179 179 179
179 179 179
179 179 179
179 179 179
179 179 179
179 179 179
179 179 179
179 179 179
179 179 179
179 179 179
179 179 179
179 179 179
179 179 179
179 179 179
179 179 179
179 179 179
179 179 179
179 179 179
179 179 179
179 179 179
179 179 179
179 179 179
179 179 179
179 179 179
179 179 179
179 179 179
179 179 179
179 179 179
179 179 179
179 179 179
179 179 179
179 179 179
179 179 179
0 0 0
0 0 0
0 0 0
0 0 0
0 0 0
0 0 0
0 0 0
0 0 0
0 0 0
0 0 0
0 0 0
0 0 0
0 0 0
0 0 0
0 0 0
0 0 0
0 0 0
0 0 0
0 0 0
0 0 0
0 0 0
0 0 0
0 0 0
0 0 0
0 0 0
0 0 0
0 0 0
0 0 0
0 0 0
0 0 0
0 0 0
0 0 0
0 0 0
0 0 0
0 0 0
0 0 0
0 0 0
0 0 0
0 0 0
0 0 0
0 0 0
0 0 0
0 0 0
0 0 0
0 0 0
0 0 0
0 0 0
0 0 0
0 0 0
0 0 0
0 0 0
0 0 0
0 0 0
0 0 0
0 0 0
0 0 0
0 0 0
0 0 0
0 0 0
0 0 0
0 0 0
0 0 0
0 0 0
0 0 0
0 0 0
0 0 0
0 0 0
0 0 0
0 0 0
0 0 0
0 0 0
0 0 0
0 0 0
0 0 0
0 0 0
0 0 0
0 0 0
0 0 0
0 0 0
0 0 0
0 0 0
0 0 0
0 0 0
0 0 0
0 0 0
0 0 0
0 0 0
0 0 0
0 0 0
0 0 0
0 0 0
0 0 0
0 0 0
0 0 0
0 0 0
0 0 0
0 0 0
0 0 0
0 0 0
0 0 0
0 0 0
0 0 0
0 0 0
0 0 0
0 0 0
0 0 0
0 0 0
0 0 0
0 0 0
0 0 0
0 0 0
0 0 0
0 0 0
0 0 0
0 0 0
0 0 0
0 0 0
0 0 0
0 0 0
0 0 0
0 0 0
0 0 0
0 0 0
0 0 0
0 0 0
0 0 0
0 0 0
0 0 0
0 0 0
0 0 0
0 0 0
0 0 0
0 0 0
0 0 0
0 0 0
0 0 0
0 0 0
0 0 0
0 0 0
0 0 0
0 0 0
0 0 0
0 0 0
0 0 0
0 0 0
0 0 0
0 0 0
0 0 0
0 0 0
0 0 0
0 0 0
0 0 0
0 0 0
0 0 0
0 0 0
0 0 0
0 0 0
0 0 0
0 0 0
0 0 0
0 0 0
0 0 0
0 0 0
0 0 0
0 0 0
0 0 0
0 0 0
0 0 0
0 0 0
0 0 0
0 0 0
0 0 0
0 0 0
0 0 0
0 0 0
0 0 0
0 0 0
0 0 0
0 0 0
0 0 0
179 179 179
179 179 179
179 179 179
179 179 179
179 179 179
179 179 179
179 179 179
179 179 179
179 179 179
179 179 179
179 179 179
179 179 179
179 179 179
179 179 179
179 179 179
179 179 179
179 179 179
179 179 179
179 179 179
179 179 179
179 179 179
179 179 179
179 179 179
179 179 179
179 179 179
179 179 179
179 179 179
179 179 179
179 179 179
179 179 179
179 179 179
179 179 179
179 179 179
179 179 179
179 179 179
179 179 179
179 179 179
179 179 179
179 179 179
179 179 179
179 179 179
179 179 179
179 179 179
179 179 179
179 179 179
179 179 179
179 179 179
179 179 179
179 179 179
179 179 179
179 179 179
179 179 179
179 179 179
179 179 179
179 179 179
179 179 179
179 179 179
179 179 179
179 179 179
179 179 179
179 179 179
179 179 179
179 179 179
179 179 179
179 179 179
179 179 179
179 179 179
179 179 179
179 179 179
179 179 179
179 179 179
179 179 179
179 179 179
179 179 179
179 179 179
179 179 179
179 179 179
179 179 179
179 179 179
179 179 179
179 179 179
179 179 179
179 179 179
179 179 179
179 179 179
179 179 179
179 179 179
179 179 179
179 179 179
179 179 179
179 179 179
179 179 179
179 179 179
179 179 179
179 179 179
179 179 179
179 179 179
179 179 179
179 179 179
179 179 179
179 179 179
179 179 179
179 179 179
179 179 179
179 179 179
179 179 179
179 179 179
179 179 179
179 179 179
179 179 179
179 179 179
179 179 179
179 179 179
179 179 179
179 179 179
179 179 179
179 179 179
179 179 179
179 179 179
179 179 179
179 179 179
179 179 179
179 179 179
179 179 179
179 179 179
179 179 179
179 179 179
179 179 179
179 179 179
179 179 179
179 179 179
179 179 179
179 179 179
179 179 179
179 179 179
179 179 179
179 179 179
179 179 179
179 179 179
179 179 179
179 179 179
179 179 179
179 179 179
179 179 179
179 179 179
179 179 179
179 179 179
179 179 179
179 179 179
179 179 179
179 179 179
179 179 179
179 179 179
179 179 179
179 179 179
179 179 179
179 179 179
179 179 179
179 179 179
179 179 179
179 179 179
179 179 179
179 179 179
179 179 179
179 179 179
179 179 179
179 179 179
179 179 179
179 179 179
179 179 179
179 179 179
179 179 179
179 179 179
179 179 179
179 179 179
179 179 179
179 179 179
179 179 179
179 179 179
179 179 179
179 179 179
179 179 179
179 179 179
179 179 179
179 179 179
179 179 179
179 179 179
179 179 179
179 179 179
179 179 179
179 179 179
179 179 179
179 179 179
179 179 179
179 179 179
179 179 179
179 179 179
179 179 179
179 179 179
179 179 179
179 179 179
179 179 179
179 179 179
179 179 179
179 179 179
179 179 179
179 179 179
179 179 179
179 179 179
179 179 179
179 179 179
179 179 179
179 179 179
179 179 179
179 179 179
179 179 179
179 179 179
179 179 179
179 179 179
179 179 179
0 0 0
0 0 0
0 0 0
0 0 0
0 0 0
0 0 0
0 0 0
0 0 0
0 0 0
0 0 0
0 0 0
0 0 0
0 0 0
0 0 0
0 0 0
0 0 0
0 0 0
0 0 0
0 0 0
0 0 0
0 0 0
0 0 0
0 0 0
0 0 0
0 0 0
0 0 0
0 0 0
0 0 0
0 0 0
0 0 0
0 0 0
0 0 0
0 0 0
0 0 0
0 0 0
0 0 0
0 0 0
0 0 0
0 0 0
0 0 0
0 0 0
0 0 0
0 0 0
0 0 0
0 0 0
0 0 0
0 0 0
0 0 0
0 0 0
0 0 0
0 0 0
0 0 0
0 0 0
0 0 0
0 0 0
0 0 0
0 0 0
0 0 0
0 0 0
0 0 0
0 0 0
0 0 0
0 0 0
0 0 0
0 0 0
0 0 0
0 0 0
0 0 0
0 0 0
0 0 0
0 0 0
0 0 0
0 0 0
0 0 0
0 0 0
0 0 0
0 0 0
0 0 0
0 0 0
0 0 0
0 0 0
0 0 0
0 0 0
0 0 0
0 0 0
0 0 0
0 0 0
0 0 0
0 0 0
0 0 0
0 0 0
0 0 0
0 0 0
0 0 0
0 0 0
0 0 0
0 0 0
0 0 0
0 0 0
0 0 0
0 0 0
0 0 0
0 0 0
0 0 0
0 0 0
0 0 0
0 0 0
0 0 0
0 0 0
0 0 0
0 0 0
0 0 0
0 0 0
0 0 0
0 0 0
0 0 0
0 0 0
0 0 0
0 0 0
0 0 0
0 0 0
0 0 0
0 0 0
0 0 0
0 0 0
0 0 0
0 0 0
0 0 0
0 0 0
0 0 0
0 0 0
0 0 0
0 0 0
0 0 0
0 0 0
0 0 0
0 0 0
0 0 0
0 0 0
0 0 0
0 0 0
0 0 0
0 0 0
0 0 0
0 0 0
0 0 0
0 0 0
0 0 0
0 0 0
0 0 0
0 0 0
0 0 0
0 0 0
0 0 0
0 0 0
0 0 0
0 0 0
0 0 0
0 0 0
0 0 0
0 0 0
0 0 0
0 0 0
0 0 0
0 0 0
0 0 0
0 0 0
0 0 0
0 0 0
0 0 0
0 0 0
0 0 0
0 0 0
0 0 0
0 0 0
0 0 0
0 0 0
0 0 0
0 0 0
0 0 0
179 179 179
179 179 179
179 179 179
179 179 179
179 179 179
179 179 179
179 179 179
179 179 179
179 179 179
179 179 179
179 179 179
179 179 179
179 179 179
179 179 179
179 179 179
179 179 179
179 179 179
179 179 179
179 179 179
179 179 179
179 179 179
179 179 179
179 179 179
179 179 179
179 179 179
179 179 179
179 179 179
179 179 179
179 179 179
179 179 179
179 179 179
179 179 179
179 179 179
179 179 179
179 179 179
179 179 179
179 179 179
179 179 179
179 179 179
179 179 179
179 179 179
179 179 179
179 179 179
179 179 179
179 179 179
179 179 179
179 179 179
179 179 179
179 179 179
179 179 179
179 179 179
179 179 179
179 179 179
179 179 179
179 179 179
179 179 179
179 179 179
179 179 179
179 179 179
179 179 179
179 179 179
179 179 179
179 179 179
179 179 179
179 179 179
179 179 179
179 179 179
179 179 179
179 179 179
179 179 179
179 179 179
179 179 179
179 179 179
179 179 179
179 179 179
179 179 179
179 179 179
179 179 179
179 179 179
179 179 179
179 179 179
179 179 179
179 179 179
179 179 179
179 179 179
179 179 179
179 179 179
179 179 179
179 179 179
179 179 179
179 179 179
179 179 179
179 179 179
179 179 179
179 179 179
179 179 179
179 179 179
179 179 179
179 179 179
179 179 179
179 179 179
179 179 179
179 179 179
179 179 179
179 179 179
179 179 179
179 179 179
179 179 179
179 179 179
179 179 179
179 179 179
179 179 179
179 179 179
179 179 179
179 179 179
179 179 179
179 179 179
179 179 179
179 179 179
179 179 179
179 179 179
179 179 179
179 179 179
179 179 179
179 179 179
179 179 179
179 179 179
179 179 179
179 179 179
179 179 179
179 179 179
179 179 179
179 179 179
179 179 179
179 179 179
179 179 179
179 179 179
179 179 179
179 179 179
179 179 179
179 179 179
179 179 179
179 179 179
179 179 179
179 179 179
179 179 179
179 179 179
179 179 179
179 179 179
179 179 179
179 179 179
179 179 179
179 179 179
179 179 179
179 179 179
179 179 179
179 179 179
179 179 179
179 179 179
179 179 179
179 179 179
179 179 179
179 179 179
179 179 179
179 179 179
179 179 179
179 179 179
179 179 179
179 179 179
179 179 179
179 179 179
179 179 179
179 179 179
179 179 179
179 179 179
179 179 179
179 179 179
179 179 179
179 179 179
179 179 179
179 179 179
179 179 179
179 179 179
179 179 179
179 179 179
179 179 179
179 179 179
179 179 179
179 179 179
179 179 179
179 179 179
179 179 179
179 179 179
179 179 179
179 179 179
179 179 179
179 179 179
179 179 179
179 179 179
179 179 179
179 179 179
179 179 179
179 179 179
179 179 179
179 179 179
179 179 179
179 179 179
179 179 179
179 179 179
179 179 179
179 179 179
179 179 179
179 179 179
179 179 179
179 179 179
179 179 179
179 179 179
179 179 179
179 179 179
0 0 0
0 0 0
0 0 0
0 0 0
0 0 0
0 0 0
0 0 0
0 0 0
0 0 0
0 0 0
0 0 0
0 0 0
0 0 0
0 0 0
0 0 0
0 0 0
0 0 0
0 0 0
0 0 0
0 0 0
0 0 0
0 0 0
0 0 0
0 0 0
0 0 0
0 0 0
0 0 0
0 0 0
0 0 0
0 0 0
0 0 0
0 0 0
0 0 0
0 0 0
0 0 0
0 0 0
0 0 0
0 0 0
0 0 0
0 0 0
0 0 0
0 0 0
0 0 0
0 0 0
0 0 0
0 0 0
0 0 0
0 0 0
0 0 0
0 0 0
0 0 0
0 0 0
0 0 0
0 0 0
0 0 0
0 0 0
0 0 0
0 0 0
0 0 0
0 0 0
0 0 0
0 0 0
0 0 0
0 0 0
0 0 0
0 0 0
0 0 0
0 0 0
0 0 0
0 0 0
0 0 0
0 0 0
0 0 0
0 0 0
0 0 0
0 0 0
0 0 0
0 0 0
0 0 0
0 0 0
0 0 0
0 0 0
0 0 0
0 0 0
0 0 0
0 0 0
0 0 0
0 0 0
0 0 0
0 0 0
0 0 0
0 0 0
0 0 0
0 0 0
0 0 0
0 0 0
0 0 0
0 0 0
0 0 0
0 0 0
0 0 0
0 0 0
0 0 0
0 0 0
0 0 0
0 0 0
0 0 0
0 0 0
0 0 0
0 0 0
0 0 0
0 0 0
0 0 0
0 0 0
0 0 0
0 0 0
0 0 0
0 0 0
0 0 0
0 0 0
0 0 0
0 0 0
0 0 0
0 0 0
0 0 0
0 0 0
0 0 0
0 0 0
0 0 0
0 0 0
0 0 0
0 0 0
0 0 0
0 0 0
0 0 0
0 0 0
0 0 0
0 0 0
0 0 0
0 0 0
0 0 0
0 0 0
0 0 0
0 0 0
0 0 0
0 0 0
0 0 0
0 0 0
0 0 0
0 0 0
0 0 0
0 0 0
0 0 0
0 0 0
0 0 0
0 0 0
0 0 0
0 0 0
0 0 0
0 0 0
0 0 0
0 0 0
0 0 0
0 0 0
0 0 0
0 0 0
0 0 0
0 0 0
0 0 0
0 0 0
0 0 0
0 0 0
0 0 0
0 0 0
0 0 0
0 0 0
0 0 0
0 0 0
0 0 0
0 0 0
0 0 0
0 0 0
179 179 179
179 179 179
179 179 179
179 179 179
179 179 179
179 179 179
179 179 179
179 179 179
179 179 179
179 179 179
179 179 179
179 179 179
179 179 179
179 179 179
179 179 179
179 179 179
179 179 179
179 179 179
179 179 179
179 179 179
179 179 179
179 179 179
179 179 179
179 179 179
179 179 179
179 179 179
179 179 179
179 179 179
179 179 179
179 179 179
179 179 179
179 179 179
179 179 179
179 179 179
179 179 179
179 179 179
179 179 179
179 179 179
179 179 179
179 179 179
179 179 179
179 179 179
179 179 179
179 179 179
179 179 179
179 179 179
179 179 179
179 179 179
179 179 179
179 179 179
179 179 179
179 179 179
179 179 179
179 179 179
179 179 179
179 179 179
179 179 179
179 179 179
179 179 179
179 179 179
179 179 179
179 179 179
179 179 179
179 179 179
179 179 179
179 179 179
179 179 179
179 179 179
179 179 179
179 179 179
179 179 179
179 179 179
179 179 179
179 179 179
179 179 179
179 179 179
179 179 179
179 179 179
179 179 179
179 179 179
179 179 179
179 179 179
179 179 179
179 179 179
179 179 179
179 179 179
179 179 179
179 179 179
179 179 179
179 179 179
179 179 179
179 179 179
179 179 179
179 179 179
179 179 179
179 179 179
179 179 179
179 179 179
179 179 179
179 179 179
179 179 179
179 179 179
179 179 179
179 179 179
179 179 179
179 179 179
179 179 179
179 179 179
179 179 179
179 179 179
179 179 179
179 179 179
179 179 179
179 179 179
179 179 179
179 179 179
179 179 179
179 179 179
179 179 179
179 179 179
179 179 179
179 179 179
179 179 179
179 179 179
179 179 179
179 179 179
179 179 179
179 179 179
179 179 179
179 179 179
179 179 179
179 179 179
179 179 179
179 179 179
179 179 179
179 179 179
179 179 179
179 179 179
179 179 179
179 179 179
179 179 179
179 179 179
179 179 179
179 179 179
179 179 179
179 179 179
179 179 179
179 179 179
179 179 179
179 179 179
179 179 179
179 179 179
179 179 179
179 179 179
179 179 179
179 179 179
179 179 179
179 179 179
179 179 179
179 179 179
179 179 179
179 179 179
179 179 179
179 179 179
179 179 179
179 179 179
179 179 179
179 179 179
179 179 179
179 179 179
179 179 179
179 179 179
179 179 179
179 179 179
179 179 179
179 179 179
179 179 179
179 179 179
179 179 179
179 179 179
179 179 179
179 179 179
179 179 179
179 179 179
179 179 179
179 179 179
179 179 179
179 179 179
179 179 179
179 179 179
179 179 179
179 179 179
179 179 179
179 179 179
179 179 179
179 179 179
179 179 179
179 179 179
179 179 179
179 179 179
179 179 179
179 179 179
179 179 179
179 179 179
179 179 179
179 179 179
179 179 179
179 179 179
179 179 179
179 179 179
179 179 179
179 179 179
179 179 179
179 179 179
179 179 179
179 179 179
179 179 179
179 179 179
0 0 0
0 0 0
0 0 0
0 0 0
0 0 0
0 0 0
0 0 0
0 0 0
0 0 0
0 0 0
0 0 0
0 0 0
0 0 0
0 0 0
0 0 0
0 0 0
0 0 0
0 0 0
0 0 0
0 0 0
0 0 0
0 0 0
0 0 0
0 0 0
0 0 0
0 0 0
0 0 0
0 0 0
0 0 0
0 0 0
0 0 0
0 0 0
0 0 0
0 0 0
0 0 0
0 0 0
0 0 0
0 0 0
0 0 0
0 0 0
0 0 0
0 0 0
0 0 0
0 0 0
0 0 0
0 0 0
0 0 0
0 0 0
0 0 0
0 0 0
0 0 0
0 0 0
0 0 0
0 0 0
0 0 0
0 0 0
0 0 0
0 0 0
0 0 0
0 0 0
0 0 0
0 0 0
0 0 0
0 0 0
0 0 0
0 0 0
0 0 0
0 0 0
0 0 0
0 0 0
0 0 0
0 0 0
0 0 0
0 0 0
0 0 0
0 0 0
0 0 0
0 0 0
0 0 0
0 0 0
0 0 0
0 0 0
0 0 0
0 0 0
0 0 0
0 0 0
0 0 0
0 0 0
0 0 0
0 0 0
0 0 0
0 0 0
0 0 0
0 0 0
0 0 0
0 0 0
0 0 0
0 0 0
0 0 0
0 0 0
0 0 0
0 0 0
0 0 0
0 0 0
0 0 0
0 0 0
0 0 0
0 0 0
0 0 0
0 0 0
0 0 0
0 0 0
0 0 0
0 0 0
0 0 0
0 0 0
0 0 0
0 0 0
0 0 0
0 0 0
0 0 0
0 0 0
0 0 0
0 0 0
0 0 0
0 0 0
0 0 0
0 0 0
0 0 0
0 0 0
0 0 0
0 0 0
0 0 0
0 0 0
0 0 0
0 0 0
0 0 0
0 0 0
0 0 0
0 0 0
0 0 0
0 0 0
0 0 0
0 0 0
0 0 0
0 0 0
0 0 0
0 0 0
0 0 0
0 0 0
0 0 0
0 0 0
0 0 0
0 0 0
0 0 0
0 0 0
0 0 0
0 0 0
0 0 0
0 0 0
0 0 0
0 0 0
0 0 0
0 0 0
0 0 0
0 0 0
0 0 0
0 0 0
0 0 0
0 0 0
0 0 0
0 0 0
0 0 0
0 0 0
0 0 0
0 0 0
0 0 0
0 0 0
0 0 0
0 0 0
0 0 0
0 0 0
179 179 179
179 179 179
179 179 179
179 179 179
179 179 179
179 179 179
179 179 179
179 179 179
179 179 179
179 179 179
179 179 179
179 179 179
179 179 179
179 179 179
179 179 179
179 179 179
179 179 179
179 179 179
179 179 179
179 179 179
179 179 179
179 179 179
179 179 179
179 179 179
179 179 179
179 179 179
179 179 179
179 179 179
179 179 179
179 179 179
179 179 179
179 179 179
179 179 179
179 179 179
179 179 179
179 179 179
179 179 179
179 179 179
179 179 179
179 179 179
179 179 179
179 179 179
179 179 179
179 179 179
179 179 179
179 179 179
179 179 179
179 179 179
179 179 179
179 179 179
179 179 179
179 179 179
179 179 179
179 179 179
179 179 179
179 179 179
179 179 179
179 179 179
179 179 179
179 179 179
179 179 179
179 179 179
179 179 179
179 179 179
179 179 179
179 179 179
179 179 179
179 179 179
179 179 179
179 179 179
179 179 179
179 179 179
179 179 179
179 179 179
179 179 179
179 179 179
179 179 179
179 179 179
179 179 179
179 179 179
179 179 179
179 179 179
179 179 179
179 179 179
179 179 179
179 179 179
179 179 179
179 179 179
179 179 179
179 179 179
179 179 179
179 179 179
179 179 179
179 179 179
179 179 179
179 179 179
179 179 179
179 179 179
179 179 179
179 179 179
179 179 179
179 179 179
179 179 179
179 179 179
179 179 179
179 179 179
179 179 179
179 179 179
179 179 179
179 179 179
179 179 179
179 179 179
179 179 179
179 179 179
179 179 179
179 179 179
179 179 179
179 179 179
179 179 179
179 179 179
179 179 179
179 179 179
179 179 179
179 179 179
179 179 179
179 179 179
179 179 179
179 179 179
179 179 179
179 179 179
179 179 179
179 179 179
179 179 179
179 179 179
179 179 179
179 179 179
179 179 179
179 179 179
179 179 179
179 179 179
179 179 179
179 179 179
179 179 179
179 179 179
179 179 179
179 179 179
179 179 179
179 179 179
179 179 179
179 179 179
179 179 179
179 179 179
179 179 179
179 179 179
179 179 179
179 179 179
179 179 179
179 179 179
179 179 179
179 179 179
179 179 179
179 179 179
179 179 179
179 179 179
179 179 179
179 179 179
179 179 179
179 179 179
179 179 179
179 179 179
179 179 179
179 179 179
179 179 179
179 179 179
179 179 179
179 179 179
179 179 179
179 179 179
179 179 179
179 179 179
179 179 179
179 179 179
179 179 179
179 179 179
179 179 179
179 179 179
179 179 179
179 179 179
179 179 179
179 179 179
179 179 179
179 179 179
179 179 179
179 179 179
179 179 179
179 179 179
179 179 179
179 179 179
179 179 179
179 179 179
179 179 179
179 179 179
179 179 179
179 179 179
179 179 179
179 179 179
179 179 179
179 179 179
179 179 179
179 179 179
179 179 179
179 179 179
179 179 179
179 179 179
179 179 179
179 179 179
179 179 179
0 0 0
0 0 0
0 0 0
0 0 0
0 0 0
0 0 0
0 0 0
0 0 0
0 0 0
0 0 0
0 0 0
0 0 0
0 0 0
0 0 0
0 0 0
0 0 0
0 0 0
0 0 0
0 0 0
0 0 0
0 0 0
0 0 0
0 0 0
0 0 0
0 0 0
0 0 0
0 0 0
0 0 0
0 0 0
0 0 0
0 0 0
0 0 0
0 0 0
0 0 0
0 0 0
0 0 0
0 0 0
0 0 0
0 0 0
0 0 0
0 0 0
0 0 0
0 0 0
0 0 0
0 0 0
0 0 0
0 0 0
0 0 0
0 0 0
0 0 0
0 0 0
0 0 0
0 0 0
0 0 0
0 0 0
0 0 0
0 0 0
0 0 0
0 0 0
0 0 0
0 0 0
0 0 0
0 0 0
0 0 0
0 0 0
0 0 0
0 0 0
0 0 0
0 0 0
0 0 0
0 0 0
0 0 0
0 0 0
0 0 0
0 0 0
0 0 0
0 0 0
0 0 0
0 0 0
0 0 0
0 0 0
0 0 0
0 0 0
0 0 0
0 0 0
0 0 0
0 0 0
0 0 0
0 0 0
0 0 0
0 0 0
0 0 0
0 0 0
0 0 0
0 0 0
0 0 0
0 0 0
0 0 0
0 0 0
0 0 0
0 0 0
0 0 0
0 0 0
0 0 0
0 0 0
0 0 0
0 0 0
0 0 0
0 0 0
0 0 0
0 0 0
0 0 0
0 0 0
0 0 0
0 0 0
0 0 0
0 0 0
0 0 0
0 0 0
0 0 0
0 0 0
0 0 0
0 0 0
0 0 0
0 0 0
0 0 0
0 0 0
0 0 0
0 0 0
0 0 0
0 0 0
0 0 0
0 0 0
0 0 0
0 0 0
0 0 0
0 0 0
0 0 0
0 0 0
0 0 0
0 0 0
0 0 0
0 0 0
0 0 0
0 0 0
0 0 0
0 0 0
0 0 0
0 0 0
0 0 0
0 0 0
0 0 0
0 0 0
0 0 0
0 0 0
0 0 0
0 0 0
0 0 0
0 0 0
0 0 0
0 0 0
0 0 0
0 0 0
0 0 0
0 0 0
0 0 0
0 0 0
0 0 0
0 0 0
0 0 0
0 0 0
0 0 0
0 0 0
0 0 0
0 0 0
0 0 0
0 0 0
0 0 0
0 0 0
0 0 0
0 0 0
0 0 0
0 0 0
0 0 0
179 179 179
179 179 179
179 179 179
179 179 179
179 179 179
179 179 179
179 179 179
179 179 179
179 179 179
179 179 179
179 179 179
179 179 179
179 179 179
179 179 179
179 179 179
179 179 179
179 179 179
179 179 179
179 179 179
179 179 179
179 179 179
179 179 179
179 179 179
179 179 179
179 179 179
179 179 179
179 179 179
179 179 179
179 179 179
179 179 179
179 179 179
179 179 179
179 179 179
179 179 179
179 179 179
179 179 179
179 179 179
179 179 179
179 179 179
179 179 179
179 179 179
179 179 179
179 179 179
179 179 179
179 179 179
179 179 179
179 179 179
179 179 179
179 179 179
179 179 179
179 179 179
179 179 179
179 179 179
179 179 179
179 179 179
179 179 179
179 179 179
179 179 179
179 179 179
179 179 179
179 179 179
179 179 179
179 179 179
179 179 179
179 179 179
179 179 179
179 179 179
179 179 179
179 179 179
179 179 179
179 179 179
179 179 179
179 179 179
179 179 179
179 179 179
179 179 179
179 179 179
179 179 179
179 179 179
179 179 179
179 179 179
179 179 179
179 179 179
179 179 179
179 179 179
179 179 179
179 179 179
179 179 179
179 179 179
179 179 179
179 179 179
179 179 179
179 179 179
179 179 179
179 179 179
179 179 179
179 179 179
179 179 179
179 179 179
179 179 179
179 179 179
179 179 179
179 179 179
179 179 179
179 179 179
179 179 179
179 179 179
179 179 179
179 179 179
179 179 179
179 179 179
179 179 179
179 179 179
179 179 179
179 179 179
179 179 179
179 179 179
179 179 179
179 179 179
179 179 179
179 179 179
179 179 179
179 179 179
179 179 179
179 179 179
179 179 179
179 179 179
179 179 179
179 179 179
179 179 179
179 179 179
179 179 179
179 179 179
179 179 179
179 179 179
179 179 179
179 179 179
179 179 179
179 179 179
179 179 179
179 179 179
179 179 179
179 179 179
179 179 179
179 179 179
179 179 179
179 179 179
179 179 179
179 179 179
179 179 179
179 179 179
179 179 179
179 179 179
179 179 179
179 179 179
179 179 179
179 179 179
179 179 179
179 179 179
179 179 179
179 179 179
179 179 179
179 179 179
179 179 179
179 179 179
179 179 179
179 179 179
179 179 179
179 179 179
179 179 179
179 179 179
179 179 179
179 179 179
179 179 179
179 179 179
179 179 179
179 179 179
179 179 179
179 179 179
179 179 179
179 179 179
179 179 179
179 179 179
179 179 179
179 179 179
179 179 179
179 179 179
179 179 179
179 179 179
179 179 179
179 179 179
179 179 179
179 179 179
179 179 179
179 179 179
179 179 179
179 179 179
179 179 179
179 179 179
179 179 179
179 179 179
179 179 179
179 179 179
179 179 179
179 179 179
179 179 179
179 179 179
179 179 179
179 179 179
179 179 179
179 179 179
179 179 179
179 179 179
179 179 179
179 179 179
0 0 0
0 0 0
0 0 0
0 0 0
0 0 0
0 0 0
0 0 0
0 0 0
0 0 0
0 0 0
0 0 0
0 0 0
0 0 0
0 0 0
0 0 0
0 0 0
0 0 0
0 0 0
0 0 0
0 0 0
0 0 0
0 0 0
0 0 0
0 0 0
0 0 0
0 0 0
0 0 0
0 0 0
0 0 0
0 0 0
0 0 0
0 0 0
0 0 0
0 0 0
0 0 0
0 0 0
0 0 0
0 0 0
0 0 0
0 0 0
0 0 0
0 0 0
0 0 0
0 0 0
0 0 0
0 0 0
0 0 0
0 0 0
0 0 0
0 0 0
0 0 0
0 0 0
0 0 0
0 0 0
0 0 0
0 0 0
0 0 0
0 0 0
0 0 0
0 0 0
0 0 0
0 0 0
0 0 0
0 0 0
0 0 0
0 0 0
0 0 0
0 0 0
0 0 0
0 0 0
0 0 0
0 0 0
0 0 0
0 0 0
0 0 0
0 0 0
0 0 0
0 0 0
0 0 0
0 0 0
0 0 0
0 0 0
0 0 0
0 0 0
0 0 0
0 0 0
0 0 0
0 0 0
0 0 0
0 0 0
0 0 0
0 0 0
0 0 0
0 0 0
0 0 0
0 0 0
0 0 0
0 0 0
0 0 0
0 0 0
0 0 0
0 0 0
0 0 0
0 0 0
0 0 0
0 0 0
0 0 0
0 0 0
0 0 0
0 0 0
0 0 0
0 0 0
0 0 0
0 0 0
0 0 0
0 0 0
0 0 0
0 0 0
0 0 0
0 0 0
0 0 0
0 0 0
0 0 0
0 0 0
0 0 0
0 0 0
0 0 0
0 0 0
0 0 0
0 0 0
0 0 0
0 0 0
0 0 0
0 0 0
0 0 0
0 0 0
0 0 0
0 0 0
0 0 0
0 0 0
0 0 0
0 0 0
0 0 0
0 0 0
0 0 0
0 0 0
0 0 0
0 0 0
0 0 0
0 0 0
0 0 0
0 0 0
0 0 0
0 0 0
0 0 0
0 0 0
0 0 0
0 0 0
0 0 0
0 0 0
0 0 0
0 0 0
0 0 0
0 0 0
0 0 0
0 0 0
0 0 0
0 0 0
0 0 0
0 0 0
0 0 0
0 0 0
0 0 0
0 0 0
0 0 0
0 0 0
0 0 0
0 0 0
0 0 0
0 0 0
0 0 0
0 0 0
0 0 0
0 0 0
0 0 0
0 0 0
179 179 179
179 179 179
179 179 179
179 179 179
179 179 179
179 179 179
179 179 179
179 179 179
179 179 179
179 179 179
179 179 179
179 179 179
179 179 179
179 179 179
179 179 179
179 179 179
179 179 179
179 179 179
179 179 179
179 179 179
179 179 179
179 179 179
179 179 179
179 179 179
179 179 179
179 179 179
179 179 179
179 179 179
179 179 179
179 179 179
179 179 179
179 179 179
179 179 179
179 179 179
179 179 179
179 179 179
179 179 179
179 179 179
179 179 179
179 179 179
179 179 179
179 179 179
179 179 179
179 179 179
179 179 179
179 179 179
179 179 179
179 179 179
179 179 179
179 179 179
179 179 179
179 179 179
179 179 179
179 179 179
179 179 179
179 179 179
179 179 179
179 179 179
179 179 179
179 179 179
179 179 179
179 179 179
179 179 179
179 179 179
179 179 179
179 179 179
179 179 179
179 179 179
179 179 179
179 179 179
179 179 179
179 179 179
179 179 179
179 179 179
179 179 179
179 179 179
179 179 179
179 179 179
179 179 179
179 179 179
179 179 179
179 179 179
179 179 179
179 179 179
179 179 179
179 179 179
179 179 179
179 179 179
179 179 179
179 179 179
179 179 179
179 179 179
179 179 179
179 179 179
179 179 179
179 179 179
179 179 179
179 179 179
179 179 179
179 179 179
179 179 179
179 179 179
179 179 179
179 179 179
179 179 179
179 179 179
179 179 179
179 179 179
179 179 179
179 179 179
179 179 179
179 179 179
179 179 179
179 179 179
179 179 179
179 179 179
179 179 179
179 179 179
179 179 179
179 179 179
179 179 179
179 179 179
179 179 179
179 179 179
179 179 179
179 179 179
179 179 179
179 179 179
179 179 179
179 179 179
179 179 179
179 179 179
179 179 179
179 179 179
179 179 179
179 179 179
179 179 179
179 179 179
179 179 179
179 179 179
179 179 179
179 179 179
179 179 179
179 179 179
179 179 179
179 179 179
179 179 179
179 179 179
179 179 179
179 179 179
179 179 179
179 179 179
179 179 179
179 179 179
179 179 179
179 179 179
179 179 179
179 179 179
179 179 179
179 179 179
179 179 179
179 179 179
179 179 179
179 179 179
179 179 179
179 179 179
179 179 179
179 179 179
179 179 179
179 179 179
179 179 179
179 179 179
179 179 179
179 179 179
179 179 179
179 179 179
179 179 179
179 179 179
179 179 179
179 179 179
179 179 179
179 179 179
179 179 179
179 179 179
179 179 179
179 179 179
179 179 179
179 179 179
179 179 179
179 179 179
179 179 179
179 179 179
179 179 179
179 179 179
179 179 179
179 179 179
179 179 179
179 179 179
179 179 179
179 179 179
179 179 179
179 179 179
179 179 179
179 179 179
179 179 179
179 179 179
179 179 179
179 179 179
179 179 179
179 179 179
179 179 179
179 179 179
179 179 179
179 179 179
0 0 0
0 0 0
0 0 0
0 0 0
0 0 0
0 0 0
0 0 0
0 0 0
0 0 0
0 0 0
0 0 0
0 0 0
0 0 0
0 0 0
0 0 0
0 0 0
0 0 0
0 0 0
0 0 0
0 0 0
0 0 0
0 0 0
0 0 0
0 0 0
0 0 0
0 0 0
0 0 0
0 0 0
0 0 0
0 0 0
0 0 0
0 0 0
0 0 0
0 0 0
0 0 0
0 0 0
0 0 0
0 0 0
0 0 0
0 0 0
0 0 0
0 0 0
0 0 0
0 0 0
0 0 0
0 0 0
0 0 0
0 0 0
0 0 0
0 0 0
0 0 0
0 0 0
0 0 0
0 0 0
0 0 0
0 0 0
0 0 0
0 0 0
0 0 0
0 0 0
0 0 0
0 0 0
0 0 0
0 0 0
0 0 0
0 0 0
0 0 0
0 0 0
0 0 0
0 0 0
0 0 0
0 0 0
0 0 0
0 0 0
0 0 0
0 0 0
0 0 0
0 0 0
0 0 0
0 0 0
0 0 0
0 0 0
0 0 0
0 0 0
0 0 0
0 0 0
0 0 0
0 0 0
0 0 0
0 0 0
0 0 0
0 0 0
0 0 0
0 0 0
0 0 0
0 0 0
0 0 0
0 0 0
0 0 0
0 0 0
0 0 0
0 0 0
0 0 0
0 0 0
0 0 0
0 0 0
0 0 0
0 0 0
0 0 0
0 0 0
0 0 0
0 0 0
0 0 0
0 0 0
0 0 0
0 0 0
0 0 0
0 0 0
0 0 0
0 0 0
0 0 0
0 0 0
0 0 0
0 0 0
0 0 0
0 0 0
0 0 0
0 0 0
0 0 0
0 0 0
0 0 0
0 0 0
0 0 0
0 0 0
0 0 0
0 0 0
0 0 0
0 0 0
0 0 0
0 0 0
0 0 0
0 0 0
0 0 0
0 0 0
0 0 0
0 0 0
0 0 0
0 0 0
0 0 0
0 0 0
0 0 0
0 0 0
0 0 0
0 0 0
0 0 0
0 0 0
0 0 0
0 0 0
0 0 0
0 0 0
0 0 0
0 0 0
0 0 0
0 0 0
0 0 0
0 0 0
0 0 0
0 0 0
0 0 0
0 0 0
0 0 0
0 0 0
0 0 0
0 0 0
0 0 0
0 0 0
0 0 0
0 0 0
0 0 0
0 0 0
0 0 0
0 0 0
0 0 0
0 0 0
0 0 0
0 0 0
179 179 179
179 179 179
179 179 179
179 179 179
179 179 179
179 179 179
179 179 179
179 179 179
179 179 179
179 179 179
179 179 179
179 179 179
179 179 179
179 179 179
179 179 179
179 179 179
179 179 179
179 179 179
179 179 179
179 179 179
179 179 179
179 179 179
179 179 179
179 179 179
179 179 179
179 179 179
179 179 179
179 179 179
179 179 179
179 179 179
179 179 179
179 179 179
179 179 179
179 179 179
179 179 179
179 179 179
179 179 179
179 179 179
179 179 179
179 179 179
179 179 179
179 179 179
179 179 179
179 179 179
179 179 179
179 179 179
179 179 179
179 179 179
179 179 179
179 179 179
179 179 179
179 179 179
179 179 179
179 179 179
179 179 179
179 179 179
179 179 179
179 179 179
179 179 179
179 179 179
179 179 179
179 179 179
179 179 179
179 179 179
179 179 179
179 179 179
179 179 179
179 179 179
179 179 179
179 179 179
179 179 179
179 179 179
179 179 179
179 179 179
179 179 179
179 179 179
179 179 179
179 179 179
179 179 179
179 179 179
179 179 179
179 179 179
179 179 179
179 179 179
179 179 179
179 179 179
179 179 179
179 179 179
179 179 179
179 179 179
179 179 179
179 179 179
179 179 179
179 179 179
179 179 179
179 179 179
179 179 179
179 179 179
179 179 179
179 179 179
179 179 179
179 179 179
179 179 179
179 179 179
179 179 179
179 179 179
179 179 179
179 179 179
179 179 179
179 179 179
179 179 179
179 179 179
179 179 179
179 179 179
179 179 179
179 179 179
179 179 179
179 179 179
179 179 179
179 179 179
179 179 179
179 179 179
179 179 179
179 179 179
179 179 179
179 179 179
179 179 179
179 179 179
179 179 179
179 179 179
179 179 179
179 179 179
179 179 179
179 179 179
179 179 179
179 179 179
179 179 179
179 179 179
179 179 179
179 179 179
179 179 179
179 179 179
179 179 179
179 179 179
179 179 179
179 179 179
179 179 179
179 179 179
179 179 179
179 179 179
179 179 179
179 179 179
179 179 179
179 179 179
179 179 179
179 179 179
179 179 179
179 179 179
179 179 179
179 179 179
179 179 179
179 179 179
179 179 179
179 179 179
179 179 179
179 179 179
179 179 179
179 179 179
179 179 179
179 179 179
179 179 179
179 179 179
179 179 179
179 179 179
179 179 179
179 179 179
179 179 179
179 179 179
179 179 179
179 179 179
179 179 179
179 179 179
179 179 179
179 179 179
179 179 179
179 179 179
179 179 179
179 179 179
179 179 179
179 179 179
179 179 179
179 179 179
179 179 179
179 179 179
179 179 179
179 179 179
179 179 179
179 179 179
179 179 179
179 179 179
179 179 179
179 179 179
179 179 179
179 179 179
179 179 179
179 179 179
179 179 179
179 179 179
179 179 179
179 179 179
179 179 179
179 179 179
179 179 179
0 0 0
0 0 0
0 0 0
0 0 0
0 0 0
0 0 0
0 0 0
0 0 0
0 0 0
0 0 0
0 0 0
0 0 0
0 0 0
0 0 0
0 0 0
0 0 0
0 0 0
0 0 0
0 0 0
0 0 0
0 0 0
0 0 0
0 0 0
0 0 0
0 0 0
0 0 0
0 0 0
0 0 0
0 0 0
0 0 0
0 0 0
0 0 0
0 0 0
0 0 0
0 0 0
0 0 0
0 0 0
0 0 0
0 0 0
0 0 0
0 0 0
0 0 0
0 0 0
0 0 0
0 0 0
0 0 0
0 0 0
0 0 0
0 0 0
0 0 0
0 0 0
0 0 0
0 0 0
0 0 0
0 0 0
0 0 0
0 0 0
0 0 0
0 0 0
0 0 0
0 0 0
0 0 0
0 0 0
0 0 0
0 0 0
0 0 0
0 0 0
0 0 0
0 0 0
0 0 0
0 0 0
0 0 0
0 0 0
0 0 0
0 0 0
0 0 0
0 0 0
0 0 0
0 0 0
0 0 0
0 0 0
0 0 0
0 0 0
0 0 0
0 0 0
0 0 0
0 0 0
0 0 0
0 0 0
0 0 0
0 0 0
0 0 0
0 0 0
0 0 0
0 0 0
0 0 0
0 0 0
0 0 0
0 0 0
0 0 0
0 0 0
0 0 0
0 0 0
0 0 0
0 0 0
0 0 0
0 0 0
0 0 0
0 0 0
0 0 0
0 0 0
0 0 0
0 0 0
0 0 0
0 0 0
0 0 0
0 0 0
0 0 0
0 0 0
0 0 0
0 0 0
0 0 0
0 0 0
0 0 0
0 0 0
0 0 0
0 0 0
0 0 0
0 0 0
0 0 0
0 0 0
0 0 0
0 0 0
0 0 0
0 0 0
0 0 0
0 0 0
0 0 0
0 0 0
0 0 0
0 0 0
0 0 0
0 0 0
0 0 0
0 0 0
0 0 0
0 0 0
0 0 0
0 0 0
0 0 0
0 0 0
0 0 0
0 0 0
0 0 0
0 0 0
0 0 0
0 0 0
0 0 0
0 0 0
0 0 0
0 0 0
0 0 0
0 0 0
0 0 0
0 0 0
0 0 0
0 0 0
0 0 0
0 0 0
0 0 0
0 0 0
0 0 0
0 0 0
0 0 0
0 0 0
0 0 0
0 0 0
0 0 0
0 0 0
0 0 0
0 0 0
0 0 0
0 0 0
0 0 0
0 0 0
0 0 0
0 0 0
0 0 0
179 179 179
179 179 179
179 179 179
179 179 179
179 179 179
179 179 179
179 179 179
179 179 179
179 179 179
179 179 179
179 179 179
179 179 179
179 179 179
179 179 179
179 179 179
179 179 179
179 179 179
179 179 179
179 179 179
179 179 179
179 179 179
179 179 179
179 179 179
179 179 179
179 179 179
179 179 179
179 179 179
179 179 179
179 179 179
179 179 179
179 179 179
179 179 179
179 179 179
179 179 179
179 179 179
179 179 179
179 179 179
179 179 179
179 179 179
179 179 179
179 179 179
179 179 179
179 179 179
179 179 179
179 179 179
179 179 179
179 179 179
179 179 179
179 179 179
179 179 179
179 179 179
179 179 179
179 179 179
179 179 179
179 179 179
179 179 179
179 179 179
179 179 179
179 179 179
179 179 179
179 179 179
179 179 179
179 179 179
179 179 179
179 179 179
179 179 179
179 179 179
179 179 179
179 179 179
179 179 179
179 179 179
179 179 179
179 179 179
179 179 179
179 179 179
179 179 179
179 179 179
179 179 179
179 179 179
179 179 179
179 179 179
179 179 179
179 179 179
179 179 179
179 179 179
179 179 179
179 179 179
179 179 179
179 179 179
179 179 179
179 179 179
179 179 179
179 179 179
179 179 179
179 179 179
179 179 179
179 179 179
179 179 179
179 179 179
179 179 179
179 179 179
179 179 179
179 179 179
179 179 179
179 179 179
179 179 179
179 179 179
179 179 179
179 179 179
179 179 179
179 179 179
179 179 179
179 179 179
179 179 179
179 179 179
179 179 179
179 179 179
179 179 179
179 179 179
179 179 179
179 179 179
179 179 179
179 179 179
179 179 179
179 179 179
179 179 179
179 179 179
179 179 179
179 179 179
179 179 179
179 179 179
179 179 179
179 179 179
179 179 179
179 179 179
179 179 179
179 179 179
179 179 179
179 179 179
179 179 179
179 179 179
179 179 179
179 179 179
179 179 179
179 179 179
179 179 179
179 179 179
179 179 179
179 179 179
179 179 179
179 179 179
179 179 179
179 179 179
179 179 179
179 179 179
179 179 179
179 179 179
179 179 179
179 179 179
179 179 179
179 179 179
179 179 179
179 179 179
179 179 179
179 179 179
179 179 179
179 179 179
179 179 179
179 179 179
179 179 179
179 179 179
179 179 179
179 179 179
179 179 179
179 179 179
179 179 179
179 179 179
179 179 179
179 179 179
179 179 179
179 179 179
179 179 179
179 179 179
179 179 179
179 179 179
179 179 179
179 179 179
179 179 179
179 179 179
179 179 179
179 179 179
179 179 179
179 179 179
179 179 179
179 179 179
179 179 179
179 179 179
179 179 179
179 179 179
179 179 179
179 179 179
179 179 179
179 179 179
179 179 179
179 179 179
179 179 179
179 179 179
179 179 179
179 179 179
179 179 179
179 179 179
179 179 179
0 0 0
0 0 0
0 0 0
0 0 0
0 0 0
0 0 0
0 0 0
0 0 0
0 0 0
0 0 0
0 0 0
0 0 0
0 0 0
0 0 0
0 0 0
0 0 0
0 0 0
0 0 0
0 0 0
0 0 0
0 0 0
0 0 0
0 0 0
0 0 0
0 0 0
0 0 0
0 0 0
0 0 0
0 0 0
0 0 0
0 0 0
0 0 0
0 0 0
0 0 0
0 0 0
0 0 0
0 0 0
0 0 0
0 0 0
0 0 0
0 0 0
0 0 0
0 0 0
0 0 0
0 0 0
0 0 0
0 0 0
0 0 0
0 0 0
0 0 0
0 0 0
0 0 0
0 0 0
0 0 0
0 0 0
0 0 0
0 0 0
0 0 0
0 0 0
0 0 0
0 0 0
0 0 0
0 0 0
0 0 0
0 0 0
0 0 0
0 0 0
0 0 0
0 0 0
0 0 0
0 0 0
0 0 0
0 0 0
0 0 0
0 0 0
0 0 0
0 0 0
0 0 0
0 0 0
0 0 0
0 0 0
0 0 0
0 0 0
0 0 0
0 0 0
0 0 0
0 0 0
0 0 0
0 0 0
0 0 0
0 0 0
0 0 0
0 0 0
0 0 0
0 0 0
0 0 0
0 0 0
0 0 0
0 0 0
0 0 0
0 0 0
0 0 0
0 0 0
0 0 0
0 0 0
0 0 0
0 0 0
0 0 0
0 0 0
0 0 0
0 0 0
0 0 0
0 0 0
0 0 0
0 0 0
0 0 0
0 0 0
0 0 0
0 0 0
0 0 0
0 0 0
0 0 0
0 0 0
0 0 0
0 0 0
0 0 0
0 0 0
0 0 0
0 0 0
0 0 0
0 0 0
0 0 0
0 0 0
0 0 0
0 0 0
0 0 0
0 0 0
0 0 0
0 0 0
0 0 0
0 0 0
0 0 0
0 0 0
0 0 0
0 0 0
0 0 0
0 0 0
0 0 0
0 0 0
0 0 0
0 0 0
0 0 0
0 0 0
0 0 0
0 0 0
0 0 0
0 0 0
0 0 0
0 0 0
0 0 0
0 0 0
0 0 0
0 0 0
0 0 0
0 0 0
0 0 0
0 0 0
0 0 0
0 0 0
0 0 0
0 0 0
0 0 0
0 0 0
0 0 0
0 0 0
0 0 0
0 0 0
0 0 0
0 0 0
0 0 0
0 0 0
0 0 0
0 0 0
0 0 0
0 0 0
0 0 0
0 0 0
0 0 0
179 179 179
179 179 179
179 179 179
179 179 179
179 179 179
179 179 179
179 179 179
179 179 179
179 179 179
179 179 179
179 179 179
179 179 179
179 179 179
179 179 179
179 179 179
179 179 179
179 179 179
179 179 179
179 179 179
179 179 179
179 179 179
179 179 179
179 179 179
179 179 179
179 179 179
179 179 179
179 179 179
179 179 179
179 179 179
179 179 179
179 179 179
179 179 179
179 179 179
179 179 179
179 179 179
179 179 179
179 179 179
179 179 179
179 179 179
179 179 179
179 179 179
179 179 179
179 179 179
179 179 179
179 179 179
179 179 179
179 179 179
179 179 179
179 179 179
179 179 179
179 179 179
179 179 179
179 179 179
179 179 179
179 179 179
179 179 179
179 179 179
179 179 179
179 179 179
179 179 179
179 179 179
179 179 179
179 179 179
179 179 179
179 179 179
179 179 179
179 179 179
179 179 179
179 179 179
179 179 179
179 179 179
179 179 179
179 179 179
179 179 179
179 179 179
179 179 179
179 179 179
179 179 179
179 179 179
179 179 179
179 179 179
179 179 179
179 179 179
179 179 179
179 179 179
179 179 179
179 179 179
179 179 179
179 179 179
179 179 179
179 179 179
179 179 179
179 179 179
179 179 179
179 179 179
179 179 179
179 179 179
179 179 179
179 179 179
179 179 179
179 179 179
179 179 179
179 179 179
179 179 179
179 179 179
179 179 179
179 179 179
179 179 179
179 179 179
179 179 179
179 179 179
179 179 179
179 179 179
179 179 179
179 179 179
179 179 179
179 179 179
179 179 179
179 179 179
179 179 179
179 179 179
179 179 179
179 179 179
179 179 179
179 179 179
179 179 179
179 179 179
179 179 179
179 179 179
179 179 179
179 179 179
179 179 179
179 179 179
179 179 179
179 179 179
179 179 179
179 179 179
179 179 179
179 179 179
179 179 179
179 179 179
179 179 179
179 179 179
179 179 179
179 179 179
179 179 179
179 179 179
179 179 179
179 179 179
179 179 179
179 179 179
179 179 179
179 179 179
179 179 179
179 179 179
179 179 179
179 179 179
179 179 179
179 179 179
179 179 179
179 179 179
179 179 179
179 179 179
179 179 179
179 179 179
179 179 179
179 179 179
179 179 179
179 179 179
179 179 179
179 179 179
179 179 179
179 179 179
179 179 179
179 179 179
179 179 179
179 179 179
179 179 179
179 179 179
179 179 179
179 179 179
179 179 179
179 179 179
179 179 179
179 179 179
179 179 179
179 179 179
179 179 179
179 179 179
179 179 179
179 179 179
179 179 179
179 179 179
179 179 179
179 179 179
179 179 179
179 179 179
179 179 179
179 179 179
179 179 179
179 179 179
179 179 179
179 179 179
179 179 179
179 179 179
179 179 179
179 179 179
179 179 179
179 179 179
179 179 179
179 179 179
0 0 0
0 0 0
0 0 0
0 0 0
0 0 0
0 0 0
0 0 0
0 0 0
0 0 0
0 0 0
0 0 0
0 0 0
0 0 0
0 0 0
0 0 0
0 0 0
0 0 0
0 0 0
0 0 0
0 0 0
0 0 0
0 0 0
0 0 0
0 0 0
0 0 0
0 0 0
0 0 0
0 0 0
0 0 0
0 0 0
0 0 0
0 0 0
0 0 0
0 0 0
0 0 0
0 0 0
0 0 0
0 0 0
0 0 0
0 0 0
0 0 0
0 0 0
0 0 0
0 0 0
0 0 0
0 0 0
0 0 0
0 0 0
0 0 0
0 0 0
0 0 0
0 0 0
0 0 0
0 0 0
0 0 0
0 0 0
0 0 0
0 0 0
0 0 0
0 0 0
0 0 0
0 0 0
0 0 0
0 0 0
0 0 0
0 0 0
0 0 0
0 0 0
0 0 0
0 0 0
0 0 0
0 0 0
0 0 0
0 0 0
0 0 0
0 0 0
0 0 0
0 0 0
0 0 0
0 0 0
0 0 0
0 0 0
0 0 0
0 0 0
0 0 0
0 0 0
0 0 0
0 0 0
0 0 0
0 0 0
0 0 0
0 0 0
0 0 0
0 0 0
0 0 0
0 0 0
0 0 0
0 0 0
0 0 0
0 0 0
0 0 0
0 0 0
0 0 0
0 0 0
0 0 0
0 0 0
0 0 0
0 0 0
0 0 0
0 0 0
0 0 0
0 0 0
0 0 0
0 0 0
0 0 0
0 0 0
0 0 0
0 0 0
0 0 0
0 0 0
0 0 0
0 0 0
0 0 0
0 0 0
0 0 0
0 0 0
0 0 0
0 0 0
0 0 0
0 0 0
0 0 0
0 0 0
0 0 0
0 0 0
0 0 0
0 0 0
0 0 0
0 0 0
0 0 0
0 0 0
0 0 0
0 0 0
0 0 0
0 0 0
0 0 0
0 0 0
0 0 0
0 0 0
0 0 0
0 0 0
0 0 0
0 0 0
0 0 0
0 0 0
0 0 0
0 0 0
0 0 0
0 0 0
0 0 0
0 0 0
0 0 0
0 0 0
0 0 0
0 0 0
0 0 0
0 0 0
0 0 0
0 0 0
0 0 0
0 0 0
0 0 0
0 0 0
0 0 0
0 0 0
0 0 0
0 0 0
0 0 0
0 0 0
0 0 0
0 0 0
0 0 0
0 0 0
0 0 0
0 0 0
0 0 0
0 0 0
0 0 0
0 0 0
0 0 0
0 0 0
179 179 179
179 179 179
179 179 179
179 179 179
179 179 179
179 179 179
179 179 179
179 179 179
179 179 179
179 179 179
179 179 179
179 179 179
179 179 179
179 179 179
179 179 179
179 179 179
179 179 179
179 179 179
179 179 179
179 179 179
179 179 179
179 179 179
179 179 179
179 179 179
179 179 179
179 179 179
179 179 179
179 179 179
179 179 179
179 179 179
179 179 179
179 179 179
179 179 179
179 179 179
179 179 179
179 179 179
179 179 179
179 179 179
179 179 179
179 179 179
179 179 179
179 179 179
179 179 179
179 179 179
179 179 179
179 179 179
179 179 179
179 179 179
179 179 179
179 179 179
179 179 179
179 179 179
179 179 179
179 179 179
179 179 179
179 179 179
179 179 179
179 179 179
179 179 179
179 179 179
179 179 179
179 179 179
179 179 179
179 179 179
179 179 179
179 179 179
179 179 179
179 179 179
179 179 179
179 179 179
179 179 179
179 179 179
179 179 179
179 179 179
179 179 179
179 179 179
179 179 179
179 179 179
179 179 179
179 179 179
179 179 179
179 179 179
179 179 179
179 179 179
179 179 179
179 179 179
179 179 179
179 179 179
179 179 179
179 179 179
179 179 179
179 179 179
179 179 179
179 179 179
179 179 179
179 179 179
179 179 179
179 179 179
179 179 179
179 179 179
179 179 179
179 179 179
179 179 179
179 179 179
179 179 179
179 179 179
179 179 179
179 179 179
179 179 179
179 179 179
179 179 179
179 179 179
179 179 179
179 179 179
179 179 179
179 179 179
179 179 179
179 179 179
179 179 179
179 179 179
179 179 179
179 179 179
179 179 179
179 179 179
179 179 179
179 179 179
179 179 179
179 179 179
179 179 179
179 179 179
179 179 179
179 179 179
179 179 179
179 179 179
179 179 179
179 179 179
179 179 179
179 179 179
179 179 179
179 179 179
179 179 179
179 179 179
179 179 179
179 179 179
179 179 179
179 179 179
179 179 179
179 179 179
179 179 179
179 179 179
179 179 179
179 179 179
179 179 179
179 179 179
179 179 179
179 179 179
179 179 179
179 179 179
179 179 179
179 179 179
179 179 179
179 179 179
179 179 179
179 179 179
179 179 179
179 179 179
179 179 179
179 179 179
179 179 179
179 179 179
179 179 179
179 179 179
179 179 179
179 179 179
179 179 179
179 179 179
179 179 179
179 179 179
179 179 179
179 179 179
179 179 179
179 179 179
179 179 179
179 179 179
179 179 179
179 179 179
179 179 179
179 179 179
179 179 179
179 179 179
179 179 179
179 179 179
179 179 179
179 179 179
179 179 179
179 179 179
179 179 179
179 179 179
179 179 179
179 179 179
179 179 179
179 179 179
179 179 179
179 179 179
179 179 179
179 179 179
179 179 179
179 179 179
179 179 179
179 179 179
0 0 0
0 0 0
0 0 0
0 0 0
0 0 0
0 0 0
0 0 0
0 0 0
0 0 0
0 0 0
0 0 0
0 0 0
0 0 0
0 0 0
0 0 0
0 0 0
0 0 0
0 0 0
0 0 0
0 0 0
0 0 0
0 0 0
0 0 0
0 0 0
0 0 0
0 0 0
0 0 0
0 0 0
0 0 0
0 0 0
0 0 0
0 0 0
0 0 0
0 0 0
0 0 0
0 0 0
0 0 0
0 0 0
0 0 0
0 0 0
0 0 0
0 0 0
0 0 0
0 0 0
0 0 0
0 0 0
0 0 0
0 0 0
0 0 0
0 0 0
0 0 0
0 0 0
0 0 0
0 0 0
0 0 0
0 0 0
0 0 0
0 0 0
0 0 0
0 0 0
0 0 0
0 0 0
0 0 0
0 0 0
0 0 0
0 0 0
0 0 0
0 0 0
0 0 0
0 0 0
0 0 0
0 0 0
0 0 0
0 0 0
0 0 0
0 0 0
0 0 0
0 0 0
0 0 0
0 0 0
0 0 0
0 0 0
0 0 0
0 0 0
0 0 0
0 0 0
0 0 0
0 0 0
0 0 0
0 0 0
0 0 0
0 0 0
0 0 0
0 0 0
0 0 0
0 0 0
0 0 0
0 0 0
0 0 0
0 0 0
0 0 0
0 0 0
0 0 0
0 0 0
0 0 0
0 0 0
0 0 0
0 0 0
0 0 0
0 0 0
0 0 0
0 0 0
0 0 0
0 0 0
0 0 0
0 0 0
0 0 0
0 0 0
0 0 0
0 0 0
0 0 0
0 0 0
0 0 0
0 0 0
0 0 0
0 0 0
0 0 0
0 0 0
0 0 0
0 0 0
0 0 0
0 0 0
0 0 0
0 0 0
0 0 0
0 0 0
0 0 0
0 0 0
0 0 0
0 0 0
0 0 0
0 0 0
0 0 0
0 0 0
0 0 0
0 0 0
0 0 0
0 0 0
0 0 0
0 0 0
0 0 0
0 0 0
0 0 0
0 0 0
0 0 0
0 0 0
0 0 0
0 0 0
0 0 0
0 0 0
0 0 0
0 0 0
0 0 0
0 0 0
0 0 0
0 0 0
0 0 0
0 0 0
0 0 0
0 0 0
0 0 0
0 0 0
0 0 0
0 0 0
0 0 0
0 0 0
0 0 0
0 0 0
0 0 0
0 0 0
0 0 0
0 0 0
0 0 0
0 0 0
0 0 0
0 0 0
0 0 0
0 0 0
0 0 0
0 0 0
179 179 179
179 179 179
179 179 179
179 179 179
179 179 179
179 179 179
179 179 179
179 179 179
179 179 179
179 179 179
179 179 179
179 179 179
179 179 179
179 179 179
179 179 179
179 179 179
179 179 179
179 179 179
179 179 179
179 179 179
179 179 179
179 179 179
179 179 179
179 179 179
179 179 179
179 179 179
179 179 179
179 179 179
179 179 179
179 179 179
179 179 179
179 179 179
179 179 179
179 179 179
179 179 179
179 179 179
179 179 179
179 179 179
179 179 179
179 179 179
179 179 179
179 179 179
179 179 179
179 179 179
179 179 179
179 179 179
179 179 179
179 179 179
179 179 179
179 179 179
179 179 179
179 179 179
179 179 179
179 179 179
179 179 179
179 179 179
179 179 179
179 179 179
179 179 179
179 179 179
179 179 179
179 179 179
179 179 179
179 179 179
179 179 179
179 179 179
179 179 179
179 179 179
179 179 179
179 179 179
179 179 179
179 179 179
179 179 179
179 179 179
179 179 179
179 179 179
179 179 179
179 179 179
179 179 179
179 179 179
179 179 179
179 179 179
179 179 179
179 179 179
179 179 179
179 179 179
179 179 179
179 179 179
179 179 179
179 179 179
179 179 179
179 179 179
179 179 179
179 179 179
179 179 179
179 179 179
179 179 179
179 179 179
179 179 179
179 179 179
179 179 179
179 179 179
179 179 179
179 179 179
179 179 179
179 179 179
179 179 179
179 179 179
179 179 179
179 179 179
179 179 179
179 179 179
179 179 179
179 179 179
179 179 179
179 179 179
179 179 179
179 179 179
179 179 179
179 179 179
179 179 179
179 179 179
179 179 179
179 179 179
179 179 179
179 179 179
179 179 179
179 179 179
179 179 179
179 179 179
179 179 179
179 179 179
179 179 179
179 179 179
179 179 179
179 179 179
179 179 179
179 179 179
179 179 179
179 179 179
179 179 179
179 179 179
179 179 179
179 179 179
179 179 179
179 179 179
179 179 179
179 179 179
179 179 179
179 179 179
179 179 179
179 179 179
179 179 179
179 179 179
179 179 179
179 179 179
179 179 179
179 179 179
179 179 179
179 179 179
179 179 179
179 179 179
179 179 179
179 179 179
179 179 179
179 179 179
179 179 179
179 179 179
179 179 179
179 179 179
179 179 179
179 179 179
179 179 179
179 179 179
179 179 179
179 179 179
179 179 179
179 179 179
179 179 179
179 179 179
179 179 179
179 179 179
179 179 179
179 179 179
179 179 179
179 179 179
179 179 179
179 179 179
179 179 179
179 179 179
179 179 179
179 179 179
179 179 179
179 179 179
179 179 179
179 179 179
179 179 179
179 179 179
179 179 179
179 179 179
179 179 179
179 179 179
179 179 179
179 179 179
179 179 179
179 179 179
179 179 179
179 179 179
179 179 179
0 0 0
0 0 0
0 0 0
0 0 0
0 0 0
0 0 0
0 0 0
0 0 0
0 0 0
0 0 0
0 0 0
0 0 0
0 0 0
0 0 0
0 0 0
0 0 0
0 0 0
0 0 0
0 0 0
0 0 0
0 0 0
0 0 0
0 0 0
0 0 0
0 0 0
0 0 0
0 0 0
0 0 0
0 0 0
0 0 0
0 0 0
0 0 0
0 0 0
0 0 0
0 0 0
0 0 0
0 0 0
0 0 0
0 0 0
0 0 0
0 0 0
0 0 0
0 0 0
0 0 0
0 0 0
0 0 0
0 0 0
0 0 0
0 0 0
0 0 0
0 0 0
0 0 0
0 0 0
0 0 0
0 0 0
0 0 0
0 0 0
0 0 0
0 0 0
0 0 0
0 0 0
0 0 0
0 0 0
0 0 0
0 0 0
0 0 0
0 0 0
0 0 0
0 0 0
0 0 0
0 0 0
0 0 0
0 0 0
0 0 0
0 0 0
0 0 0
0 0 0
0 0 0
0 0 0
0 0 0
0 0 0
0 0 0
0 0 0
0 0 0
0 0 0
0 0 0
0 0 0
0 0 0
0 0 0
0 0 0
0 0 0
0 0 0
0 0 0
0 0 0
0 0 0
0 0 0
0 0 0
0 0 0
0 0 0
0 0 0
0 0 0
0 0 0
0 0 0
0 0 0
0 0 0
0 0 0
0 0 0
0 0 0
0 0 0
0 0 0
0 0 0
0 0 0
0 0 0
0 0 0
0 0 0
0 0 0
0 0 0
0 0 0
0 0 0
0 0 0
0 0 0
0 0 0
0 0 0
0 0 0
0 0 0
0 0 0
0 0 0
0 0 0
0 0 0
0 0 0
0 0 0
0 0 0
0 0 0
0 0 0
0 0 0
0 0 0
0 0 0
0 0 0
0 0 0
0 0 0
0 0 0
0 0 0
0 0 0
0 0 0
0 0 0
0 0 0
0 0 0
0 0 0
0 0 0
0 0 0
0 0 0
0 0 0
0 0 0
0 0 0
0 0 0
0 0 0
0 0 0
0 0 0
0 0 0
0 0 0
0 0 0
0 0 0
0 0 0
0 0 0
0 0 0
0 0 0
0 0 0
0 0 0
0 0 0
0 0 0
0 0 0
0 0 0
0 0 0
0 0 0
0 0 0
0 0 0
0 0 0
0 0 0
0 0 0
0 0 0
0 0 0
0 0 0
0 0 0
0 0 0
0 0 0
0 0 0
0 0 0
0 0 0
0 0 0
0 0 0
0 0 0
0 0 0
179 179 179
179 179 179
179 179 179
179 179 179
179 179 179
179 179 179
179 179 179
179 179 179
179 179 179
179 179 179
179 179 179
179 179 179
179 179 179
179 179 179
179 179 179
179 179 179
179 179 179
179 179 179
179 179 179
179 179 179
179 179 179
179 179 179
179 179 179
179 179 179
179 179 179
179 179 179
179 179 179
179 179 179
179 179 179
179 179 179
179 179 179
179 179 179
179 179 179
179 179 179
179 179 179
179 179 179
179 179 179
179 179 179
179 179 179
179 179 179
179 179 179
179 179 179
179 179 179
179 179 179
179 179 179
179 179 179
179 179 179
179 179 179
179 179 179
179 179 179
179 179 179
179 179 179
179 179 179
179 179 179
179 179 179
179 179 179
179 179 179
179 179 179
179 179 179
179 179 179
179 179 179
179 179 179
179 179 179
179 179 179
179 179 179
179 179 179
179 179 179
179 179 179
179 179 179
179 179 179
179 179 179
179 179 179
179 179 179
179 179 179
179 179 179
179 179 179
179 179 179
179 179 179
179 179 179
179 179 179
179 179 179
179 179 179
179 179 179
179 179 179
179 179 179
179 179 179
179 179 179
179 179 179
179 179 179
179 179 179
179 179 179
179 179 179
179 179 179
179 179 179
179 179 179
179 179 179
179 179 179
179 179 179
179 179 179
179 179 179
179 179 179
179 179 179
179 179 179
179 179 179
179 179 179
179 179 179
179 179 179
179 179 179
179 179 179
179 179 179
179 179 179
179 179 179
179 179 179
179 179 179
179 179 179
179 179 179
179 179 179
179 179 179
179 179 179
179 179 179
179 179 179
179 179 179
179 179 179
179 179 179
179 179 179
179 179 179
179 179 179
179 179 179
179 179 179
179 179 179
179 179 179
179 179 179
179 179 179
179 179 179
179 179 179
179 179 179
179 179 179
179 179 179
179 179 179
179 179 179
179 179 179
179 179 179
179 179 179
179 179 179
179 179 179
179 179 179
179 179 179
179 179 179
179 179 179
179 179 179
179 179 179
179 179 179
179 179 179
179 179 179
179 179 179
179 179 179
179 179 179
179 179 179
179 179 179
179 179 179
179 179 179
179 179 179
179 179 179
179 179 179
179 179 179
179 179 179
179 179 179
179 179 179
179 179 179
179 179 179
179 179 179
179 179 179
179 179 179
179 179 179
179 179 179
179 179 179
179 179 179
179 179 179
179 179 179
179 179 179
179 179 179
179 179 179
179 179 179
179 179 179
179 179 179
179 179 179
179 179 179
179 179 179
179 179 179
179 179 179
179 179 179
179 179 179
179 179 179
179 179 179
179 179 179
179 179 179
179 179 179
179 179 179
179 179 179
179 179 179
179 179 179
179 179 179
179 179 179
179 179 179
179 179 179
179 179 179
179 179 179
179 179 179
0 0 0
0 0 0
0 0 0
0 0 0
0 0 0
0 0 0
0 0 0
0 0 0
0 0 0
0 0 0
0 0 0
0 0 0
0 0 0
0 0 0
0 0 0
0 0 0
0 0 0
0 0 0
0 0 0
0 0 0
0 0 0
0 0 0
0 0 0
0 0 0
0 0 0
0 0 0
0 0 0
0 0 0
0 0 0
0 0 0
0 0 0
0 0 0
0 0 0
0 0 0
0 0 0
0 0 0
0 0 0
0 0 0
0 0 0
0 0 0
0 0 0
0 0 0
0 0 0
0 0 0
0 0 0
0 0 0
0 0 0
0 0 0
0 0 0
0 0 0
0 0 0
0 0 0
0 0 0
0 0 0
0 0 0
0 0 0
0 0 0
0 0 0
0 0 0
0 0 0
0 0 0
0 0 0
0 0 0
0 0 0
0 0 0
0 0 0
0 0 0
0 0 0
0 0 0
0 0 0
0 0 0
0 0 0
0 0 0
0 0 0
0 0 0
0 0 0
0 0 0
0 0 0
0 0 0
0 0 0
0 0 0
0 0 0
0 0 0
0 0 0
0 0 0
0 0 0
0 0 0
0 0 0
0 0 0
0 0 0
0 0 0
0 0 0
0 0 0
0 0 0
0 0 0
0 0 0
0 0 0
0 0 0
0 0 0
0 0 0
0 0 0
0 0 0
0 0 0
0 0 0
0 0 0
0 0 0
0 0 0
0 0 0
0 0 0
0 0 0
0 0 0
0 0 0
0 0 0
0 0 0
0 0 0
0 0 0
0 0 0
0 0 0
0 0 0
0 0 0
0 0 0
0 0 0
0 0 0
0 0 0
0 0 0
0 0 0
0 0 0
0 0 0
0 0 0
0 0 0
0 0 0
0 0 0
0 0 0
0 0 0
0 0 0
0 0 0
0 0 0
0 0 0
0 0 0
0 0 0
0 0 0
0 0 0
0 0 0
0 0 0
0 0 0
0 0 0
0 0 0
0 0 0
0 0 0
0 0 0
0 0 0
0 0 0
0 0 0
0 0 0
0 0 0
0 0 0
0 0 0
0 0 0
0 0 0
0 0 0
0 0 0
0 0 0
0 0 0
0 0 0
0 0 0
0 0 0
0 0 0
0 0 0
0 0 0
0 0 0
0 0 0
0 0 0
0 0 0
0 0 0
0 0 0
0 0 0
0 0 0
0 0 0
0 0 0
0 0 0
0 0 0
0 0 0
0 0 0
0 0 0
0 0 0
0 0 0
0 0 0
0 0 0
0 0 0
0 0 0
0 0 0
0 0 0
179 179 179
179 179 179
179 179 179
179 179 179
179 179 179
179 179 179
179 179 179
179 179 179
179 179 179
179 179 179
179 179 179
179 179 179
179 179 179
179 179 179
179 179 179
179 179 179
179 179 179
179 179 179
179 179 179
179 179 179
179 179 179
179 179 179
179 179 179
179 179 179
179 179 179
179 179 179
179 179 179
179 179 179
179 179 179
179 179 179
179 179 179
179 179 179
179 179 179
179 179 179
179 179 179
179 179 179
179 179 179
179 179 179
179 179 179
179 179 179
179 179 179
179 179 179
179 179 179
179 179 179
179 179 179
179 179 179
179 179 179
179 179 179
179 179 179
179 179 179
179 179 179
179 179 179
179 179 179
179 179 179
179 179 179
179 179 179
179 179 179
179 179 179
179 179 179
179 179 179
179 179 179
179 179 179
179 179 179
179 179 179
179 179 179
179 179 179
179 179 179
179 179 179
179 179 179
179 179 179
179 179 179
179 179 179
179 179 179
179 179 179
179 179 179
179 179 179
179 179 179
179 179 179
179 179 179
179 179 179
179 179 179
179 179 179
179 179 179
179 179 179
179 179 179
179 179 179
179 179 179
179 179 179
179 179 179
179 179 179
179 179 179
179 179 179
179 179 179
179 179 179
179 179 179
179 179 179
179 179 179
179 179 179
179 179 179
179 179 179
179 179 179
179 179 179
179 179 179
179 179 179
179 179 179
179 179 179
179 179 179
179 179 179
179 179 179
179 179 179
179 179 179
179 179 179
179 179 179
179 179 179
179 179 179
179 179 179
179 179 179
179 179 179
179 179 179
179 179 179
179 179 179
179 179 179
179 179 179
179 179 179
179 179 179
179 179 179
179 179 179
179 179 179
179 179 179
179 179 179
179 179 179
179 179 179
179 179 179
179 179 179
179 179 179
179 179 179
179 179 179
179 179 179
179 179 179
179 179 179
179 179 179
179 179 179
179 179 179
179 179 179
179 179 179
179 179 179
179 179 179
179 179 179
179 179 179
179 179 179
179 179 179
179 179 179
179 179 179
179 179 179
179 179 179
179 179 179
179 179 179
179 179 179
179 179 179
179 179 179
179 179 179
179 179 179
179 179 179
179 179 179
179 179 179
179 179 179
179 179 179
179 179 179
179 179 179
179 179 179
179 179 179
179 179 179
179 179 179
179 179 179
179 179 179
179 179 179
179 179 179
179 179 179
179 179 179
179 179 179
179 179 179
179 179 179
179 179 179
179 179 179
179 179 179
179 179 179
179 179 179
179 179 179
179 179 179
179 179 179
179 179 179
179 179 179
179 179 179
179 179 179
179 179 179
179 179 179
179 179 179
179 179 179
179 179 179
179 179 179
179 179 179
179 179 179
179 179 179
179 179 179
179 179 179
179 179 179
179 179 179
0 0 0
0 0 0
0 0 0
0 0 0
0 0 0
0 0 0
0 0 0
0 0 0
0 0 0
0 0 0
0 0 0
0 0 0
0 0 0
0 0 0
0 0 0
0 0 0
0 0 0
0 0 0
0 0 0
0 0 0
0 0 0
0 0 0
0 0 0
0 0 0
0 0 0
0 0 0
0 0 0
0 0 0
0 0 0
0 0 0
0 0 0
0 0 0
0 0 0
0 0 0
0 0 0
0 0 0
0 0 0
0 0 0
0 0 0
0 0 0
0 0 0
0 0 0
0 0 0
0 0 0
0 0 0
0 0 0
0 0 0
0 0 0
0 0 0
0 0 0
0 0 0
0 0 0
0 0 0
0 0 0
0 0 0
0 0 0
0 0 0
0 0 0
0 0 0
0 0 0
0 0 0
0 0 0
0 0 0
0 0 0
0 0 0
0 0 0
0 0 0
0 0 0
0 0 0
0 0 0
0 0 0
0 0 0
0 0 0
0 0 0
0 0 0
0 0 0
0 0 0
0 0 0
0 0 0
0 0 0
0 0 0
0 0 0
0 0 0
0 0 0
0 0 0
0 0 0
0 0 0
0 0 0
0 0 0
0 0 0
0 0 0
0 0 0
0 0 0
0 0 0
0 0 0
0 0 0
0 0 0
0 0 0
0 0 0
0 0 0
0 0 0
0 0 0
0 0 0
0 0 0
0 0 0
0 0 0
0 0 0
0 0 0
0 0 0
0 0 0
0 0 0
0 0 0
0 0 0
0 0 0
0 0 0
0 0 0
0 0 0
0 0 0
0 0 0
0 0 0
0 0 0
0 0 0
0 0 0
0 0 0
0 0 0
0 0 0
0 0 0
0 0 0
0 0 0
0 0 0
0 0 0
0 0 0
0 0 0
0 0 0
0 0 0
0 0 0
0 0 0
0 0 0
0 0 0
0 0 0
0 0 0
0 0 0
0 0 0
0 0 0
0 0 0
0 0 0
0 0 0
0 0 0
0 0 0
0 0 0
0 0 0
0 0 0
0 0 0
0 0 0
0 0 0
0 0 0
0 0 0
0 0 0
0 0 0
0 0 0
0 0 0
0 0 0
0 0 0
0 0 0
0 0 0
0 0 0
0 0 0
0 0 0
0 0 0
0 0 0
0 0 0
0 0 0
0 0 0
0 0 0
0 0 0
0 0 0
0 0 0
0 0 0
0 0 0
0 0 0
0 0 0
0 0 0
0 0 0
0 0 0
0 0 0
0 0 0
0 0 0
0 0 0
0 0 0
0 0 0
0 0 0
0 0 0
0 0 0
0 0 0
179 179 179
179 179 179
179 179 179
179 179 179
179 179 179
179 179 179
179 179 179
179 179 179
179 179 179
179 179 179
179 179 179
179 179 179
179 179 179
179 179 179
179 179 179
179 179 179
179 179 179
179 179 179
179 179 179
179 179 179
179 179 179
179 179 179
179 179 179
179 179 179
179 179 179
179 179 179
179 179 179
179 179 179
179 179 179
179 179 179
179 179 179
179 179 179
179 179 179
179 179 179
179 179 179
179 179 179
179 179 179
179 179 179
179 179 179
179 179 179
179 179 179
179 179 179
179 179 179
179 179 179
179 179 179
179 179 179
179 179 179
179 179 179
179 179 179
179 179 179
179 179 179
179 179 179
179 179 179
179 179 179
179 179 179
179 179 179
179 179 179
179 179 179
179 179 179
179 179 179
179 179 179
179 179 179
179 179 179
179 179 179
179 179 179
179 179 179
179 179 179
179 179 179
179 179 179
179 179 179
179 179 179
179 179 179
179 179 179
179 179 179
179 179 179
179 179 179
179 179 179
179 179 179
179 179 179
179 179 179
179 179 179
179 179 179
179 179 179
179 179 179
179 179 179
179 179 179
179 179 179
179 179 179
179 179 179
179 179 179
179 179 179
179 179 179
179 179 179
179 179 179
179 179 179
179 179 179
179 179 179
179 179 179
179 179 179
179 179 179
179 179 179
179 179 179
179 179 179
179 179 179
179 179 179
179 179 179
179 179 179
179 179 179
179 179 179
179 179 179
179 179 179
179 179 179
179 179 179
179 179 179
179 179 179
179 179 179
179 179 179
179 179 179
179 179 179
179 179 179
179 179 179
179 179 179
179 179 179
179 179 179
179 179 179
179 179 179
179 179 179
179 179 179
179 179 179
179 179 179
179 179 179
179 179 179
179 179 179
179 179 179
179 179 179
179 179 179
179 179 179
179 179 179
179 179 179
179 179 179
179 179 179
179 179 179
179 179 179
179 179 179
179 179 179
179 179 179
179 179 179
179 179 179
179 179 179
179 179 179
179 179 179
179 179 179
179 179 179
179 179 179
179 179 179
179 179 179
179 179 179
179 179 179
179 179 179
179 179 179
179 179 179
179 179 179
179 179 179
179 179 179
179 179 179
179 179 179
179 179 179
179 179 179
179 179 179
179 179 179
179 179 179
179 179 179
179 179 179
179 179 179
179 179 179
179 179 179
179 179 179
179 179 179
179 179 179
179 179 179
179 179 179
179 179 179
179 179 179
179 179 179
179 179 179
179 179 179
179 179 179
179 179 179
179 179 179
179 179 179
179 179 179
179 179 179
179 179 179
179 179 179
179 179 179
179 179 179
179 179 179
179 179 179
179 179 179
179 179 179
179 179 179
179 179 179
179 179 179
179 179 179
179 179 179
179 179 179
0 0 0
0 0 0
0 0 0
0 0 0
0 0 0
0 0 0
0 0 0
0 0 0
0 0 0
0 0 0
0 0 0
0 0 0
0 0 0
0 0 0
0 0 0
0 0 0
0 0 0
0 0 0
0 0 0
0 0 0
0 0 0
0 0 0
0 0 0
0 0 0
0 0 0
0 0 0
0 0 0
0 0 0
0 0 0
0 0 0
0 0 0
0 0 0
0 0 0
0 0 0
0 0 0
0 0 0
0 0 0
0 0 0
0 0 0
0 0 0
0 0 0
0 0 0
0 0 0
0 0 0
0 0 0
0 0 0
0 0 0
0 0 0
0 0 0
0 0 0
0 0 0
0 0 0
0 0 0
0 0 0
0 0 0
0 0 0
0 0 0
0 0 0
0 0 0
0 0 0
0 0 0
0 0 0
0 0 0
0 0 0
0 0 0
0 0 0
0 0 0
0 0 0
0 0 0
0 0 0
0 0 0
0 0 0
0 0 0
0 0 0
0 0 0
0 0 0
0 0 0
0 0 0
0 0 0
0 0 0
0 0 0
0 0 0
0 0 0
0 0 0
0 0 0
0 0 0
0 0 0
0 0 0
0 0 0
0 0 0
0 0 0
0 0 0
0 0 0
0 0 0
0 0 0
0 0 0
0 0 0
0 0 0
0 0 0
0 0 0
0 0 0
0 0 0
0 0 0
0 0 0
0 0 0
0 0 0
0 0 0
0 0 0
0 0 0
0 0 0
0 0 0
0 0 0
0 0 0
0 0 0
0 0 0
0 0 0
0 0 0
0 0 0
0 0 0
0 0 0
0 0 0
0 0 0
0 0 0
0 0 0
0 0 0
0 0 0
0 0 0
0 0 0
0 0 0
0 0 0
0 0 0
0 0 0
0 0 0
0 0 0
0 0 0
0 0 0
0 0 0
0 0 0
0 0 0
0 0 0
0 0 0
0 0 0
0 0 0
0 0 0
0 0 0
0 0 0
0 0 0
0 0 0
0 0 0
0 0 0
0 0 0
0 0 0
0 0 0
0 0 0
0 0 0
0 0 0
0 0 0
0 0 0
0 0 0
0 0 0
0 0 0
0 0 0
0 0 0
0 0 0
0 0 0
0 0 0
0 0 0
0 0 0
0 0 0
0 0 0
0 0 0
0 0 0
0 0 0
0 0 0
0 0 0
0 0 0
0 0 0
0 0 0
0 0 0
0 0 0
0 0 0
0 0 0
0 0 0
0 0 0
0 0 0
0 0 0
0 0 0
0 0 0
0 0 0
0 0 0
0 0 0
0 0 0
0 0 0
0 0 0
179 179 179
179 179 179
179 179 179
179 179 179
179 179 179
179 179 179
179 179 179
179 179 179
179 179 179
179 179 179
179 179 179
179 179 179
179 179 179
179 179 179
179 179 179
179 179 179
179 179 179
179 179 179
179 179 179
179 179 179
179 179 179
179 179 179
179 179 179
179 179 179
179 179 179
179 179 179
179 179 179
179 179 179
179 179 179
179 179 179
179 179 179
179 179 179
179 179 179
179 179 179
179 179 179
179 179 179
179 179 179
179 179 179
179 179 179
179 179 179
179 179 179
179 179 179
179 179 179
179 179 179
179 179 179
179 179 179
179 179 179
179 179 179
179 179 179
179 179 179
179 179 179
179 179 179
179 179 179
179 179 179
179 179 179
179 179 179
179 179 179
179 179 179
179 179 179
179 179 179
179 179 179
179 179 179
179 179 179
179 179 179
179 179 179
179 179 179
179 179 179
179 179 179
179 179 179
179 179 179
179 179 179
179 179 179
179 179 179
179 179 179
179 179 179
179 179 179
179 179 179
179 179 179
179 179 179
179 179 179
179 179 179
179 179 179
179 179 179
179 179 179
179 179 179
179 179 179
179 179 179
179 179 179
179 179 179
179 179 179
179 179 179
179 179 179
179 179 179
179 179 179
179 179 179
179 179 179
179 179 179
179 179 179
179 179 179
179 179 179
179 179 179
179 179 179
179 179 179
179 179 179
179 179 179
179 179 179
179 179 179
179 179 179
179 179 179
179 179 179
179 179 179
179 179 179
179 179 179
179 179 179
179 179 179
179 179 179
179 179 179
179 179 179
179 179 179
179 179 179
179 179 179
179 179 179
179 179 179
179 179 179
179 179 179
179 179 179
179 179 179
179 179 179
179 179 179
179 179 179
179 179 179
179 179 179
179 179 179
179 179 179
179 179 179
179 179 179
179 179 179
179 179 179
179 179 179
179 179 179
179 179 179
179 179 179
179 179 179
179 179 179
179 179 179
179 179 179
179 179 179
179 179 179
179 179 179
179 179 179
179 179 179
179 179 179
179 179 179
179 179 179
179 179 179
179 179 179
179 179 179
179 179 179
179 179 179
179 179 179
179 179 179
179 179 179
179 179 179
179 179 179
179 179 179
179 179 179
179 179 179
179 179 179
179 179 179
179 179 179
179 179 179
179 179 179
179 179 179
179 179 179
179 179 179
179 179 179
179 179 179
179 179 179
179 179 179
179 179 179
179 179 179
179 179 179
179 179 179
179 179 179
179 179 179
179 179 179
179 179 179
179 179 179
179 179 179
179 179 179
179 179 179
179 179 179
179 179 179
179 179 179
179 179 179
179 179 179
179 179 179
179 179 179
179 179 179
179 179 179
179 179 179
179 179 179
179 179 179
179 179 179
179 179 179
0 0 0
0 0 0
0 0 0
0 0 0
0 0 0
0 0 0
0 0 0
0 0 0
0 0 0
0 0 0
0 0 0
0 0 0
0 0 0
0 0 0
0 0 0
0 0 0
0 0 0
0 0 0
0 0 0
0 0 0
0 0 0
0 0 0
0 0 0
0 0 0
0 0 0
0 0 0
0 0 0
0 0 0
0 0 0
0 0 0
0 0 0
0 0 0
0 0 0
0 0 0
0 0 0
0 0 0
0 0 0
0 0 0
0 0 0
0 0 0
0 0 0
0 0 0
0 0 0
0 0 0
0 0 0
0 0 0
0 0 0
0 0 0
0 0 0
0 0 0
0 0 0
0 0 0
0 0 0
0 0 0
0 0 0
0 0 0
0 0 0
0 0 0
0 0 0
0 0 0
0 0 0
0 0 0
0 0 0
0 0 0
0 0 0
0 0 0
0 0 0
0 0 0
0 0 0
0 0 0
0 0 0
0 0 0
0 0 0
0 0 0
0 0 0
0 0 0
0 0 0
0 0 0
0 0 0
0 0 0
0 0 0
0 0 0
0 0 0
0 0 0
0 0 0
0 0 0
0 0 0
0 0 0
0 0 0
0 0 0
0 0 0
0 0 0
0 0 0
0 0 0
0 0 0
0 0 0
0 0 0
0 0 0
0 0 0
0 0 0
0 0 0
0 0 0
0 0 0
0 0 0
0 0 0
0 0 0
0 0 0
0 0 0
0 0 0
0 0 0
0 0 0
0 0 0
0 0 0
0 0 0
0 0 0
0 0 0
0 0 0
0 0 0
0 0 0
0 0 0
0 0 0
0 0 0
0 0 0
0 0 0
0 0 0
0 0 0
0 0 0
0 0 0
0 0 0
0 0 0
0 0 0
0 0 0
0 0 0
0 0 0
0 0 0
0 0 0
0 0 0
0 0 0
0 0 0
0 0 0
0 0 0
0 0 0
0 0 0
0 0 0
0 0 0
0 0 0
0 0 0
0 0 0
0 0 0
0 0 0
0 0 0
0 0 0
0 0 0
0 0 0
0 0 0
0 0 0
0 0 0
0 0 0
0 0 0
0 0 0
0 0 0
0 0 0
0 0 0
0 0 0
0 0 0
0 0 0
0 0 0
0 0 0
0 0 0
0 0 0
0 0 0
0 0 0
0 0 0
0 0 0
0 0 0
0 0 0
0 0 0
0 0 0
0 0 0
0 0 0
0 0 0
0 0 0
0 0 0
0 0 0
0 0 0
0 0 0
0 0 0
0 0 0
0 0 0
0 0 0
0 0 0
0 0 0
0 0 0
0 0 0
0 0 0
0 0 0
179 179 179
179 179 179
179 179 179
179 179 179
179 179 179
179 179 179
179 179 179
179 179 179
179 179 179
179 179 179
179 179 179
179 179 179
179 179 179
179 179 179
179 179 179
179 179 179
179 179 179
179 179 179
179 179 179
179 179 179
179 179 179
179 179 179
179 179 179
179 179 179
179 179 179
179 179 179
179 179 179
179 179 179
179 179 179
179 179 179
179 179 179
179 179 179
179 179 179
179 179 179
179 179 179
179 179 179
179 179 179
179 179 179
179 179 179
179 179 179
179 179 179
179 179 179
179 179 179
179 179 179
179 179 179
179 179 179
179 179 179
179 179 179
179 179 179
179 179 179
179 179 179
179 179 179
179 179 179
179 179 179
179 179 179
179 179 179
179 179 179
179 179 179
179 179 179
179 179 179
179 179 179
179 179 179
179 179 179
179 179 179
179 179 179
179 179 179
179 179 179
179 179 179
179 179 179
179 179 179
179 179 179
179 179 179
179 179 179
179 179 179
179 179 179
179 179 179
179 179 179
179 179 179
179 179 179
179 179 179
179 179 179
179 179 179
179 179 179
179 179 179
179 179 179
179 179 179
179 179 179
179 179 179
179 179 179
179 179 179
179 179 179
179 179 179
179 179 179
179 179 179
179 179 179
179 179 179
179 179 179
179 179 179
179 179 179
179 179 179
179 179 179
179 179 179
179 179 179
179 179 179
179 179 179
179 179 179
179 179 179
179 179 179
179 179 179
179 179 179
179 179 179
179 179 179
179 179 179
179 179 179
179 179 179
179 179 179
179 179 179
179 179 179
179 179 179
179 179 179
179 179 179
179 179 179
179 179 179
179 179 179
179 179 179
179 179 179
179 179 179
179 179 179
179 179 179
179 179 179
179 179 179
179 179 179
179 179 179
179 179 179
179 179 179
179 179 179
179 179 179
179 179 179
179 179 179
179 179 179
179 179 179
179 179 179
179 179 179
179 179 179
179 179 179
179 179 179
179 179 179
179 179 179
179 179 179
179 179 179
179 179 179
179 179 179
179 179 179
179 179 179
179 179 179
179 179 179
179 179 179
179 179 179
179 179 179
179 179 179
179 179 179
179 179 179
179 179 179
179 179 179
179 179 179
179 179 179
179 179 179
179 179 179
179 179 179
179 179 179
179 179 179
179 179 179
179 179 179
179 179 179
179 179 179
179 179 179
179 179 179
179 179 179
179 179 179
179 179 179
179 179 179
179 179 179
179 179 179
179 179 179
179 179 179
179 179 179
179 179 179
179 179 179
179 179 179
179 179 179
179 179 179
179 179 179
179 179 179
179 179 179
179 179 179
179 179 179
179 179 179
179 179 179
179 179 179
179 179 179
179 179 179
179 179 179
179 179 179
179 179 179
0 0 0
0 0 0
0 0 0
0 0 0
0 0 0
0 0 0
0 0 0
0 0 0
0 0 0
0 0 0
0 0 0
0 0 0
0 0 0
0 0 0
0 0 0
0 0 0
0 0 0
0 0 0
0 0 0
0 0 0
0 0 0
0 0 0
0 0 0
0 0 0
0 0 0
0 0 0
0 0 0
0 0 0
0 0 0
0 0 0
0 0 0
0 0 0
0 0 0
0 0 0
0 0 0
0 0 0
0 0 0
0 0 0
0 0 0
0 0 0
0 0 0
0 0 0
0 0 0
0 0 0
0 0 0
0 0 0
0 0 0
0 0 0
0 0 0
0 0 0
0 0 0
0 0 0
0 0 0
0 0 0
0 0 0
0 0 0
0 0 0
0 0 0
0 0 0
0 0 0
0 0 0
0 0 0
0 0 0
0 0 0
0 0 0
0 0 0
0 0 0
0 0 0
0 0 0
0 0 0
0 0 0
0 0 0
0 0 0
0 0 0
0 0 0
0 0 0
0 0 0
0 0 0
0 0 0
0 0 0
0 0 0
0 0 0
0 0 0
0 0 0
0 0 0
0 0 0
0 0 0
0 0 0
0 0 0
0 0 0
0 0 0
0 0 0
0 0 0
0 0 0
0 0 0
0 0 0
0 0 0
0 0 0
0 0 0
0 0 0
0 0 0
0 0 0
0 0 0
0 0 0
0 0 0
0 0 0
0 0 0
0 0 0
0 0 0
0 0 0
0 0 0
0 0 0
0 0 0
0 0 0
0 0 0
0 0 0
0 0 0
0 0 0
0 0 0
0 0 0
0 0 0
0 0 0
0 0 0
0 0 0
0 0 0
0 0 0
0 0 0
0 0 0
0 0 0
0 0 0
0 0 0
0 0 0
0 0 0
0 0 0
0 0 0
0 0 0
0 0 0
0 0 0
0 0 0
0 0 0
0 0 0
0 0 0
0 0 0
0 0 0
0 0 0
0 0 0
0 0 0
0 0 0
0 0 0
0 0 0
0 0 0
0 0 0
0 0 0
0 0 0
0 0 0
0 0 0
0 0 0
0 0 0
0 0 0
0 0 0
0 0 0
0 0 0
0 0 0
0 0 0
0 0 0
0 0 0
0 0 0
0 0 0
0 0 0
0 0 0
0 0 0
0 0 0
0 0 0
0 0 0
0 0 0
0 0 0
0 0 0
0 0 0
0 0 0
0 0 0
0 0 0
0 0 0
0 0 0
0 0 0
0 0 0
0 0 0
0 0 0
0 0 0
0 0 0
0 0 0
0 0 0
0 0 0
0 0 0
0 0 0
0 0 0
0 0 0
179 179 179
179 179 179
179 179 179
179 179 179
179 179 179
179 179 179
179 179 179
179 179 179
179 179 179
179 179 179
179 179 179
179 179 179
179 179 179
179 179 179
179 179 179
179 179 179
179 179 179
179 179 179
179 179 179
179 179 179
179 179 179
179 179 179
179 179 179
179 179 179
179 179 179
179 179 179
179 179 179
179 179 179
179 179 179
179 179 179
179 179 179
179 179 179
179 179 179
179 179 179
179 179 179
179 179 179
179 179 179
179 179 179
179 179 179
179 179 179
179 179 179
179 179 179
179 179 179
179 179 179
179 179 179
179 179 179
179 179 179
179 179 179
179 179 179
179 179 179
179 179 179
179 179 179
179 179 179
179 179 179
179 179 179
179 179 179
179 179 179
179 179 179
179 179 179
179 179 179
179 179 179
179 179 179
179 179 179
179 179 179
179 179 179
179 179 179
179 179 179
179 179 179
179 179 179
179 179 179
179 179 179
179 179 179
179 179 179
179 179 179
179 179 179
179 179 179
179 179 179
179 179 179
179 179 179
179 179 179
179 179 179
179 179 179
179 179 179
179 179 179
179 179 179
179 179 179
179 179 179
179 179 179
179 179 179
179 179 179
179 179 179
179 179 179
179 179 179
179 179 179
179 179 179
179 179 179
179 179 179
179 179 179
179 179 179
179 179 179
179 179 179
179 179 179
179 179 179
179 179 179
179 179 179
179 179 179
179 179 179
179 179 179
179 179 179
179 179 179
179 179 179
179 179 179
179 179 179
179 179 179
179 179 179
179 179 179
179 179 179
179 179 179
179 179 179
179 179 179
179 179 179
179 179 179
179 179 179
179 179 179
179 179 179
179 179 179
179 179 179
179 179 179
179 179 179
179 179 179
179 179 179
179 179 179
179 179 179
179 179 179
179 179 179
179 179 179
179 179 179
179 179 179
179 179 179
179 179 179
179 179 179
179 179 179
179 179 179
179 179 179
179 179 179
179 179 179
179 179 179
179 179 179
179 179 179
179 179 179
179 179 179
179 179 179
179 179 179
179 179 179
179 179 179
179 179 179
179 179 179
179 179 179
179 179 179
179 179 179
179 179 179
179 179 179
179 179 179
179 179 179
179 179 179
179 179 179
179 179 179
179 179 179
179 179 179
179 179 179
179 179 179
179 179 179
179 179 179
179 179 179
179 179 179
179 179 179
179 179 179
179 179 179
179 179 179
179 179 179
179 179 179
179 179 179
179 179 179
179 179 179
179 179 179
179 179 179
179 179 179
179 179 179
179 179 179
179 179 179
179 179 179
179 179 179
179 179 179
179 179 179
179 179 179
179 179 179
179 179 179
179 179 179
179 179 179
179 179 179
179 179 179
179 179 179
179 179 179
0 0 0
0 0 0
0 0 0
0 0 0
0 0 0
0 0 0
0 0 0
0 0 0
0 0 0
0 0 0
0 0 0
0 0 0
0 0 0
0 0 0
0 0 0
0 0 0
0 0 0
0 0 0
0 0 0
0 0 0
0 0 0
0 0 0
0 0 0
0 0 0
0 0 0
0 0 0
0 0 0
0 0 0
0 0 0
0 0 0
0 0 0
0 0 0
0 0 0
0 0 0
0 0 0
0 0 0
0 0 0
0 0 0
0 0 0
0 0 0
0 0 0
0 0 0
0 0 0
0 0 0
0 0 0
0 0 0
0 0 0
0 0 0
0 0 0
0 0 0
0 0 0
0 0 0
0 0 0
0 0 0
0 0 0
0 0 0
0 0 0
0 0 0
0 0 0
0 0 0
0 0 0
0 0 0
0 0 0
0 0 0
0 0 0
0 0 0
0 0 0
0 0 0
0 0 0
0 0 0
0 0 0
0 0 0
0 0 0
0 0 0
0 0 0
0 0 0
0 0 0
0 0 0
0 0 0
0 0 0
0 0 0
0 0 0
0 0 0
0 0 0
0 0 0
0 0 0
0 0 0
0 0 0
0 0 0
0 0 0
0 0 0
0 0 0
0 0 0
0 0 0
0 0 0
0 0 0
0 0 0
0 0 0
0 0 0
0 0 0
0 0 0
0 0 0
0 0 0
0 0 0
0 0 0
0 0 0
0 0 0
0 0 0
0 0 0
0 0 0
0 0 0
0 0 0
0 0 0
0 0 0
0 0 0
0 0 0
0 0 0
0 0 0
0 0 0
0 0 0
0 0 0
0 0 0
0 0 0
0 0 0
0 0 0
0 0 0
0 0 0
0 0 0
0 0 0
0 0 0
0 0 0
0 0 0
0 0 0
0 0 0
0 0 0
0 0 0
0 0 0
0 0 0
0 0 0
0 0 0
0 0 0
0 0 0
0 0 0
0 0 0
0 0 0
0 0 0
0 0 0
0 0 0
0 0 0
0 0 0
0 0 0
0 0 0
0 0 0
0 0 0
0 0 0
0 0 0
0 0 0
0 0 0
0 0 0
0 0 0
0 0 0
0 0 0
0 0 0
0 0 0
0 0 0
0 0 0
0 0 0
0 0 0
0 0 0
0 0 0
0 0 0
0 0 0
0 0 0
0 0 0
0 0 0
0 0 0
0 0 0
0 0 0
0 0 0
0 0 0
0 0 0
0 0 0
0 0 0
0 0 0
0 0 0
0 0 0
0 0 0
0 0 0
0 0 0
0 0 0
0 0 0
0 0 0
0 0 0
0 0 0
0 0 0
0 0 0
0 0 0
0 0 0
179 179 179
179 179 179
179 179 179
179 179 179
179 179 179
179 179 179
179 179 179
179 179 179
179 179 179
179 179 179
179 179 179
179 179 179
179 179 179
179 179 179
179 179 179
179 179 179
179 179 179
179 179 179
179 179 179
179 179 179
179 179 179
179 179 179
179 179 179
179 179 179
179 179 179
179 179 179
179 179 179
179 179 179
179 179 179
179 179 179
179 179 179
179 179 179
179 179 179
179 179 179
179 179 179
179 179 179
179 179 179
179 179 179
179 179 179
179 179 179
179 179 179
179 179 179
179 179 179
179 179 179
179 179 179
179 179 179
179 179 179
179 179 179
179 179 179
179 179 179
179 179 179
179 179 179
179 179 179
179 179 179
179 179 179
179 179 179
179 179 179
179 179 179
179 179 179
179 179 179
179 179 179
179 179 179
179 179 179
179 179 179
179 179 179
179 179 179
179 179 179
179 179 179
179 179 179
179 179 179
179 179 179
179 179 179
179 179 179
179 179 179
179 179 179
179 179 179
179 179 179
179 179 179
179 179 179
179 179 179
179 179 179
179 179 179
179 179 179
179 179 179
179 179 179
179 179 179
179 179 179
179 179 179
179 179 179
179 179 179
179 179 179
179 179 179
179 179 179
179 179 179
179 179 179
179 179 179
179 179 179
179 179 179
179 179 179
179 179 179
179 179 179
179 179 179
179 179 179
179 179 179
179 179 179
179 179 179
179 179 179
179 179 179
179 179 179
179 179 179
179 179 179
179 179 179
179 179 179
179 179 179
179 179 179
179 179 179
179 179 179
179 179 179
179 179 179
179 179 179
179 179 179
179 179 179
179 179 179
179 179 179
179 179 179
179 179 179
179 179 179
179 179 179
179 179 179
179 179 179
179 179 179
179 179 179
179 179 179
179 179 179
179 179 179
179 179 179
179 179 179
179 179 179
179 179 179
179 179 179
179 179 179
179 179 179
179 179 179
179 179 179
179 179 179
179 179 179
179 179 179
179 179 179
179 179 179
179 179 179
179 179 179
179 179 179
179 179 179
179 179 179
179 179 179
179 179 179
179 179 179
179 179 179
179 179 179
179 179 179
179 179 179
179 179 179
179 179 179
179 179 179
179 179 179
179 179 179
179 179 179
179 179 179
179 179 179
179 179 179
179 179 179
179 179 179
179 179 179
179 179 179
179 179 179
179 179 179
179 179 179
179 179 179
179 179 179
179 179 179
179 179 179
179 179 179
179 179 179
179 179 179
179 179 179
179 179 179
179 179 179
179 179 179
179 179 179
179 179 179
179 179 179
179 179 179
179 179 179
179 179 179
179 179 179
179 179 179
179 179 179
179 179 179
179 179 179
179 179 179
179 179 179
179 179 179
0 0 0
0 0 0
0 0 0
0 0 0
0 0 0
0 0 0
0 0 0
0 0 0
0 0 0
0 0 0
0 0 0
0 0 0
0 0 0
0 0 0
0 0 0
0 0 0
0 0 0
0 0 0
0 0 0
0 0 0
0 0 0
0 0 0
0 0 0
0 0 0
0 0 0
0 0 0
0 0 0
0 0 0
0 0 0
0 0 0
0 0 0
0 0 0
0 0 0
0 0 0
0 0 0
0 0 0
0 0 0
0 0 0
0 0 0
0 0 0
0 0 0
0 0 0
0 0 0
0 0 0
0 0 0
0 0 0
0 0 0
0 0 0
0 0 0
0 0 0
0 0 0
0 0 0
0 0 0
0 0 0
0 0 0
0 0 0
0 0 0
0 0 0
0 0 0
0 0 0
0 0 0
0 0 0
0 0 0
0 0 0
0 0 0
0 0 0
0 0 0
0 0 0
0 0 0
0 0 0
0 0 0
0 0 0
0 0 0
0 0 0
0 0 0
0 0 0
0 0 0
0 0 0
0 0 0
0 0 0
0 0 0
0 0 0
0 0 0
0 0 0
0 0 0
0 0 0
0 0 0
0 0 0
0 0 0
0 0 0
0 0 0
0 0 0
0 0 0
0 0 0
0 0 0
0 0 0
0 0 0
0 0 0
0 0 0
0 0 0
0 0 0
0 0 0
0 0 0
0 0 0
0 0 0
0 0 0
0 0 0
0 0 0
0 0 0
0 0 0
0 0 0
0 0 0
0 0 0
0 0 0
0 0 0
0 0 0
0 0 0
0 0 0
0 0 0
0 0 0
0 0 0
0 0 0
0 0 0
0 0 0
0 0 0
0 0 0
0 0 0
0 0 0
0 0 0
0 0 0
0 0 0
0 0 0
0 0 0
0 0 0
0 0 0
0 0 0
0 0 0
0 0 0
0 0 0
0 0 0
0 0 0
0 0 0
0 0 0
0 0 0
0 0 0
0 0 0
0 0 0
0 0 0
0 0 0
0 0 0
0 0 0
0 0 0
0 0 0
0 0 0
0 0 0
0 0 0
0 0 0
0 0 0
0 0 0
0 0 0
0 0 0
0 0 0
0 0 0
0 0 0
0 0 0
0 0 0
0 0 0
0 0 0
0 0 0
0 0 0
0 0 0
0 0 0
0 0 0
0 0 0
0 0 0
0 0 0
0 0 0
0 0 0
0 0 0
0 0 0
0 0 0
0 0 0
0 0 0
0 0 0
0 0 0
0 0 0
0 0 0
0 0 0
0 0 0
0 0 0
0 0 0
0 0 0
0 0 0
0 0 0
0 0 0
0 0 0
0 0 0
0 0 0
179 179 179
179 179 179
179 179 179
179 179 179
179 179 179
179 179 179
179 179 179
179 179 179
179 179 179
179 179 179
179 179 179
179 179 179
179 179 179
179 179 179
179 179 179
179 179 179
179 179 179
179 179 179
179 179 179
179 179 179
179 179 179
179 179 179
179 179 179
179 179 179
179 179 179
179 179 179
179 179 179
179 179 179
179 179 179
179 179 179
179 179 179
179 179 179
179 179 179
179 179 179
179 179 179
179 179 179
179 179 179
179 179 179
179 179 179
179 179 179
179 179 179
179 179 179
179 179 179
179 179 179
179 179 179
179 179 179
179 179 179
179 179 179
179 179 179
179 179 179
179 179 179
179 179 179
179 179 179
179 179 179
179 179 179
179 179 179
179 179 179
179 179 179
179 179 179
179 179 179
179 179 179
179 179 179
179 179 179
179 179 179
179 179 179
179 179 179
179 179 179
179 179 179
179 179 179
179 179 179
179 179 179
179 179 179
179 179 179
179 179 179
179 179 179
179 179 179
179 179 179
179 179 179
179 179 179
179 179 179
179 179 179
179 179 179
179 179 179
179 179 179
179 179 179
179 179 179
179 179 179
179 179 179
179 179 179
179 179 179
179 179 179
179 179 179
179 179 179
179 179 179
179 179 179
179 179 179
179 179 179
179 179 179
179 179 179
179 179 179
179 179 179
179 179 179
179 179 179
179 179 179
179 179 179
179 179 179
179 179 179
179 179 179
179 179 179
179 179 179
179 179 179
179 179 179
179 179 179
179 179 179
179 179 179
179 179 179
179 179 179
179 179 179
179 179 179
179 179 179
179 179 179
179 179 179
179 179 179
179 179 179
179 179 179
179 179 179
179 179 179
179 179 179
179 179 179
179 179 179
179 179 179
179 179 179
179 179 179
179 179 179
179 179 179
179 179 179
179 179 179
179 179 179
179 179 179
179 179 179
179 179 179
179 179 179
179 179 179
179 179 179
179 179 179
179 179 179
179 179 179
179 179 179
179 179 179
179 179 179
179 179 179
179 179 179
179 179 179
179 179 179
179 179 179
179 179 179
179 179 179
179 179 179
179 179 179
179 179 179
179 179 179
179 179 179
179 179 179
179 179 179
179 179 179
179 179 179
179 179 179
179 179 179
179 179 179
179 179 179
179 179 179
179 179 179
179 179 179
179 179 179
179 179 179
179 179 179
179 179 179
179 179 179
179 179 179
179 179 179
179 179 179
179 179 179
179 179 179
179 179 179
179 179 179
179 179 179
179 179 179
179 179 179
179 179 179
179 179 179
179 179 179
179 179 179
179 179 179
179 179 179
179 179 179
179 179 179
179 179 179
179 179 179
179 179 179
179 179 179
179 179 179
179 179 179
0 0 0
0 0 0
0 0 0
0 0 0
0 0 0
0 0 0
0 0 0
0 0 0
0 0 0
0 0 0
0 0 0
0 0 0
0 0 0
0 0 0
0 0 0
0 0 0
0 0 0
0 0 0
0 0 0
0 0 0
0 0 0
0 0 0
0 0 0
0 0 0
0 0 0
0 0 0
0 0 0
0 0 0
0 0 0
0 0 0
0 0 0
0 0 0
0 0 0
0 0 0
0 0 0
0 0 0
0 0 0
0 0 0
0 0 0
0 0 0
0 0 0
0 0 0
0 0 0
0 0 0
0 0 0
0 0 0
0 0 0
0 0 0
0 0 0
0 0 0
0 0 0
0 0 0
0 0 0
0 0 0
0 0 0
0 0 0
0 0 0
0 0 0
0 0 0
0 0 0
0 0 0
0 0 0
0 0 0
0 0 0
0 0 0
0 0 0
0 0 0
0 0 0
0 0 0
0 0 0
0 0 0
0 0 0
0 0 0
0 0 0
0 0 0
0 0 0
0 0 0
0 0 0
0 0 0
0 0 0
0 0 0
0 0 0
0 0 0
0 0 0
0 0 0
0 0 0
0 0 0
0 0 0
0 0 0
0 0 0
0 0 0
0 0 0
0 0 0
0 0 0
0 0 0
0 0 0
0 0 0
0 0 0
0 0 0
0 0 0
0 0 0
0 0 0
0 0 0
0 0 0
0 0 0
0 0 0
0 0 0
0 0 0
0 0 0
0 0 0
0 0 0
0 0 0
0 0 0
0 0 0
0 0 0
0 0 0
0 0 0
0 0 0
0 0 0
0 0 0
0 0 0
0 0 0
0 0 0
0 0 0
0 0 0
0 0 0
0 0 0
0 0 0
0 0 0
0 0 0
0 0 0
0 0 0
0 0 0
0 0 0
0 0 0
0 0 0
0 0 0
0 0 0
0 0 0
0 0 0
0 0 0
0 0 0
0 0 0
0 0 0
0 0 0
0 0 0
0 0 0
0 0 0
0 0 0
0 0 0
0 0 0
0 0 0
0 0 0
0 0 0
0 0 0
0 0 0
0 0 0
0 0 0
0 0 0
0 0 0
0 0 0
0 0 0
0 0 0
0 0 0
0 0 0
0 0 0
0 0 0
0 0 0
0 0 0
0 0 0
0 0 0
0 0 0
0 0 0
0 0 0
0 0 0
0 0 0
0 0 0
0 0 0
0 0 0
0 0 0
0 0 0
0 0 0
0 0 0
0 0 0
0 0 0
0 0 0
0 0 0
0 0 0
0 0 0
0 0 0
0 0 0
0 0 0
0 0 0
0 0 0
0 0 0
0 0 0
0 0 0
0 0 0
179 179 179
179 179 179
179 179 179
179 179 179
179 179 179
179 179 179
179 179 179
179 179 179
179 179 179
179 179 179
179 179 179
179 179 179
179 179 179
179 179 179
179 179 179
179 179 179
179 179 179
179 179 179
179 179 179
179 179 179
179 179 179
179 179 179
179 179 179
179 179 179
179 179 179
179 179 179
179 179 179
179 179 179
179 179 179
179 179 179
179 179 179
179 179 179
179 179 179
179 179 179
179 179 179
179 179 179
179 179 179
179 179 179
179 179 179
179 179 179
179 179 179
179 179 179
179 179 179
179 179 179
179 179 179
179 179 179
179 179 179
179 179 179
179 179 179
179 179 179
179 179 179
179 179 179
179 179 179
179 179 179
179 179 179
179 179 179
179 179 179
179 179 179
179 179 179
179 179 179
179 179 179
179 179 179
179 179 179
179 179 179
179 179 179
179 179 179
179 179 179
179 179 179
179 179 179
179 179 179
179 179 179
179 179 179
179 179 179
179 179 179
179 179 179
179 179 179
179 179 179
179 179 179
179 179 179
179 179 179
179 179 179
179 179 179
179 179 179
179 179 179
179 179 179
179 179 179
179 179 179
179 179 179
179 179 179
179 179 179
179 179 179
179 179 179
179 179 179
179 179 179
179 179 179
179 179 179
179 179 179
179 179 179
179 179 179
179 179 179
179 179 179
179 179 179
179 179 179
179 179 179
179 179 179
179 179 179
179 179 179
179 179 179
179 179 179
179 179 179
179 179 179
179 179 179
179 179 179
179 179 179
179 179 179
179 179 179
179 179 179
179 179 179
179 179 179
179 179 179
179 179 179
179 179 179
179 179 179
179 179 179
179 179 179
179 179 179
179 179 179
179 179 179
179 179 179
179 179 179
179 179 179
179 179 179
179 179 179
179 179 179
179 179 179
179 179 179
179 179 179
179 179 179
179 179 179
179 179 179
179 179 179
179 179 179
179 179 179
179 179 179
179 179 179
179 179 179
179 179 179
179 179 179
179 179 179
179 179 179
179 179 179
179 179 179
179 179 179
179 179 179
179 179 179
179 179 179
179 179 179
179 179 179
179 179 179
179 179 179
179 179 179
179 179 179
179 179 179
179 179 179
179 179 179
179 179 179
179 179 179
179 179 179
179 179 179
179 179 179
179 179 179
179 179 179
179 179 179
179 179 179
179 179 179
179 179 179
179 179 179
179 179 179
179 179 179
179 179 179
179 179 179
179 179 179
179 179 179
179 179 179
179 179 179
179 179 179
179 179 179
179 179 179
179 179 179
179 179 179
179 179 179
179 179 179
179 179 179
179 179 179
179 179 179
179 179 179
179 179 179
179 179 179
179 179 179
179 179 179
179 179 179
0 0 0
0 0 0
0 0 0
0 0 0
0 0 0
0 0 0
0 0 0
0 0 0
0 0 0
0 0 0
0 0 0
0 0 0
0 0 0
0 0 0
0 0 0
0 0 0
0 0 0
0 0 0
0 0 0
0 0 0
0 0 0
0 0 0
0 0 0
0 0 0
0 0 0
0 0 0
0 0 0
0 0 0
0 0 0
0 0 0
0 0 0
0 0 0
0 0 0
0 0 0
0 0 0
0 0 0
0 0 0
0 0 0
0 0 0
0 0 0
0 0 0
0 0 0
0 0 0
0 0 0
0 0 0
0 0 0
0 0 0
0 0 0
0 0 0
0 0 0
0 0 0
0 0 0
0 0 0
0 0 0
0 0 0
0 0 0
0 0 0
0 0 0
0 0 0
0 0 0
0 0 0
0 0 0
0 0 0
0 0 0
0 0 0
0 0 0
0 0 0
0 0 0
0 0 0
0 0 0
0 0 0
0 0 0
0 0 0
0 0 0
0 0 0
0 0 0
0 0 0
0 0 0
0 0 0
0 0 0
0 0 0
0 0 0
0 0 0
0 0 0
0 0 0
0 0 0
0 0 0
0 0 0
0 0 0
0 0 0
0 0 0
0 0 0
0 0 0
0 0 0
0 0 0
0 0 0
0 0 0
0 0 0
0 0 0
0 0 0
0 0 0
0 0 0
0 0 0
0 0 0
0 0 0
0 0 0
0 0 0
0 0 0
0 0 0
0 0 0
0 0 0
0 0 0
0 0 0
0 0 0
0 0 0
0 0 0
0 0 0
0 0 0
0 0 0
0 0 0
0 0 0
0 0 0
0 0 0
0 0 0
0 0 0
0 0 0
0 0 0
0 0 0
0 0 0
0 0 0
0 0 0
0 0 0
0 0 0
0 0 0
0 0 0
0 0 0
0 0 0
0 0 0
0 0 0
0 0 0
0 0 0
0 0 0
0 0 0
0 0 0
0 0 0
0 0 0
0 0 0
0 0 0
0 0 0
0 0 0
0 0 0
0 0 0
0 0 0
0 0 0
0 0 0
0 0 0
0 0 0
0 0 0
0 0 0
0 0 0
0 0 0
0 0 0
0 0 0
0 0 0
0 0 0
0 0 0
0 0 0
0 0 0
0 0 0
0 0 0
0 0 0
0 0 0
0 0 0
0 0 0
0 0 0
0 0 0
0 0 0
0 0 0
0 0 0
0 0 0
0 0 0
0 0 0
0 0 0
0 0 0
0 0 0
0 0 0
0 0 0
0 0 0
0 0 0
0 0 0
0 0 0
0 0 0
0 0 0
0 0 0
0 0 0
0 0 0
0 0 0
0 0 0
0 0 0
0 0 0
179 179 179
179 179 179
179 179 179
179 179 179
179 179 179
179 179 179
179 179 179
179 179 179
179 179 179
179 179 179
179 179 179
179 179 179
179 179 179
179 179 179
179 179 179
179 179 179
179 179 179
179 179 179
179 179 179
179 179 179
179 179 179
179 179 179
179 179 179
179 179 179
179 179 179
179 179 179
179 179 179
179 179 179
179 179 179
179 179 179
179 179 179
179 179 179
179 179 179
179 179 179
179 179 179
179 179 179
179 179 179
179 179 179
179 179 179
179 179 179
179 179 179
179 179 179
179 179 179
179 179 179
179 179 179
179 179 179
179 179 179
179 179 179
179 179 179
179 179 179
179 179 179
179 179 179
179 179 179
179 179 179
179 179 179
179 179 179
179 179 179
179 179 179
179 179 179
179 179 179
179 179 179
179 179 179
179 179 179
179 179 179
179 179 179
179 179 179
179 179 179
179 179 179
179 179 179
179 179 179
179 179 179
179 179 179
179 179 179
179 179 179
179 179 179
179 179 179
179 179 179
179 179 179
179 179 179
179 179 179
179 179 179
179 179 179
179 179 179
179 179 179
179 179 179
179 179 179
179 179 179
179 179 179
179 179 179
179 179 179
179 179 179
179 179 179
179 179 179
179 179 179
179 179 179
179 179 179
179 179 179
179 179 179
179 179 179
179 179 179
179 179 179
179 179 179
179 179 179
179 179 179
179 179 179
179 179 179
179 179 179
179 179 179
179 179 179
179 179 179
179 179 179
179 179 179
179 179 179
179 179 179
179 179 179
179 179 179
179 179 179
179 179 179
179 179 179
179 179 179
179 179 179
179 179 179
179 179 179
179 179 179
179 179 179
179 179 179
179 179 179
179 179 179
179 179 179
179 179 179
179 179 179
179 179 179
179 179 179
179 179 179
179 179 179
179 179 179
179 179 179
179 179 179
179 179 179
179 179 179
179 179 179
179 179 179
179 179 179
179 179 179
179 179 179
179 179 179
179 179 179
179 179 179
179 179 179
179 179 179
179 179 179
179 179 179
179 179 179
179 179 179
179 179 179
179 179 179
179 179 179
179 179 179
179 179 179
179 179 179
179 179 179
179 179 179
179 179 179
179 179 179
179 179 179
179 179 179
179 179 179
179 179 179
179 179 179
179 179 179
179 179 179
179 179 179
179 179 179
179 179 179
179 179 179
179 179 179
179 179 179
179 179 179
179 179 179
179 179 179
179 179 179
179 179 179
179 179 179
179 179 179
179 179 179
179 179 179
179 179 179
179 179 179
179 179 179
179 179 179
179 179 179
179 179 179
179 179 179
179 179 179
179 179 179
179 179 179
179 179 179
179 179 179
179 179 179
179 179 179
0 0 0
0 0 0
0 0 0
0 0 0
0 0 0
0 0 0
0 0 0
0 0 0
0 0 0
0 0 0
0 0 0
0 0 0
0 0 0
0 0 0
0 0 0
0 0 0
0 0 0
0 0 0
0 0 0
0 0 0
0 0 0
0 0 0
0 0 0
0 0 0
0 0 0
0 0 0
0 0 0
0 0 0
0 0 0
0 0 0
0 0 0
0 0 0
0 0 0
0 0 0
0 0 0
0 0 0
0 0 0
0 0 0
0 0 0
0 0 0
0 0 0
0 0 0
0 0 0
0 0 0
0 0 0
0 0 0
0 0 0
0 0 0
0 0 0
0 0 0
0 0 0
0 0 0
0 0 0
0 0 0
0 0 0
0 0 0
0 0 0
0 0 0
0 0 0
0 0 0
0 0 0
0 0 0
0 0 0
0 0 0
0 0 0
0 0 0
0 0 0
0 0 0
0 0 0
0 0 0
0 0 0
0 0 0
0 0 0
0 0 0
0 0 0
0 0 0
0 0 0
0 0 0
0 0 0
0 0 0
0 0 0
0 0 0
0 0 0
0 0 0
0 0 0
0 0 0
0 0 0
0 0 0
0 0 0
0 0 0
0 0 0
0 0 0
0 0 0
0 0 0
0 0 0
0 0 0
0 0 0
0 0 0
0 0 0
0 0 0
0 0 0
0 0 0
0 0 0
0 0 0
0 0 0
0 0 0
0 0 0
0 0 0
0 0 0
0 0 0
0 0 0
0 0 0
0 0 0
0 0 0
0 0 0
0 0 0
0 0 0
0 0 0
0 0 0
0 0 0
0 0 0
0 0 0
0 0 0
0 0 0
0 0 0
0 0 0
0 0 0
0 0 0
0 0 0
0 0 0
0 0 0
0 0 0
0 0 0
0 0 0
0 0 0
0 0 0
0 0 0
0 0 0
0 0 0
0 0 0
0 0 0
0 0 0
0 0 0
0 0 0
0 0 0
0 0 0
0 0 0
0 0 0
0 0 0
0 0 0
0 0 0
0 0 0
0 0 0
0 0 0
0 0 0
0 0 0
0 0 0
0 0 0
0 0 0
0 0 0
0 0 0
0 0 0
0 0 0
0 0 0
0 0 0
0 0 0
0 0 0
0 0 0
0 0 0
0 0 0
0 0 0
0 0 0
0 0 0
0 0 0
0 0 0
0 0 0
0 0 0
0 0 0
0 0 0
0 0 0
0 0 0
0 0 0
0 0 0
0 0 0
0 0 0
0 0 0
0 0 0
0 0 0
0 0 0
0 0 0
0 0 0
0 0 0
0 0 0
0 0 0
0 0 0
0 0 0
0 0 0
0 0 0
0 0 0
0 0 0
179 179 179
179 179 179
179 179 179
179 179 179
179 179 179
179 179 179
179 179 179
179 179 179
179 179 179
179 179 179
179 179 179
179 179 179
179 179 179
179 179 179
179 179 179
179 179 179
179 179 179
179 179 179
179 179 179
179 179 179
179 179 179
179 179 179
179 179 179
179 179 179
179 179 179
179 179 179
179 179 179
179 179 179
179 179 179
179 179 179
179 179 179
179 179 179
179 179 179
179 179 179
179 179 179
179 179 179
179 179 179
179 179 179
179 179 179
179 179 179
179 179 179
179 179 179
179 179 179
179 179 179
179 179 179
179 179 179
179 179 179
179 179 179
179 179 179
179 179 179
179 179 179
179 179 179
179 179 179
179 179 179
179 179 179
179 179 179
179 179 179
179 179 179
179 179 179
179 179 179
179 179 179
179 179 179
179 179 179
179 179 179
179 179 179
179 179 179
179 179 179
179 179 179
179 179 179
179 179 179
179 179 179
179 179 179
179 179 179
179 179 179
179 179 179
179 179 179
179 179 179
179 179 179
179 179 179
179 179 179
179 179 179
179 179 179
179 179 179
179 179 179
179 179 179
179 179 179
179 179 179
179 179 179
179 179 179
179 179 179
179 179 179
179 179 179
179 179 179
179 179 179
179 179 179
179 179 179
179 179 179
179 179 179
179 179 179
179 179 179
179 179 179
179 179 179
179 179 179
179 179 179
179 179 179
179 179 179
179 179 179
179 179 179
179 179 179
179 179 179
179 179 179
179 179 179
179 179 179
179 179 179
179 179 179
179 179 179
179 179 179
179 179 179
179 179 179
179 179 179
179 179 179
179 179 179
179 179 179
179 179 179
179 179 179
179 179 179
179 179 179
179 179 179
179 179 179
179 179 179
179 179 179
179 179 179
179 179 179
179 179 179
179 179 179
179 179 179
179 179 179
179 179 179
179 179 179
179 179 179
179 179 179
179 179 179
179 179 179
179 179 179
179 179 179
179 179 179
179 179 179
179 179 179
179 179 179
179 179 179
179 179 179
179 179 179
179 179 179
179 179 179
179 179 179
179 179 179
179 179 179
179 179 179
179 179 179
179 179 179
179 179 179
179 179 179
179 179 179
179 179 179
179 179 179
179 179 179
179 179 179
179 179 179
179 179 179
179 179 179
179 179 179
179 179 179
179 179 179
179 179 179
179 179 179
179 179 179
179 179 179
179 179 179
179 179 179
179 179 179
179 179 179
179 179 179
179 179 179
179 179 179
179 179 179
179 179 179
179 179 179
179 179 179
179 179 179
179 179 179
179 179 179
179 179 179
179 179 179
179 179 179
179 179 179
179 179 179
179 179 179
179 179 179
179 179 179
0 0 0
0 0 0
0 0 0
0 0 0
0 0 0
0 0 0
0 0 0
0 0 0
0 0 0
0 0 0
0 0 0
0 0 0
0 0 0
0 0 0
0 0 0
0 0 0
0 0 0
0 0 0
0 0 0
0 0 0
0 0 0
0 0 0
0 0 0
0 0 0
0 0 0
0 0 0
0 0 0
0 0 0
0 0 0
0 0 0
0 0 0
0 0 0
0 0 0
0 0 0
0 0 0
0 0 0
0 0 0
0 0 0
0 0 0
0 0 0
0 0 0
0 0 0
0 0 0
0 0 0
0 0 0
0 0 0
0 0 0
0 0 0
0 0 0
0 0 0
0 0 0
0 0 0
0 0 0
0 0 0
0 0 0
0 0 0
0 0 0
0 0 0
0 0 0
0 0 0
0 0 0
0 0 0
0 0 0
0 0 0
0 0 0
0 0 0
0 0 0
0 0 0
0 0 0
0 0 0
0 0 0
0 0 0
0 0 0
0 0 0
0 0 0
0 0 0
0 0 0
0 0 0
0 0 0
0 0 0
0 0 0
0 0 0
0 0 0
0 0 0
0 0 0
0 0 0
0 0 0
0 0 0
0 0 0
0 0 0
0 0 0
0 0 0
0 0 0
0 0 0
0 0 0
0 0 0
0 0 0
0 0 0
0 0 0
0 0 0
0 0 0
0 0 0
0 0 0
0 0 0
0 0 0
0 0 0
0 0 0
0 0 0
0 0 0
0 0 0
0 0 0
0 0 0
0 0 0
0 0 0
0 0 0
0 0 0
0 0 0
0 0 0
0 0 0
0 0 0
0 0 0
0 0 0
0 0 0
0 0 0
0 0 0
0 0 0
0 0 0
0 0 0
0 0 0
0 0 0
0 0 0
0 0 0
0 0 0
0 0 0
0 0 0
0 0 0
0 0 0
0 0 0
0 0 0
0 0 0
0 0 0
0 0 0
0 0 0
0 0 0
0 0 0
0 0 0
0 0 0
0 0 0
0 0 0
0 0 0
0 0 0
0 0 0
0 0 0
0 0 0
0 0 0
0 0 0
0 0 0
0 0 0
0 0 0
0 0 0
0 0 0
0 0 0
0 0 0
0 0 0
0 0 0
0 0 0
0 0 0
0 0 0
0 0 0
0 0 0
0 0 0
0 0 0
0 0 0
0 0 0
0 0 0
0 0 0
0 0 0
0 0 0
0 0 0
0 0 0
0 0 0
0 0 0
0 0 0
0 0 0
0 0 0
0 0 0
0 0 0
0 0 0
0 0 0
0 0 0
0 0 0
0 0 0
0 0 0
0 0 0
0 0 0
0 0 0
0 0 0
0 0 0
0 0 0
0 0 0
0 0 0
0 0 0
179 179 179
179 179 179
179 179 179
179 179 179
179 179 179
179 179 179
179 179 179
179 179 179
179 179 179
179 179 179
179 179 179
179 179 179
179 179 179
179 179 179
179 179 179
179 179 179
179 179 179
179 179 179
179 179 179
179 179 179
179 179 179
179 179 179
179 179 179
179 179 179
179 179 179
179 179 179
179 179 179
179 179 179
179 179 179
179 179 179
179 179 179
179 179 179
179 179 179
179 179 179
179 179 179
179 179 179
179 179 179
179 179 179
179 179 179
179 179 179
179 179 179
179 179 179
179 179 179
179 179 179
179 179 179
179 179 179
179 179 179
179 179 179
179 179 179
179 179 179
179 179 179
179 179 179
179 179 179
179 179 179
179 179 179
179 179 179
179 179 179
179 179 179
179 179 179
179 179 179
179 179 179
179 179 179
179 179 179
179 179 179
179 179 179
179 179 179
179 179 179
179 179 179
179 179 179
179 179 179
179 179 179
179 179 179
179 179 179
179 179 179
179 179 179
179 179 179
179 179 179
179 179 179
179 179 179
179 179 179
179 179 179
179 179 179
179 179 179
179 179 179
179 179 179
179 179 179
179 179 179
179 179 179
179 179 179
179 179 179
179 179 179
179 179 179
179 179 179
179 179 179
179 179 179
179 179 179
179 179 179
179 179 179
179 179 179
179 179 179
179 179 179
179 179 179
179 179 179
179 179 179
179 179 179
179 179 179
179 179 179
179 179 179
179 179 179
179 179 179
179 179 179
179 179 179
179 179 179
179 179 179
179 179 179
179 179 179
179 179 179
179 179 179
179 179 179
179 179 179
179 179 179
179 179 179
179 179 179
179 179 179
179 179 179
179 179 179
179 179 179
179 179 179
179 179 179
179 179 179
179 179 179
179 179 179
179 179 179
179 179 179
179 179 179
179 179 179
179 179 179
179 179 179
179 179 179
179 179 179
179 179 179
179 179 179
179 179 179
179 179 179
179 179 179
179 179 179
179 179 179
179 179 179
179 179 179
179 179 179
179 179 179
179 179 179
179 179 179
179 179 179
179 179 179
179 179 179
179 179 179
179 179 179
179 179 179
179 179 179
179 179 179
179 179 179
179 179 179
179 179 179
179 179 179
179 179 179
179 179 179
179 179 179
179 179 179
179 179 179
179 179 179
179 179 179
179 179 179
179 179 179
179 179 179
179 179 179
179 179 179
179 179 179
179 179 179
179 179 179
179 179 179
179 179 179
179 179 179
179 179 179
179 179 179
179 179 179
179 179 179
179 179 179
179 179 179
179 179 179
179 179 179
179 179 179
179 179 179
179 179 179
179 179 179
179 179 179
179 179 179
179 179 179
0 0 0
0 0 0
0 0 0
0 0 0
0 0 0
0 0 0
0 0 0
0 0 0
0 0 0
0 0 0
0 0 0
0 0 0
0 0 0
0 0 0
0 0 0
0 0 0
0 0 0
0 0 0
0 0 0
0 0 0
0 0 0
0 0 0
0 0 0
0 0 0
0 0 0
0 0 0
0 0 0
0 0 0
0 0 0
0 0 0
0 0 0
0 0 0
0 0 0
0 0 0
0 0 0
0 0 0
0 0 0
0 0 0
0 0 0
0 0 0
0 0 0
0 0 0
0 0 0
0 0 0
0 0 0
0 0 0
0 0 0
0 0 0
0 0 0
0 0 0
0 0 0
0 0 0
0 0 0
0 0 0
0 0 0
0 0 0
0 0 0
0 0 0
0 0 0
0 0 0
0 0 0
0 0 0
0 0 0
0 0 0
0 0 0
0 0 0
0 0 0
0 0 0
0 0 0
0 0 0
0 0 0
0 0 0
0 0 0
0 0 0
0 0 0
0 0 0
0 0 0
0 0 0
0 0 0
0 0 0
0 0 0
0 0 0
0 0 0
0 0 0
0 0 0
0 0 0
0 0 0
0 0 0
0 0 0
0 0 0
0 0 0
0 0 0
0 0 0
0 0 0
0 0 0
0 0 0
0 0 0
0 0 0
0 0 0
0 0 0
0 0 0
0 0 0
0 0 0
0 0 0
0 0 0
0 0 0
0 0 0
0 0 0
0 0 0
0 0 0
0 0 0
0 0 0
0 0 0
0 0 0
0 0 0
0 0 0
0 0 0
0 0 0
0 0 0
0 0 0
0 0 0
0 0 0
0 0 0
0 0 0
0 0 0
0 0 0
0 0 0
0 0 0
0 0 0
0 0 0
0 0 0
0 0 0
0 0 0
0 0 0
0 0 0
0 0 0
0 0 0
0 0 0
0 0 0
0 0 0
0 0 0
0 0 0
0 0 0
0 0 0
0 0 0
0 0 0
0 0 0
0 0 0
0 0 0
0 0 0
0 0 0
0 0 0
0 0 0
0 0 0
0 0 0
0 0 0
0 0 0
0 0 0
0 0 0
0 0 0
0 0 0
0 0 0
0 0 0
0 0 0
0 0 0
0 0 0
0 0 0
0 0 0
0 0 0
0 0 0
0 0 0
0 0 0
0 0 0
0 0 0
0 0 0
0 0 0
0 0 0
0 0 0
0 0 0
0 0 0
0 0 0
0 0 0
0 0 0
0 0 0
0 0 0
0 0 0
0 0 0
0 0 0
0 0 0
0 0 0
0 0 0
0 0 0
0 0 0
0 0 0
0 0 0
0 0 0
0 0 0
0 0 0
0 0 0
0 0 0
0 0 0
0 0 0
179 179 179
179 179 179
179 179 179
179 179 179
179 179 179
179 179 179
179 179 179
179 179 179
179 179 179
179 179 179
179 179 179
179 179 179
179 179 179
179 179 179
179 179 179
179 179 179
179 179 179
179 179 179
179 179 179
179 179 179
179 179 179
179 179 179
179 179 179
179 179 179
179 179 179
179 179 179
179 179 179
179 179 179
179 179 179
179 179 179
179 179 179
179 179 179
179 179 179
179 179 179
179 179 179
179 179 179
179 179 179
179 179 179
179 179 179
179 179 179
179 179 179
179 179 179
179 179 179
179 179 179
179 179 179
179 179 179
179 179 179
179 179 179
179 179 179
179 179 179
179 179 179
179 179 179
179 179 179
179 179 179
179 179 179
179 179 179
179 179 179
179 179 179
179 179 179
179 179 179
179 179 179
179 179 179
179 179 179
179 179 179
179 179 179
179 179 179
179 179 179
179 179 179
179 179 179
179 179 179
179 179 179
179 179 179
179 179 179
179 179 179
179 179 179
179 179 179
179 179 179
179 179 179
179 179 179
179 179 179
179 179 179
179 179 179
179 179 179
179 179 179
179 179 179
179 179 179
179 179 179
179 179 179
179 179 179
179 179 179
179 179 179
179 179 179
179 179 179
179 179 179
179 179 179
179 179 179
179 179 179
179 179 179
179 179 179
179 179 179
179 179 179
179 179 179
179 179 179
179 179 179
179 179 179
179 179 179
179 179 179
179 179 179
179 179 179
179 179 179
179 179 179
179 179 179
179 179 179
179 179 179
179 179 179
179 179 179
179 179 179
179 179 179
179 179 179
179 179 179
179 179 179
179 179 179
179 179 179
179 179 179
179 179 179
179 179 179
179 179 179
179 179 179
179 179 179
179 179 179
179 179 179
179 179 179
179 179 179
179 179 179
179 179 179
179 179 179
179 179 179
179 179 179
179 179 179
179 179 179
179 179 179
179 179 179
179 179 179
179 179 179
179 179 179
179 179 179
179 179 179
179 179 179
179 179 179
179 179 179
179 179 179
179 179 179
179 179 179
179 179 179
179 179 179
179 179 179
179 179 179
179 179 179
179 179 179
179 179 179
179 179 179
179 179 179
179 179 179
179 179 179
179 179 179
179 179 179
179 179 179
179 179 179
179 179 179
179 179 179
179 179 179
179 179 179
179 179 179
179 179 179
179 179 179
179 179 179
179 179 179
179 179 179
179 179 179
179 179 179
179 179 179
179 179 179
179 179 179
179 179 179
179 179 179
179 179 179
179 179 179
179 179 179
179 179 179
179 179 179
179 179 179
179 179 179
179 179 179
179 179 179
179 179 179
179 179 179
179 179 179
179 179 179
0 0 0
0 0 0
0 0 0
0 0 0
0 0 0
0 0 0
0 0 0
0 0 0
0 0 0
0 0 0
0 0 0
0 0 0
0 0 0
0 0 0
0 0 0
0 0 0
0 0 0
0 0 0
0 0 0
0 0 0
0 0 0
0 0 0
0 0 0
0 0 0
0 0 0
0 0 0
0 0 0
0 0 0
0 0 0
0 0 0
0 0 0
0 0 0
0 0 0
0 0 0
0 0 0
0 0 0
0 0 0
0 0 0
0 0 0
0 0 0
0 0 0
0 0 0
0 0 0
0 0 0
0 0 0
0 0 0
0 0 0
0 0 0
0 0 0
0 0 0
0 0 0
0 0 0
0 0 0
0 0 0
0 0 0
0 0 0
0 0 0
0 0 0
0 0 0
0 0 0
0 0 0
0 0 0
0 0 0
0 0 0
0 0 0
0 0 0
0 0 0
0 0 0
0 0 0
0 0 0
0 0 0
0 0 0
0 0 0
0 0 0
0 0 0
0 0 0
0 0 0
0 0 0
0 0 0
0 0 0
0 0 0
0 0 0
0 0 0
0 0 0
0 0 0
0 0 0
0 0 0
0 0 0
0 0 0
0 0 0
0 0 0
0 0 0
0 0 0
0 0 0
0 0 0
0 0 0
0 0 0
0 0 0
0 0 0
0 0 0
0 0 0
0 0 0
0 0 0
0 0 0
0 0 0
0 0 0
0 0 0
0 0 0
0 0 0
0 0 0
0 0 0
0 0 0
0 0 0
0 0 0
0 0 0
0 0 0
0 0 0
0 0 0
0 0 0
0 0 0
0 0 0
0 0 0
0 0 0
0 0 0
0 0 0
0 0 0
0 0 0
0 0 0
0 0 0
0 0 0
0 0 0
0 0 0
0 0 0
0 0 0
0 0 0
0 0 0
0 0 0
0 0 0
0 0 0
0 0 0
0 0 0
0 0 0
0 0 0
0 0 0
0 0 0
0 0 0
0 0 0
0 0 0
0 0 0
0 0 0
0 0 0
0 0 0
0 0 0
0 0 0
0 0 0
0 0 0
0 0 0
0 0 0
0 0 0
0 0 0
0 0 0
0 0 0
0 0 0
0 0 0
0 0 0
0 0 0
0 0 0
0 0 0
0 0 0
0 0 0
0 0 0
0 0 0
0 0 0
0 0 0
0 0 0
0 0 0
0 0 0
0 0 0
0 0 0
0 0 0
0 0 0
0 0 0
0 0 0
0 0 0
0 0 0
0 0 0
0 0 0
0 0 0
0 0 0
0 0 0
0 0 0
0 0 0
0 0 0
0 0 0
0 0 0
0 0 0
0 0 0
0 0 0
0 0 0
0 0 0
0 0 0
0 0 0
179 179 179
179 179 179
179 179 179
179 179 179
179 179 179
179 179 179
179 179 179
179 179 179
179 179 179
179 179 179
179 179 179
179 179 179
179 179 179
179 179 179
179 179 179
179 179 179
179 179 179
179 179 179
179 179 179
179 179 179
179 179 179
179 179 179
179 179 179
179 179 179
179 179 179
179 179 179
179 179 179
179 179 179
179 179 179
179 179 179
179 179 179
179 179 179
179 179 179
179 179 179
179 179 179
179 179 179
179 179 179
179 179 179
179 179 179
179 179 179
179 179 179
179 179 179
179 179 179
179 179 179
179 179 179
179 179 179
179 179 179
179 179 179
179 179 179
179 179 179
179 179 179
179 179 179
179 179 179
179 179 179
179 179 179
179 179 179
179 179 179
179 179 179
179 179 179
179 179 179
179 179 179
179 179 179
179 179 179
179 179 179
179 179 179
179 179 179
179 179 179
179 179 179
179 179 179
179 179 179
179 179 179
179 179 179
179 179 179
179 179 179
179 179 179
179 179 179
179 179 179
179 179 179
179 179 179
179 179 179
179 179 179
179 179 179
179 179 179
179 179 179
179 179 179
179 179 179
179 179 179
179 179 179
179 179 179
179 179 179
179 179 179
179 179 179
179 179 179
179 179 179
179 179 179
179 179 179
179 179 179
179 179 179
179 179 179
179 179 179
179 179 179
179 179 179
179 179 179
179 179 179
179 179 179
179 179 179
179 179 179
179 179 179
179 179 179
179 179 179
179 179 179
179 179 179
179 179 179
179 179 179
179 179 179
179 179 179
179 179 179
179 179 179
179 179 179
179 179 179
179 179 179
179 179 179
179 179 179
179 179 179
179 179 179
179 179 179
179 179 179
179 179 179
179 179 179
179 179 179
179 179 179
179 179 179
179 179 179
179 179 179
179 179 179
179 179 179
179 179 179
179 179 179
179 179 179
179 179 179
179 179 179
179 179 179
179 179 179
179 179 179
179 179 179
179 179 179
179 179 179
179 179 179
179 179 179
179 179 179
179 179 179
179 179 179
179 179 179
179 179 179
179 179 179
179 179 179
179 179 179
179 179 179
179 179 179
179 179 179
179 179 179
179 179 179
179 179 179
179 179 179
179 179 179
179 179 179
179 179 179
179 179 179
179 179 179
179 179 179
179 179 179
179 179 179
179 179 179
179 179 179
179 179 179
179 179 179
179 179 179
179 179 179
179 179 179
179 179 179
179 179 179
179 179 179
179 179 179
179 179 179
179 179 179
179 179 179
179 179 179
179 179 179
179 179 179
179 179 179
179 179 179
179 179 179
179 179 179
179 179 179
179 179 179
179 179 179
179 179 179
0 0 0
0 0 0
0 0 0
0 0 0
0 0 0
0 0 0
0 0 0
0 0 0
0 0 0
0 0 0
0 0 0
0 0 0
0 0 0
0 0 0
0 0 0
0 0 0
0 0 0
0 0 0
0 0 0
0 0 0
0 0 0
0 0 0
0 0 0
0 0 0
0 0 0
0 0 0
0 0 0
0 0 0
0 0 0
0 0 0
0 0 0
0 0 0
0 0 0
0 0 0
0 0 0
0 0 0
0 0 0
0 0 0
0 0 0
0 0 0
0 0 0
0 0 0
0 0 0
0 0 0
0 0 0
0 0 0
0 0 0
0 0 0
0 0 0
0 0 0
0 0 0
0 0 0
0 0 0
0 0 0
0 0 0
0 0 0
0 0 0
0 0 0
0 0 0
0 0 0
0 0 0
0 0 0
0 0 0
0 0 0
0 0 0
0 0 0
0 0 0
0 0 0
0 0 0
0 0 0
0 0 0
0 0 0
0 0 0
0 0 0
0 0 0
0 0 0
0 0 0
0 0 0
0 0 0
0 0 0
0 0 0
0 0 0
0 0 0
0 0 0
0 0 0
0 0 0
0 0 0
0 0 0
0 0 0
0 0 0
0 0 0
0 0 0
0 0 0
0 0 0
0 0 0
0 0 0
0 0 0
0 0 0
0 0 0
0 0 0
0 0 0
0 0 0
0 0 0
0 0 0
0 0 0
0 0 0
0 0 0
0 0 0
0 0 0
0 0 0
0 0 0
0 0 0
0 0 0
0 0 0
0 0 0
0 0 0
0 0 0
0 0 0
0 0 0
0 0 0
0 0 0
0 0 0
0 0 0
0 0 0
0 0 0
0 0 0
0 0 0
0 0 0
0 0 0
0 0 0
0 0 0
0 0 0
0 0 0
0 0 0
0 0 0
0 0 0
0 0 0
0 0 0
0 0 0
0 0 0
0 0 0
0 0 0
0 0 0
0 0 0
0 0 0
0 0 0
0 0 0
0 0 0
0 0 0
0 0 0
0 0 0
0 0 0
0 0 0
0 0 0
0 0 0
0 0 0
0 0 0
0 0 0
0 0 0
0 0 0
0 0 0
0 0 0
0 0 0
0 0 0
0 0 0
0 0 0
0 0 0
0 0 0
0 0 0
0 0 0
0 0 0
0 0 0
0 0 0
0 0 0
0 0 0
0 0 0
0 0 0
0 0 0
0 0 0
0 0 0
0 0 0
0 0 0
0 0 0
0 0 0
0 0 0
0 0 0
0 0 0
0 0 0
0 0 0
0 0 0
0 0 0
0 0 0
0 0 0
0 0 0
0 0 0
0 0 0
0 0 0
0 0 0
0 0 0
0 0 0
0 0 0
0 0 0
0 0 0
0 0 0
179 179 179
179 179 179
179 179 179
179 179 179
179 179 179
179 179 179
179 179 179
179 179 179
179 179 179
179 179 179
179 179 179
179 179 179
179 179 179
179 179 179
179 179 179
179 179 179
179 179 179
179 179 179
179 179 179
179 179 179
179 179 179
179 179 179
179 179 179
179 179 179
179 179 179
179 179 179
179 179 179
179 179 179
179 179 179
179 179 179
179 179 179
179 179 179
179 179 179
179 179 179
179 179 179
179 179 179
179 179 179
179 179 179
179 179 179
179 179 179
179 179 179
179 179 179
179 179 179
179 179 179
179 179 179
179 179 179
179 179 179
179 179 179
179 179 179
179 179 179
179 179 179
179 179 179
179 179 179
179 179 179
179 179 179
179 179 179
179 179 179
179 179 179
179 179 179
179 179 179
179 179 179
179 179 179
179 179 179
179 179 179
179 179 179
179 179 179
179 179 179
179 179 179
179 179 179
179 179 179
179 179 179
179 179 179
179 179 179
179 179 179
179 179 179
179 179 179
179 179 179
179 179 179
179 179 179
179 179 179
179 179 179
179 179 179
179 179 179
179 179 179
179 179 179
179 179 179
179 179 179
179 179 179
179 179 179
179 179 179
179 179 179
179 179 179
179 179 179
179 179 179
179 179 179
179 179 179
179 179 179
179 179 179
179 179 179
179 179 179
179 179 179
179 179 179
179 179 179
179 179 179
179 179 179
179 179 179
179 179 179
179 179 179
179 179 179
179 179 179
179 179 179
179 179 179
179 179 179
179 179 179
179 179 179
179 179 179
179 179 179
179 179 179
179 179 179
179 179 179
179 179 179
179 179 179
179 179 179
179 179 179
179 179 179
179 179 179
179 179 179
179 179 179
179 179 179
179 179 179
179 179 179
179 179 179
179 179 179
179 179 179
179 179 179
179 179 179
179 179 179
179 179 179
179 179 179
179 179 179
179 179 179
179 179 179
179 179 179
179 179 179
179 179 179
179 179 179
179 179 179
179 179 179
179 179 179
179 179 179
179 179 179
179 179 179
179 179 179
179 179 179
179 179 179
179 179 179
179 179 179
179 179 179
179 179 179
179 179 179
179 179 179
179 179 179
179 179 179
179 179 179
179 179 179
179 179 179
179 179 179
179 179 179
179 179 179
179 179 179
179 179 179
179 179 179
179 179 179
179 179 179
179 179 179
179 179 179
179 179 179
179 179 179
179 179 179
179 179 179
179 179 179
179 179 179
179 179 179
179 179 179
179 179 179
179 179 179
179 179 179
179 179 179
179 179 179
179 179 179
179 179 179
179 179 179
179 179 179
179 179 179
179 179 179
179 179 179
0 0 0
0 0 0
0 0 0
0 0 0
0 0 0
0 0 0
0 0 0
0 0 0
0 0 0
0 0 0
0 0 0
0 0 0
0 0 0
0 0 0
0 0 0
0 0 0
0 0 0
0 0 0
0 0 0
0 0 0
0 0 0
0 0 0
0 0 0
0 0 0
0 0 0
0 0 0
0 0 0
0 0 0
0 0 0
0 0 0
0 0 0
0 0 0
0 0 0
0 0 0
0 0 0
0 0 0
0 0 0
0 0 0
0 0 0
0 0 0
0 0 0
0 0 0
0 0 0
0 0 0
0 0 0
0 0 0
0 0 0
0 0 0
0 0 0
0 0 0
0 0 0
0 0 0
0 0 0
0 0 0
0 0 0
0 0 0
0 0 0
0 0 0
0 0 0
0 0 0
0 0 0
0 0 0
0 0 0
0 0 0
0 0 0
0 0 0
0 0 0
0 0 0
0 0 0
0 0 0
0 0 0
0 0 0
0 0 0
0 0 0
0 0 0
0 0 0
0 0 0
0 0 0
0 0 0
0 0 0
0 0 0
0 0 0
0 0 0
0 0 0
0 0 0
0 0 0
0 0 0
0 0 0
0 0 0
0 0 0
0 0 0
0 0 0
0 0 0
0 0 0
0 0 0
0 0 0
0 0 0
0 0 0
0 0 0
0 0 0
0 0 0
0 0 0
0 0 0
0 0 0
0 0 0
0 0 0
0 0 0
0 0 0
0 0 0
0 0 0
0 0 0
0 0 0
0 0 0
0 0 0
0 0 0
0 0 0
0 0 0
0 0 0
0 0 0
0 0 0
0 0 0
0 0 0
0 0 0
0 0 0
0 0 0
0 0 0
0 0 0
0 0 0
0 0 0
0 0 0
0 0 0
0 0 0
0 0 0
0 0 0
0 0 0
0 0 0
0 0 0
0 0 0
0 0 0
0 0 0
0 0 0
0 0 0
0 0 0
0 0 0
0 0 0
0 0 0
0 0 0
0 0 0
0 0 0
0 0 0
0 0 0
0 0 0
0 0 0
0 0 0
0 0 0
0 0 0
0 0 0
0 0 0
0 0 0
0 0 0
0 0 0
0 0 0
0 0 0
0 0 0
0 0 0
0 0 0
0 0 0
0 0 0
0 0 0
0 0 0
0 0 0
0 0 0
0 0 0
0 0 0
0 0 0
0 0 0
0 0 0
0 0 0
0 0 0
0 0 0
0 0 0
0 0 0
0 0 0
0 0 0
0 0 0
0 0 0
0 0 0
0 0 0
0 0 0
0 0 0
0 0 0
0 0 0
0 0 0
0 0 0
0 0 0
0 0 0
0 0 0
0 0 0
0 0 0
0 0 0
0 0 0
0 0 0
0 0 0
0 0 0
179 179 179
179 179 179
179 179 179
179 179 179
179 179 179
179 179 179
179 179 179
179 179 179
179 179 179
179 179 179
179 179 179
179 179 179
179 179 179
179 179 179
179 179 179
179 179 179
179 179 179
179 179 179
179 179 179
179 179 179
179 179 179
179 179 179
179 179 179
179 179 179
179 179 179
179 179 179
179 179 179
179 179 179
179 179 179
179 179 179
179 179 179
179 179 179
179 179 179
179 179 179
179 179 179
179 179 179
179 179 179
179 179 179
179 179 179
179 179 179
179 179 179
179 179 179
179 179 179
179 179 179
179 179 179
179 179 179
179 179 179
179 179 179
179 179 179
179 179 179
179 179 179
179 179 179
179 179 179
179 179 179
179 179 179
179 179 179
179 179 179
179 179 179
179 179 179
179 179 179
179 179 179
179 179 179
179 179 179
179 179 179
179 179 179
179 179 179
179 179 179
179 179 179
179 179 179
179 179 179
179 179 179
179 179 179
179 179 179
179 179 179
179 179 179
179 179 179
179 179 179
179 179 179
179 179 179
179 179 179
179 179 179
179 179 179
179 179 179
179 179 179
179 179 179
179 179 179
179 179 179
179 179 179
179 179 179
179 179 179
179 179 179
179 179 179
179 179 179
179 179 179
179 179 179
179 179 179
179 179 179
179 179 179
179 179 179
179 179 179
179 179 179
179 179 179
179 179 179
179 179 179
179 179 179
179 179 179
179 179 179
179 179 179
179 179 179
179 179 179
179 179 179
179 179 179
179 179 179
179 179 179
179 179 179
179 179 179
179 179 179
179 179 179
179 179 179
179 179 179
179 179 179
179 179 179
179 179 179
179 179 179
179 179 179
179 179 179
179 179 179
179 179 179
179 179 179
179 179 179
179 179 179
179 179 179
179 179 179
179 179 179
179 179 179
179 179 179
179 179 179
179 179 179
179 179 179
179 179 179
179 179 179
179 179 179
179 179 179
179 179 179
179 179 179
179 179 179
179 179 179
179 179 179
179 179 179
179 179 179
179 179 179
179 179 179
179 179 179
179 179 179
179 179 179
179 179 179
179 179 179
179 179 179
179 179 179
179 179 179
179 179 179
179 179 179
179 179 179
179 179 179
179 179 179
179 179 179
179 179 179
179 179 179
179 179 179
179 179 179
179 179 179
179 179 179
179 179 179
179 179 179
179 179 179
179 179 179
179 179 179
179 179 179
179 179 179
179 179 179
179 179 179
179 179 179
179 179 179
179 179 179
179 179 179
179 179 179
179 179 179
179 179 179
179 179 179
179 179 179
179 179 179
179 179 179
179 179 179
179 179 179
179 179 179
179 179 179
0 0 0
0 0 0
0 0 0
0 0 0
0 0 0
0 0 0
0 0 0
0 0 0
0 0 0
0 0 0
0 0 0
0 0 0
0 0 0
0 0 0
0 0 0
0 0 0
0 0 0
0 0 0
0 0 0
0 0 0
0 0 0
0 0 0
0 0 0
0 0 0
0 0 0
0 0 0
0 0 0
0 0 0
0 0 0
0 0 0
0 0 0
0 0 0
0 0 0
0 0 0
0 0 0
0 0 0
0 0 0
0 0 0
0 0 0
0 0 0
0 0 0
0 0 0
0 0 0
0 0 0
0 0 0
0 0 0
0 0 0
0 0 0
0 0 0
0 0 0
0 0 0
0 0 0
0 0 0
0 0 0
0 0 0
0 0 0
0 0 0
0 0 0
0 0 0
0 0 0
0 0 0
0 0 0
0 0 0
0 0 0
0 0 0
0 0 0
0 0 0
0 0 0
0 0 0
0 0 0
0 0 0
0 0 0
0 0 0
0 0 0
0 0 0
0 0 0
0 0 0
0 0 0
0 0 0
0 0 0
0 0 0
0 0 0
0 0 0
0 0 0
0 0 0
0 0 0
0 0 0
0 0 0
0 0 0
0 0 0
0 0 0
0 0 0
0 0 0
0 0 0
0 0 0
0 0 0
0 0 0
0 0 0
0 0 0
0 0 0
0 0 0
0 0 0
0 0 0
0 0 0
0 0 0
0 0 0
0 0 0
0 0 0
0 0 0
0 0 0
0 0 0
0 0 0
0 0 0
0 0 0
0 0 0
0 0 0
0 0 0
0 0 0
0 0 0
0 0 0
0 0 0
0 0 0
0 0 0
0 0 0
0 0 0
0 0 0
0 0 0
0 0 0
0 0 0
0 0 0
0 0 0
0 0 0
0 0 0
0 0 0
0 0 0
0 0 0
0 0 0
0 0 0
0 0 0
0 0 0
0 0 0
0 0 0
0 0 0
0 0 0
0 0 0
0 0 0
0 0 0
0 0 0
0 0 0
0 0 0
0 0 0
0 0 0
0 0 0
0 0 0
0 0 0
0 0 0
0 0 0
0 0 0
0 0 0
0 0 0
0 0 0
0 0 0
0 0 0
0 0 0
0 0 0
0 0 0
0 0 0
0 0 0
0 0 0
0 0 0
0 0 0
0 0 0
0 0 0
0 0 0
0 0 0
0 0 0
0 0 0
0 0 0
0 0 0
0 0 0
0 0 0
0 0 0
0 0 0
0 0 0
0 0 0
0 0 0
0 0 0
0 0 0
0 0 0
0 0 0
0 0 0
0 0 0
0 0 0
0 0 0
0 0 0
0 0 0
0 0 0
0 0 0
0 0 0
0 0 0
0 0 0
0 0 0
0 0 0
0 0 0
179 179 179
179 179 179
179 179 179
179 179 179
179 179 179
179 179 179
179 179 179
179 179 179
179 179 179
179 179 179
179 179 179
179 179 179
179 179 179
179 179 179
179 179 179
179 179 179
179 179 179
179 179 179
179 179 179
179 179 179
179 179 179
179 179 179
179 179 179
179 179 179
179 179 179
179 179 179
179 179 179
179 179 179
179 179 179
179 179 179
179 179 179
179 179 179
179 179 179
179 179 179
179 179 179
179 179 179
179 179 179
179 179 179
179 179 179
179 179 179
179 179 179
179 179 179
179 179 179
179 179 179
179 179 179
179 179 179
179 179 179
179 179 179
179 179 179
179 179 179
179 179 179
179 179 179
179 179 179
179 179 179
179 179 179
179 179 179
179 179 179
179 179 179
179 179 179
179 179 179
179 179 179
179 179 179
179 179 179
179 179 179
179 179 179
179 179 179
179 179 179
179 179 179
179 179 179
179 179 179
179 179 179
179 179 179
179 179 179
179 179 179
179 179 179
179 179 179
179 179 179
179 179 179
179 179 179
179 179 179
179 179 179
179 179 179
179 179 179
179 179 179
179 179 179
179 179 179
179 179 179
179 179 179
179 179 179
179 179 179
179 179 179
179 179 179
179 179 179
179 179 179
179 179 179
179 179 179
179 179 179
179 179 179
179 179 179
179 179 179
179 179 179
179 179 179
179 179 179
179 179 179
179 179 179
179 179 179
179 179 179
179 179 179
179 179 179
179 179 179
179 179 179
179 179 179
179 179 179
179 179 179
179 179 179
179 179 179
179 179 179
179 179 179
179 179 179
179 179 179
179 179 179
179 179 179
179 179 179
179 179 179
179 179 179
179 179 179
179 179 179
179 179 179
179 179 179
179 179 179
179 179 179
179 179 179
179 179 179
179 179 179
179 179 179
179 179 179
179 179 179
179 179 179
179 179 179
179 179 179
179 179 179
179 179 179
179 179 179
179 179 179
179 179 179
179 179 179
179 179 179
179 179 179
179 179 179
179 179 179
179 179 179
179 179 179
179 179 179
179 179 179
179 179 179
179 179 179
179 179 179
179 179 179
179 179 179
179 179 179
179 179 179
179 179 179
179 179 179
179 179 179
179 179 179
179 179 179
179 179 179
179 179 179
179 179 179
179 179 179
179 179 179
179 179 179
179 179 179
179 179 179
179 179 179
179 179 179
179 179 179
179 179 179
179 179 179
179 179 179
179 179 179
179 179 179
179 179 179
179 179 179
179 179 179
179 179 179
179 179 179
179 179 179
179 179 179
179 179 179
179 179 179
179 179 179
179 179 179
179 179 179
179 179 179
179 179 179
0 0 0
0 0 0
0 0 0
0 0 0
0 0 0
0 0 0
0 0 0
0 0 0
0 0 0
0 0 0
0 0 0
0 0 0
0 0 0
0 0 0
0 0 0
0 0 0
0 0 0
0 0 0
0 0 0
0 0 0
0 0 0
0 0 0
0 0 0
0 0 0
0 0 0
0 0 0
0 0 0
0 0 0
0 0 0
0 0 0
0 0 0
0 0 0
0 0 0
0 0 0
0 0 0
0 0 0
0 0 0
0 0 0
0 0 0
0 0 0
0 0 0
0 0 0
0 0 0
0 0 0
0 0 0
0 0 0
0 0 0
0 0 0
0 0 0
0 0 0
0 0 0
0 0 0
0 0 0
0 0 0
0 0 0
0 0 0
0 0 0
0 0 0
0 0 0
0 0 0
0 0 0
0 0 0
0 0 0
0 0 0
0 0 0
0 0 0
0 0 0
0 0 0
0 0 0
0 0 0
0 0 0
0 0 0
0 0 0
0 0 0
0 0 0
0 0 0
0 0 0
0 0 0
0 0 0
0 0 0
0 0 0
0 0 0
0 0 0
0 0 0
0 0 0
0 0 0
0 0 0
0 0 0
0 0 0
0 0 0
0 0 0
0 0 0
0 0 0
0 0 0
0 0 0
0 0 0
0 0 0
0 0 0
0 0 0
0 0 0
0 0 0
0 0 0
0 0 0
0 0 0
0 0 0
0 0 0
0 0 0
0 0 0
0 0 0
0 0 0
0 0 0
0 0 0
0 0 0
0 0 0
0 0 0
0 0 0
0 0 0
0 0 0
0 0 0
0 0 0
0 0 0
0 0 0
0 0 0
0 0 0
0 0 0
0 0 0
0 0 0
0 0 0
0 0 0
0 0 0
0 0 0
0 0 0
0 0 0
0 0 0
0 0 0
0 0 0
0 0 0
0 0 0
0 0 0
0 0 0
0 0 0
0 0 0
0 0 0
0 0 0
0 0 0
0 0 0
0 0 0
0 0 0
0 0 0
0 0 0
0 0 0
0 0 0
0 0 0
0 0 0
0 0 0
0 0 0
0 0 0
0 0 0
0 0 0
0 0 0
0 0 0
0 0 0
0 0 0
0 0 0
0 0 0
0 0 0
0 0 0
0 0 0
0 0 0
0 0 0
0 0 0
0 0 0
0 0 0
0 0 0
0 0 0
0 0 0
0 0 0
0 0 0
0 0 0
0 0 0
0 0 0
0 0 0
0 0 0
0 0 0
0 0 0
0 0 0
0 0 0
0 0 0
0 0 0
0 0 0
0 0 0
0 0 0
0 0 0
0 0 0
0 0 0
0 0 0
0 0 0
0 0 0
0 0 0
0 0 0
0 0 0
0 0 0
0 0 0
0 0 0
179 179 179
179 179 179
179 179 179
179 179 179
179 179 179
179 179 179
179 179 179
179 179 179
179 179 179
179 179 179
179 179 179
179 179 179
179 179 179
179 179 179
179 179 179
179 179 179
179 179 179
179 179 179
179 179 179
179 179 179
179 179 179
179 179 179
179 179 179
179 179 179
179 179 179
179 179 179
179 179 179
179 179 179
179 179 179
179 179 179
179 179 179
179 179 179
179 179 179
179 179 179
179 179 179
179 179 179
179 179 179
179 179 179
179 179 179
179 179 179
179 179 179
179 179 179
179 179 179
179 179 179
179 179 179
179 179 179
179 179 179
179 179 179
179 179 179
179 179 179
179 179 179
179 179 179
179 179 179
179 179 179
179 179 179
179 179 179
179 179 179
179 179 179
179 179 179
179 179 179
179 179 179
179 179 179
179 179 179
179 179 179
179 179 179
179 179 179
179 179 179
179 179 179
179 179 179
179 179 179
179 179 179
179 179 179
179 179 179
179 179 179
179 179 179
179 179 179
179 179 179
179 179 179
179 179 179
179 179 179
179 179 179
179 179 179
179 179 179
179 179 179
179 179 179
179 179 179
179 179 179
179 179 179
179 179 179
179 179 179
179 179 179
179 179 179
179 179 179
179 179 179
179 179 179
179 179 179
179 179 179
179 179 179
179 179 179
179 179 179
179 179 179
179 179 179
179 179 179
179 179 179
179 179 179
179 179 179
179 179 179
179 179 179
179 179 179
179 179 179
179 179 179
179 179 179
179 179 179
179 179 179
179 179 179
179 179 179
179 179 179
179 179 179
179 179 179
179 179 179
179 179 179
179 179 179
179 179 179
179 179 179
179 179 179
179 179 179
179 179 179
179 179 179
179 179 179
179 179 179
179 179 179
179 179 179
179 179 179
179 179 179
179 179 179
179 179 179
179 179 179
179 179 179
179 179 179
179 179 179
179 179 179
179 179 179
179 179 179
179 179 179
179 179 179
179 179 179
179 179 179
179 179 179
179 179 179
179 179 179
179 179 179
179 179 179
179 179 179
179 179 179
179 179 179
179 179 179
179 179 179
179 179 179
179 179 179
179 179 179
179 179 179
179 179 179
179 179 179
179 179 179
179 179 179
179 179 179
179 179 179
179 179 179
179 179 179
179 179 179
179 179 179
179 179 179
179 179 179
179 179 179
179 179 179
179 179 179
179 179 179
179 179 179
179 179 179
179 179 179
179 179 179
179 179 179
179 179 179
179 179 179
179 179 179
179 179 179
179 179 179
179 179 179
179 179 179
179 179 179
179 179 179
179 179 179
179 179 179
179 179 179
179 179 179
0 0 0
0 0 0
0 0 0
0 0 0
0 0 0
0 0 0
0 0 0
0 0 0
0 0 0
0 0 0
0 0 0
0 0 0
0 0 0
0 0 0
0 0 0
0 0 0
0 0 0
0 0 0
0 0 0
0 0 0
0 0 0
0 0 0
0 0 0
0 0 0
0 0 0
0 0 0
0 0 0
0 0 0
0 0 0
0 0 0
0 0 0
0 0 0
0 0 0
0 0 0
0 0 0
0 0 0
0 0 0
0 0 0
0 0 0
0 0 0
0 0 0
0 0 0
0 0 0
0 0 0
0 0 0
0 0 0
0 0 0
0 0 0
0 0 0
0 0 0
0 0 0
0 0 0
0 0 0
0 0 0
0 0 0
0 0 0
0 0 0
0 0 0
0 0 0
0 0 0
0 0 0
0 0 0
0 0 0
0 0 0
0 0 0
0 0 0
0 0 0
0 0 0
0 0 0
0 0 0
0 0 0
0 0 0
0 0 0
0 0 0
0 0 0
0 0 0
0 0 0
0 0 0
0 0 0
0 0 0
0 0 0
0 0 0
0 0 0
0 0 0
0 0 0
0 0 0
0 0 0
0 0 0
0 0 0
0 0 0
0 0 0
0 0 0
0 0 0
0 0 0
0 0 0
0 0 0
0 0 0
0 0 0
0 0 0
0 0 0
0 0 0
0 0 0
0 0 0
0 0 0
0 0 0
0 0 0
0 0 0
0 0 0
0 0 0
0 0 0
0 0 0
0 0 0
0 0 0
0 0 0
0 0 0
0 0 0
0 0 0
0 0 0
0 0 0
0 0 0
0 0 0
0 0 0
0 0 0
0 0 0
0 0 0
0 0 0
0 0 0
0 0 0
0 0 0
0 0 0
0 0 0
0 0 0
0 0 0
0 0 0
0 0 0
0 0 0
0 0 0
0 0 0
0 0 0
0 0 0
0 0 0
0 0 0
0 0 0
0 0 0
0 0 0
0 0 0
0 0 0
0 0 0
0 0 0
0 0 0
0 0 0
0 0 0
0 0 0
0 0 0
0 0 0
0 0 0
0 0 0
0 0 0
0 0 0
0 0 0
0 0 0
0 0 0
0 0 0
0 0 0
0 0 0
0 0 0
0 0 0
0 0 0
0 0 0
0 0 0
0 0 0
0 0 0
0 0 0
0 0 0
0 0 0
0 0 0
0 0 0
0 0 0
0 0 0
0 0 0
0 0 0
0 0 0
0 0 0
0 0 0
0 0 0
0 0 0
0 0 0
0 0 0
0 0 0
0 0 0
0 0 0
0 0 0
0 0 0
0 0 0
0 0 0
0 0 0
0 0 0
0 0 0
0 0 0
0 0 0
0 0 0
0 0 0
0 0 0
0 0 0
0 0 0
0 0 0
179 179 179
179 179 179
179 179 179
179 179 179
179 179 179
179 179 179
179 179 179
179 179 179
179 179 179
179 179 179
179 179 179
179 179 179
179 179 179
179 179 179
179 179 179
179 179 179
179 179 179
179 179 179
179 179 179
179 179 179
179 179 179
179 179 179
179 179 179
179 179 179
179 179 179
179 179 179
179 179 179
179 179 179
179 179 179
179 179 179
179 179 179
179 179 179
179 179 179
179 179 179
179 179 179
179 179 179
179 179 179
179 179 179
179 179 179
179 179 179
179 179 179
179 179 179
179 179 179
179 179 179
179 179 179
179 179 179
179 179 179
179 179 179
179 179 179
179 179 179
179 179 179
179 179 179
179 179 179
179 179 179
179 179 179
179 179 179
179 179 179
179 179 179
179 179 179
179 179 179
179 179 179
179 179 179
179 179 179
179 179 179
179 179 179
179 179 179
179 179 179
179 179 179
179 179 179
179 179 179
179 179 179
179 179 179
179 179 179
179 179 179
179 179 179
179 179 179
179 179 179
179 179 179
179 179 179
179 179 179
179 179 179
179 179 179
179 179 179
179 179 179
179 179 179
179 179 179
179 179 179
179 179 179
179 179 179
179 179 179
179 179 179
179 179 179
179 179 179
179 179 179
179 179 179
179 179 179
179 179 179
179 179 179
179 179 179
179 179 179
179 179 179
179 179 179
179 179 179
179 179 179
179 179 179
179 179 179
179 179 179
179 179 179
179 179 179
179 179 179
179 179 179
179 179 179
179 179 179
179 179 179
179 179 179
179 179 179
179 179 179
179 179 179
179 179 179
179 179 179
179 179 179
179 179 179
179 179 179
179 179 179
179 179 179
179 179 179
179 179 179
179 179 179
179 179 179
179 179 179
179 179 179
179 179 179
179 179 179
179 179 179
179 179 179
179 179 179
179 179 179
179 179 179
179 179 179
179 179 179
179 179 179
179 179 179
179 179 179
179 179 179
179 179 179
179 179 179
179 179 179
179 179 179
179 179 179
179 179 179
179 179 179
179 179 179
179 179 179
179 179 179
179 179 179
179 179 179
179 179 179
179 179 179
179 179 179
179 179 179
179 179 179
179 179 179
179 179 179
179 179 179
179 179 179
179 179 179
179 179 179
179 179 179
179 179 179
179 179 179
179 179 179
179 179 179
179 179 179
179 179 179
179 179 179
179 179 179
179 179 179
179 179 179
179 179 179
179 179 179
179 179 179
179 179 179
179 179 179
179 179 179
179 179 179
179 179 179
179 179 179
179 179 179
179 179 179
179 179 179
179 179 179
179 179 179
179 179 179
179 179 179
0 0 0
0 0 0
0 0 0
0 0 0
0 0 0
0 0 0
0 0 0
0 0 0
0 0 0
0 0 0
0 0 0
0 0 0
0 0 0
0 0 0
0 0 0
0 0 0
0 0 0
0 0 0
0 0 0
0 0 0
0 0 0
0 0 0
0 0 0
0 0 0
0 0 0
0 0 0
0 0 0
0 0 0
0 0 0
0 0 0
0 0 0
0 0 0
0 0 0
0 0 0
0 0 0
0 0 0
0 0 0
0 0 0
0 0 0
0 0 0
0 0 0
0 0 0
0 0 0
0 0 0
0 0 0
0 0 0
0 0 0
0 0 0
0 0 0
0 0 0
0 0 0
0 0 0
0 0 0
0 0 0
0 0 0
0 0 0
0 0 0
0 0 0
0 0 0
0 0 0
0 0 0
0 0 0
0 0 0
0 0 0
0 0 0
0 0 0
0 0 0
0 0 0
0 0 0
0 0 0
0 0 0
0 0 0
0 0 0
0 0 0
0 0 0
0 0 0
0 0 0
0 0 0
0 0 0
0 0 0
0 0 0
0 0 0
0 0 0
0 0 0
0 0 0
0 0 0
0 0 0
0 0 0
0 0 0
0 0 0
0 0 0
0 0 0
0 0 0
0 0 0
0 0 0
0 0 0
0 0 0
0 0 0
0 0 0
0 0 0
0 0 0
0 0 0
0 0 0
0 0 0
0 0 0
0 0 0
0 0 0
0 0 0
0 0 0
0 0 0
0 0 0
0 0 0
0 0 0
0 0 0
0 0 0
0 0 0
0 0 0
0 0 0
0 0 0
0 0 0
0 0 0
0 0 0
0 0 0
0 0 0
0 0 0
0 0 0
0 0 0
0 0 0
0 0 0
0 0 0
0 0 0
0 0 0
0 0 0
0 0 0
0 0 0
0 0 0
0 0 0
0 0 0
0 0 0
0 0 0
0 0 0
0 0 0
0 0 0
0 0 0
0 0 0
0 0 0
0 0 0
0 0 0
0 0 0
0 0 0
0 0 0
0 0 0
0 0 0
0 0 0
0 0 0
0 0 0
0 0 0
0 0 0
0 0 0
0 0 0
0 0 0
0 0 0
0 0 0
0 0 0
0 0 0
0 0 0
0 0 0
0 0 0
0 0 0
0 0 0
0 0 0
0 0 0
0 0 0
0 0 0
0 0 0
0 0 0
0 0 0
0 0 0
0 0 0
0 0 0
0 0 0
0 0 0
0 0 0
0 0 0
0 0 0
0 0 0
0 0 0
0 0 0
0 0 0
0 0 0
0 0 0
0 0 0
0 0 0
0 0 0
0 0 0
0 0 0
0 0 0
0 0 0
0 0 0
0 0 0
0 0 0
0 0 0
0 0 0
0 0 0
0 0 0
0 0 0
179 179 179
179 179 179
179 179 179
179 179 179
179 179 179
179 179 179
179 179 179
179 179 179
179 179 179
179 179 179
179 179 179
179 179 179
179 179 179
179 179 179
179 179 179
179 179 179
179 179 179
179 179 179
179 179 179
179 179 179
179 179 179
179 179 179
179 179 179
179 179 179
179 179 179
179 179 179
179 179 179
179 179 179
179 179 179
179 179 179
179 179 179
179 179 179
179 179 179
179 179 179
179 179 179
179 179 179
179 179 179
179 179 179
179 179 179
179 179 179
179 179 179
179 179 179
179 179 179
179 179 179
179 179 179
179 179 179
179 179 179
179 179 179
179 179 179
179 179 179
179 179 179
179 179 179
179 179 179
179 179 179
179 179 179
179 179 179
179 179 179
179 179 179
179 179 179
179 179 179
179 179 179
179 179 179
179 179 179
179 179 179
179 179 179
179 179 179
179 179 179
179 179 179
179 179 179
179 179 179
179 179 179
179 179 179
179 179 179
179 179 179
179 179 179
179 179 179
179 179 179
179 179 179
179 179 179
179 179 179
179 179 179
179 179 179
179 179 179
179 179 179
179 179 179
179 179 179
179 179 179
179 179 179
179 179 179
179 179 179
179 179 179
179 179 179
179 179 179
179 179 179
179 179 179
179 179 179
179 179 179
179 179 179
179 179 179
179 179 179
179 179 179
179 179 179
179 179 179
179 179 179
179 179 179
179 179 179
179 179 179
179 179 179
179 179 179
179 179 179
179 179 179
179 179 179
179 179 179
179 179 179
179 179 179
179 179 179
179 179 179
179 179 179
179 179 179
179 179 179
179 179 179
179 179 179
179 179 179
179 179 179
179 179 179
179 179 179
179 179 179
179 179 179
179 179 179
179 179 179
179 179 179
179 179 179
179 179 179
179 179 179
179 179 179
179 179 179
179 179 179
179 179 179
179 179 179
179 179 179
179 179 179
179 179 179
179 179 179
179 179 179
179 179 179
179 179 179
179 179 179
179 179 179
179 179 179
179 179 179
179 179 179
179 179 179
179 179 179
179 179 179
179 179 179
179 179 179
179 179 179
179 179 179
179 179 179
179 179 179
179 179 179
179 179 179
179 179 179
179 179 179
179 179 179
179 179 179
179 179 179
179 179 179
179 179 179
179 179 179
179 179 179
179 179 179
179 179 179
179 179 179
179 179 179
179 179 179
179 179 179
179 179 179
179 179 179
179 179 179
179 179 179
179 179 179
179 179 179
179 179 179
179 179 179
179 179 179
179 179 179
179 179 179
179 179 179
179 179 179
179 179 179
179 179 179
179 179 179
179 179 179
0 0 0
0 0 0
0 0 0
0 0 0
0 0 0
0 0 0
0 0 0
0 0 0
0 0 0
0 0 0
0 0 0
0 0 0
0 0 0
0 0 0
0 0 0
0 0 0
0 0 0
0 0 0
0 0 0
0 0 0
0 0 0
0 0 0
0 0 0
0 0 0
0 0 0
0 0 0
0 0 0
0 0 0
0 0 0
0 0 0
0 0 0
0 0 0
0 0 0
0 0 0
0 0 0
0 0 0
0 0 0
0 0 0
0 0 0
0 0 0
0 0 0
0 0 0
0 0 0
0 0 0
0 0 0
0 0 0
0 0 0
0 0 0
0 0 0
0 0 0
0 0 0
0 0 0
0 0 0
0 0 0
0 0 0
0 0 0
0 0 0
0 0 0
0 0 0
0 0 0
0 0 0
0 0 0
0 0 0
0 0 0
0 0 0
0 0 0
0 0 0
0 0 0
0 0 0
0 0 0
0 0 0
0 0 0
0 0 0
0 0 0
0 0 0
0 0 0
0 0 0
0 0 0
0 0 0
0 0 0
0 0 0
0 0 0
0 0 0
0 0 0
0 0 0
0 0 0
0 0 0
0 0 0
0 0 0
0 0 0
0 0 0
0 0 0
0 0 0
0 0 0
0 0 0
0 0 0
0 0 0
0 0 0
0 0 0
0 0 0
0 0 0
0 0 0
0 0 0
0 0 0
0 0 0
0 0 0
0 0 0
0 0 0
0 0 0
0 0 0
0 0 0
0 0 0
0 0 0
0 0 0
0 0 0
0 0 0
0 0 0
0 0 0
0 0 0
0 0 0
0 0 0
0 0 0
0 0 0
0 0 0
0 0 0
0 0 0
0 0 0
0 0 0
0 0 0
0 0 0
0 0 0
0 0 0
0 0 0
0 0 0
0 0 0
0 0 0
0 0 0
0 0 0
0 0 0
0 0 0
0 0 0
0 0 0
0 0 0
0 0 0
0 0 0
0 0 0
0 0 0
0 0 0
0 0 0
0 0 0
0 0 0
0 0 0
0 0 0
0 0 0
0 0 0
0 0 0
0 0 0
0 0 0
0 0 0
0 0 0
0 0 0
0 0 0
0 0 0
0 0 0
0 0 0
0 0 0
0 0 0
0 0 0
0 0 0
0 0 0
0 0 0
0 0 0
0 0 0
0 0 0
0 0 0
0 0 0
0 0 0
0 0 0
0 0 0
0 0 0
0 0 0
0 0 0
0 0 0
0 0 0
0 0 0
0 0 0
0 0 0
0 0 0
0 0 0
0 0 0
0 0 0
0 0 0
0 0 0
0 0 0
0 0 0
0 0 0
0 0 0
0 0 0
0 0 0
0 0 0
0 0 0
0 0 0
0 0 0
0 0 0
0 0 0
0 0 0
179 179 179
179 179 179
179 179 179
179 179 179
179 179 179
179 179 179
179 179 179
179 179 179
179 179 179
179 179 179
179 179 179
179 179 179
179 179 179
179 179 179
179 179 179
179 179 179
179 179 179
179 179 179
179 179 179
179 179 179
179 179 179
179 179 179
179 179 179
179 179 179
179 179 179
179 179 179
179 179 179
179 179 179
179 179 179
179 179 179
179 179 179
179 179 179
179 179 179
179 179 179
179 179 179
179 179 179
179 179 179
179 179 179
179 179 179
179 179 179
179 179 179
179 179 179
179 179 179
179 179 179
179 179 179
179 179 179
179 179 179
179 179 179
179 179 179
179 179 179
179 179 179
179 179 179
179 179 179
179 179 179
179 179 179
179 179 179
179 179 179
179 179 179
179 179 179
179 179 179
179 179 179
179 179 179
179 179 179
179 179 179
179 179 179
179 179 179
179 179 179
179 179 179
179 179 179
179 179 179
179 179 179
179 179 179
179 179 179
179 179 179
179 179 179
179 179 179
179 179 179
179 179 179
179 179 179
179 179 179
179 179 179
179 179 179
179 179 179
179 179 179
179 179 179
179 179 179
179 179 179
179 179 179
179 179 179
179 179 179
179 179 179
179 179 179
179 179 179
179 179 179
179 179 179
179 179 179
179 179 179
179 179 179
179 179 179
179 179 179
179 179 179
179 179 179
179 179 179
179 179 179
179 179 179
179 179 179
179 179 179
179 179 179
179 179 179
179 179 179
179 179 179
179 179 179
179 179 179
179 179 179
179 179 179
179 179 179
179 179 179
179 179 179
179 179 179
179 179 179
179 179 179
179 179 179
179 179 179
179 179 179
179 179 179
179 179 179
179 179 179
179 179 179
179 179 179
179 179 179
179 179 179
179 179 179
179 179 179
179 179 179
179 179 179
179 179 179
179 179 179
179 179 179
179 179 179
179 179 179
179 179 179
179 179 179
179 179 179
179 179 179
179 179 179
179 179 179
179 179 179
179 179 179
179 179 179
179 179 179
179 179 179
179 179 179
179 179 179
179 179 179
179 179 179
179 179 179
179 179 179
179 179 179
179 179 179
179 179 179
179 179 179
179 179 179
179 179 179
179 179 179
179 179 179
179 179 179
179 179 179
179 179 179
179 179 179
179 179 179
179 179 179
179 179 179
179 179 179
179 179 179
179 179 179
179 179 179
179 179 179
179 179 179
179 179 179
179 179 179
179 179 179
179 179 179
179 179 179
179 179 179
179 179 179
179 179 179
179 179 179
179 179 179
179 179 179
179 179 179
179 179 179
179 179 179
179 179 179
0 0 0
0 0 0
0 0 0
0 0 0
0 0 0
0 0 0
0 0 0
0 0 0
0 0 0
0 0 0
0 0 0
0 0 0
0 0 0
0 0 0
0 0 0
0 0 0
0 0 0
0 0 0
0 0 0
0 0 0
0 0 0
0 0 0
0 0 0
0 0 0
0 0 0
0 0 0
0 0 0
0 0 0
0 0 0
0 0 0
0 0 0
0 0 0
0 0 0
0 0 0
0 0 0
0 0 0
0 0 0
0 0 0
0 0 0
0 0 0
0 0 0
0 0 0
0 0 0
0 0 0
0 0 0
0 0 0
0 0 0
0 0 0
0 0 0
0 0 0
0 0 0
0 0 0
0 0 0
0 0 0
0 0 0
0 0 0
0 0 0
0 0 0
0 0 0
0 0 0
0 0 0
0 0 0
0 0 0
0 0 0
0 0 0
0 0 0
0 0 0
0 0 0
0 0 0
0 0 0
0 0 0
0 0 0
0 0 0
0 0 0
0 0 0
0 0 0
0 0 0
0 0 0
0 0 0
0 0 0
0 0 0
0 0 0
0 0 0
0 0 0
0 0 0
0 0 0
0 0 0
0 0 0
0 0 0
0 0 0
0 0 0
0 0 0
0 0 0
0 0 0
0 0 0
0 0 0
0 0 0
0 0 0
0 0 0
0 0 0
0 0 0
0 0 0
0 0 0
0 0 0
0 0 0
0 0 0
0 0 0
0 0 0
0 0 0
0 0 0
0 0 0
0 0 0
0 0 0
0 0 0
0 0 0
0 0 0
0 0 0
0 0 0
0 0 0
0 0 0
0 0 0
0 0 0
0 0 0
0 0 0
0 0 0
0 0 0
0 0 0
0 0 0
0 0 0
0 0 0
0 0 0
0 0 0
0 0 0
0 0 0
0 0 0
0 0 0
0 0 0
0 0 0
0 0 0
0 0 0
0 0 0
0 0 0
0 0 0
0 0 0
0 0 0
0 0 0
0 0 0
0 0 0
0 0 0
0 0 0
0 0 0
0 0 0
0 0 0
0 0 0
0 0 0
0 0 0
0 0 0
0 0 0
0 0 0
0 0 0
0 0 0
0 0 0
0 0 0
0 0 0
0 0 0
0 0 0
0 0 0
0 0 0
0 0 0
0 0 0
0 0 0
0 0 0
0 0 0
0 0 0
0 0 0
0 0 0
0 0 0
0 0 0
0 0 0
0 0 0
0 0 0
0 0 0
0 0 0
0 0 0
0 0 0
0 0 0
0 0 0
0 0 0
0 0 0
0 0 0
0 0 0
0 0 0
0 0 0
0 0 0
0 0 0
0 0 0
0 0 0
0 0 0
0 0 0
0 0 0
0 0 0
0 0 0
0 0 0
0 0 0
0 0 0
0 0 0
0 0 0
0 0 0
179 179 179
179 179 179
179 179 179
179 179 179
179 179 179
179 179 179
179 179 179
179 179 179
179 179 179
179 179 179
179 179 179
179 179 179
179 179 179
179 179 179
179 179 179
179 179 179
179 179 179
179 179 179
179 179 179
179 179 179
179 179 179
179 179 179
179 179 179
179 179 179
179 179 179
179 179 179
179 179 179
179 179 179
179 179 179
179 179 179
179 179 179
179 179 179
179 179 179
179 179 179
179 179 179
179 179 179
179 179 179
179 179 179
179 179 179
179 179 179
179 179 179
179 179 179
179 179 179
179 179 179
179 179 179
179 179 179
179 179 179
179 179 179
179 179 179
179 179 179
179 179 179
179 179 179
179 179 179
179 179 179
179 179 179
179 179 179
179 179 179
179 179 179
179 179 179
179 179 179
179 179 179
179 179 179
179 179 179
179 179 179
179 179 179
179 179 179
179 179 179
179 179 179
179 179 179
179 179 179
179 179 179
179 179 179
179 179 179
179 179 179
179 179 179
179 179 179
179 179 179
179 179 179
179 179 179
179 179 179
179 179 179
179 179 179
179 179 179
179 179 179
179 179 179
179 179 179
179 179 179
179 179 179
179 179 179
179 179 179
179 179 179
179 179 179
179 179 179
179 179 179
179 179 179
179 179 179
179 179 179
179 179 179
179 179 179
179 179 179
179 179 179
179 179 179
179 179 179
179 179 179
179 179 179
179 179 179
179 179 179
179 179 179
179 179 179
179 179 179
179 179 179
179 179 179
179 179 179
179 179 179
179 179 179
179 179 179
179 179 179
179 179 179
179 179 179
179 179 179
179 179 179
179 179 179
179 179 179
179 179 179
179 179 179
179 179 179
179 179 179
179 179 179
179 179 179
179 179 179
179 179 179
179 179 179
179 179 179
179 179 179
179 179 179
179 179 179
179 179 179
179 179 179
179 179 179
179 179 179
179 179 179
179 179 179
179 179 179
179 179 179
179 179 179
179 179 179
179 179 179
179 179 179
179 179 179
179 179 179
179 179 179
179 179 179
179 179 179
179 179 179
179 179 179
179 179 179
179 179 179
179 179 179
179 179 179
179 179 179
179 179 179
179 179 179
179 179 179
179 179 179
179 179 179
179 179 179
179 179 179
179 179 179
179 179 179
179 179 179
179 179 179
179 179 179
179 179 179
179 179 179
179 179 179
179 179 179
179 179 179
179 179 179
179 179 179
179 179 179
179 179 179
179 179 179
179 179 179
179 179 179
179 179 179
179 179 179
179 179 179
179 179 179
179 179 179
179 179 179
179 179 179
179 179 179
0 0 0
0 0 0
0 0 0
0 0 0
0 0 0
0 0 0
0 0 0
0 0 0
0 0 0
0 0 0
0 0 0
0 0 0
0 0 0
0 0 0
0 0 0
0 0 0
0 0 0
0 0 0
0 0 0
0 0 0
0 0 0
0 0 0
0 0 0
0 0 0
0 0 0
0 0 0
0 0 0
0 0 0
0 0 0
0 0 0
0 0 0
0 0 0
0 0 0
0 0 0
0 0 0
0 0 0
0 0 0
0 0 0
0 0 0
0 0 0
0 0 0
0 0 0
0 0 0
0 0 0
0 0 0
0 0 0
0 0 0
0 0 0
0 0 0
0 0 0
0 0 0
0 0 0
0 0 0
0 0 0
0 0 0
0 0 0
0 0 0
0 0 0
0 0 0
0 0 0
0 0 0
0 0 0
0 0 0
0 0 0
0 0 0
0 0 0
0 0 0
0 0 0
0 0 0
0 0 0
0 0 0
0 0 0
0 0 0
0 0 0
0 0 0
0 0 0
0 0 0
0 0 0
0 0 0
0 0 0
0 0 0
0 0 0
0 0 0
0 0 0
0 0 0
0 0 0
0 0 0
0 0 0
0 0 0
0 0 0
0 0 0
0 0 0
0 0 0
0 0 0
0 0 0
0 0 0
0 0 0
0 0 0
0 0 0
0 0 0
0 0 0
0 0 0
0 0 0
0 0 0
0 0 0
0 0 0
0 0 0
0 0 0
0 0 0
0 0 0
0 0 0
0 0 0
0 0 0
0 0 0
0 0 0
0 0 0
0 0 0
0 0 0
0 0 0
0 0 0
0 0 0
0 0 0
0 0 0
0 0 0
0 0 0
0 0 0
0 0 0
0 0 0
0 0 0
0 0 0
0 0 0
0 0 0
0 0 0
0 0 0
0 0 0
0 0 0
0 0 0
0 0 0
0 0 0
0 0 0
0 0 0
0 0 0
0 0 0
0 0 0
0 0 0
0 0 0
0 0 0
0 0 0
0 0 0
0 0 0
0 0 0
0 0 0
0 0 0
0 0 0
0 0 0
0 0 0
0 0 0
0 0 0
0 0 0
0 0 0
0 0 0
0 0 0
0 0 0
0 0 0
0 0 0
0 0 0
0 0 0
0 0 0
0 0 0
0 0 0
0 0 0
0 0 0
0 0 0
0 0 0
0 0 0
0 0 0
0 0 0
0 0 0
0 0 0
0 0 0
0 0 0
0 0 0
0 0 0
0 0 0
0 0 0
0 0 0
0 0 0
0 0 0
0 0 0
0 0 0
0 0 0
0 0 0
0 0 0
0 0 0
0 0 0
0 0 0
0 0 0
0 0 0
0 0 0
0 0 0
0 0 0
0 0 0
0 0 0
0 0 0
0 0 0
0 0 0
0 0 0
0 0 0
179 179 179
179 179 179
179 179 179
179 179 179
179 179 179
179 179 179
179 179 179
179 179 179
179 179 179
179 179 179
179 179 179
179 179 179
179 179 179
179 179 179
179 179 179
179 179 179
179 179 179
179 179 179
179 179 179
179 179 179
179 179 179
179 179 179
179 179 179
179 179 179
179 179 179
179 179 179
179 179 179
179 179 179
179 179 179
179 179 179
179 179 179
179 179 179
179 179 179
179 179 179
179 179 179
179 179 179
179 179 179
179 179 179
179 179 179
179 179 179
179 179 179
179 179 179
179 179 179
179 179 179
179 179 179
179 179 179
179 179 179
179 179 179
179 179 179
179 179 179
179 179 179
179 179 179
179 179 179
179 179 179
179 179 179
179 179 179
179 179 179
179 179 179
179 179 179
179 179 179
179 179 179
179 179 179
179 179 179
179 179 179
179 179 179
179 179 179
179 179 179
179 179 179
179 179 179
179 179 179
179 179 179
179 179 179
179 179 179
179 179 179
179 179 179
179 179 179
179 179 179
179 179 179
179 179 179
179 179 179
179 179 179
179 179 179
179 179 179
179 179 179
179 179 179
179 179 179
179 179 179
179 179 179
179 179 179
179 179 179
179 179 179
179 179 179
179 179 179
179 179 179
179 179 179
179 179 179
179 179 179
179 179 179
179 179 179
179 179 179
179 179 179
179 179 179
179 179 179
179 179 179
179 179 179
179 179 179
179 179 179
179 179 179
179 179 179
179 179 179
179 179 179
179 179 179
179 179 179
179 179 179
179 179 179
179 179 179
179 179 179
179 179 179
179 179 179
179 179 179
179 179 179
179 179 179
179 179 179
179 179 179
179 179 179
179 179 179
179 179 179
179 179 179
179 179 179
179 179 179
179 179 179
179 179 179
179 179 179
179 179 179
179 179 179
179 179 179
179 179 179
179 179 179
179 179 179
179 179 179
179 179 179
179 179 179
179 179 179
179 179 179
179 179 179
179 179 179
179 179 179
179 179 179
179 179 179
179 179 179
179 179 179
179 179 179
179 179 179
179 179 179
179 179 179
179 179 179
179 179 179
179 179 179
179 179 179
179 179 179
179 179 179
179 179 179
179 179 179
179 179 179
179 179 179
179 179 179
179 179 179
179 179 179
179 179 179
179 179 179
179 179 179
179 179 179
179 179 179
179 179 179
179 179 179
179 179 179
179 179 179
179 179 179
179 179 179
179 179 179
179 179 179
179 179 179
179 179 179
179 179 179
179 179 179
179 179 179
179 179 179
179 179 179
179 179 179
179 179 179
179 179 179
179 179 179
0 0 0
0 0 0
0 0 0
0 0 0
0 0 0
0 0 0
0 0 0
0 0 0
0 0 0
0 0 0
0 0 0
0 0 0
0 0 0
0 0 0
0 0 0
0 0 0
0 0 0
0 0 0
0 0 0
0 0 0
0 0 0
0 0 0
0 0 0
0 0 0
0 0 0
0 0 0
0 0 0
0 0 0
0 0 0
0 0 0
0 0 0
0 0 0
0 0 0
0 0 0
0 0 0
0 0 0
0 0 0
0 0 0
0 0 0
0 0 0
0 0 0
0 0 0
0 0 0
0 0 0
0 0 0
0 0 0
0 0 0
0 0 0
0 0 0
0 0 0
0 0 0
0 0 0
0 0 0
0 0 0
0 0 0
0 0 0
0 0 0
0 0 0
0 0 0
0 0 0
0 0 0
0 0 0
0 0 0
0 0 0
0 0 0
0 0 0
0 0 0
0 0 0
0 0 0
0 0 0
0 0 0
0 0 0
0 0 0
0 0 0
0 0 0
0 0 0
0 0 0
0 0 0
0 0 0
0 0 0
0 0 0
0 0 0
0 0 0
0 0 0
0 0 0
0 0 0
0 0 0
0 0 0
0 0 0
0 0 0
0 0 0
0 0 0
0 0 0
0 0 0
0 0 0
0 0 0
0 0 0
0 0 0
0 0 0
0 0 0
0 0 0
0 0 0
0 0 0
0 0 0
0 0 0
0 0 0
0 0 0
0 0 0
0 0 0
0 0 0
0 0 0
0 0 0
0 0 0
0 0 0
0 0 0
0 0 0
0 0 0
0 0 0
0 0 0
0 0 0
0 0 0
0 0 0
0 0 0
0 0 0
0 0 0
0 0 0
0 0 0
0 0 0
0 0 0
0 0 0
0 0 0
0 0 0
0 0 0
0 0 0
0 0 0
0 0 0
0 0 0
0 0 0
0 0 0
0 0 0
0 0 0
0 0 0
0 0 0
0 0 0
0 0 0
0 0 0
0 0 0
0 0 0
0 0 0
0 0 0
0 0 0
0 0 0
0 0 0
0 0 0
0 0 0
0 0 0
0 0 0
0 0 0
0 0 0
0 0 0
0 0 0
0 0 0
0 0 0
0 0 0
0 0 0
0 0 0
0 0 0
0 0 0
0 0 0
0 0 0
0 0 0
0 0 0
0 0 0
0 0 0
0 0 0
0 0 0
0 0 0
0 0 0
0 0 0
0 0 0
0 0 0
0 0 0
0 0 0
0 0 0
0 0 0
0 0 0
0 0 0
0 0 0
0 0 0
0 0 0
0 0 0
0 0 0
0 0 0
0 0 0
0 0 0
0 0 0
0 0 0
0 0 0
0 0 0
0 0 0
0 0 0
0 0 0
0 0 0
0 0 0
0 0 0
0 0 0
0 0 0
0 0 0
179 179 179
179 179 179
179 179 179
179 179 179
179 179 179
179 179 179
179 179 179
179 179 179
179 179 179
179 179 179
179 179 179
179 179 179
179 179 179
179 179 179
179 179 179
179 179 179
179 179 179
179 179 179
179 179 179
179 179 179
179 179 179
179 179 179
179 179 179
179 179 179
179 179 179
179 179 179
179 179 179
179 179 179
179 179 179
179 179 179
179 179 179
179 179 179
179 179 179
179 179 179
179 179 179
179 179 179
179 179 179
179 179 179
179 179 179
179 179 179
179 179 179
179 179 179
179 179 179
179 179 179
179 179 179
179 179 179
179 179 179
179 179 179
179 179 179
179 179 179
179 179 179
179 179 179
179 179 179
179 179 179
179 179 179
179 179 179
179 179 179
179 179 179
179 179 179
179 179 179
179 179 179
179 179 179
179 179 179
179 179 179
179 179 179
179 179 179
179 179 179
179 179 179
179 179 179
179 179 179
179 179 179
179 179 179
179 179 179
179 179 179
179 179 179
179 179 179
179 179 179
179 179 179
179 179 179
179 179 179
179 179 179
179 179 179
179 179 179
179 179 179
179 179 179
179 179 179
179 179 179
179 179 179
179 179 179
179 179 179
179 179 179
179 179 179
179 179 179
179 179 179
179 179 179
179 179 179
179 179 179
179 179 179
179 179 179
179 179 179
179 179 179
179 179 179
179 179 179
179 179 179
179 179 179
179 179 179
179 179 179
179 179 179
179 179 179
179 179 179
179 179 179
179 179 179
179 179 179
179 179 179
179 179 179
179 179 179
179 179 179
179 179 179
179 179 179
179 179 179
179 179 179
179 179 179
179 179 179
179 179 179
179 179 179
179 179 179
179 179 179
179 179 179
179 179 179
179 179 179
179 179 179
179 179 179
179 179 179
179 179 179
179 179 179
179 179 179
179 179 179
179 179 179
179 179 179
179 179 179
179 179 179
179 179 179
179 179 179
179 179 179
179 179 179
179 179 179
179 179 179
179 179 179
179 179 179
179 179 179
179 179 179
179 179 179
179 179 179
179 179 179
179 179 179
179 179 179
179 179 179
179 179 179
179 179 179
179 179 179
179 179 179
179 179 179
179 179 179
179 179 179
179 179 179
179 179 179
179 179 179
179 179 179
179 179 179
179 179 179
179 179 179
179 179 179
179 179 179
179 179 179
179 179 179
179 179 179
179 179 179
179 179 179
179 179 179
179 179 179
179 179 179
179 179 179
179 179 179
179 179 179
179 179 179
179 179 179
179 179 179
179 179 179
179 179 179
179 179 179
179 179 179
179 179 179
0 0 0
0 0 0
0 0 0
0 0 0
0 0 0
0 0 0
0 0 0
0 0 0
0 0 0
0 0 0
0 0 0
0 0 0
0 0 0
0 0 0
0 0 0
0 0 0
0 0 0
0 0 0
0 0 0
0 0 0
0 0 0
0 0 0
0 0 0
0 0 0
0 0 0
0 0 0
0 0 0
0 0 0
0 0 0
0 0 0
0 0 0
0 0 0
0 0 0
0 0 0
0 0 0
0 0 0
0 0 0
0 0 0
0 0 0
0 0 0
0 0 0
0 0 0
0 0 0
0 0 0
0 0 0
0 0 0
0 0 0
0 0 0
0 0 0
0 0 0
0 0 0
0 0 0
0 0 0
0 0 0
0 0 0
0 0 0
0 0 0
0 0 0
0 0 0
0 0 0
0 0 0
0 0 0
0 0 0
0 0 0
0 0 0
0 0 0
0 0 0
0 0 0
0 0 0
0 0 0
0 0 0
0 0 0
0 0 0
0 0 0
0 0 0
0 0 0
0 0 0
0 0 0
0 0 0
0 0 0
0 0 0
0 0 0
0 0 0
0 0 0
0 0 0
0 0 0
0 0 0
0 0 0
0 0 0
0 0 0
0 0 0
0 0 0
0 0 0
0 0 0
0 0 0
0 0 0
0 0 0
0 0 0
0 0 0
0 0 0
0 0 0
0 0 0
0 0 0
0 0 0
0 0 0
0 0 0
0 0 0
0 0 0
0 0 0
0 0 0
0 0 0
0 0 0
0 0 0
0 0 0
0 0 0
0 0 0
0 0 0
0 0 0
0 0 0
0 0 0
0 0 0
0 0 0
0 0 0
0 0 0
0 0 0
0 0 0
0 0 0
0 0 0
0 0 0
0 0 0
0 0 0
0 0 0
0 0 0
0 0 0
0 0 0
0 0 0
0 0 0
0 0 0
0 0 0
0 0 0
0 0 0
0 0 0
0 0 0
0 0 0
0 0 0
0 0 0
0 0 0
0 0 0
0 0 0
0 0 0
0 0 0
0 0 0
0 0 0
0 0 0
0 0 0
0 0 0
0 0 0
0 0 0
0 0 0
0 0 0
0 0 0
0 0 0
0 0 0
0 0 0
0 0 0
0 0 0
0 0 0
0 0 0
0 0 0
0 0 0
0 0 0
0 0 0
0 0 0
0 0 0
0 0 0
0 0 0
0 0 0
0 0 0
0 0 0
0 0 0
0 0 0
0 0 0
0 0 0
0 0 0
0 0 0
0 0 0
0 0 0
0 0 0
0 0 0
0 0 0
0 0 0
0 0 0
0 0 0
0 0 0
0 0 0
0 0 0
0 0 0
0 0 0
0 0 0
0 0 0
0 0 0
0 0 0
0 0 0
0 0 0
0 0 0
0 0 0
0 0 0
0 0 0
179 179 179
179 179 179
179 179 179
179 179 179
179 179 179
179 179 179
179 179 179
179 179 179
179 179 179
179 179 179
179 179 179
179 179 179
179 179 179
179 179 179
179 179 179
179 179 179
179 179 179
179 179 179
179 179 179
179 179 179
179 179 179
179 179 179
179 179 179
179 179 179
179 179 179
179 179 179
179 179 179
179 179 179
179 179 179
179 179 179
179 179 179
179 179 179
179 179 179
179 179 179
179 179 179
179 179 179
179 179 179
179 179 179
179 179 179
179 179 179
179 179 179
179 179 179
179 179 179
179 179 179
179 179 179
179 179 179
179 179 179
179 179 179
179 179 179
179 179 179
179 179 179
179 179 179
179 179 179
179 179 179
179 179 179
179 179 179
179 179 179
179 179 179
179 179 179
179 179 179
179 179 179
179 179 179
179 179 179
179 179 179
179 179 179
179 179 179
179 179 179
179 179 179
179 179 179
179 179 179
179 179 179
179 179 179
179 179 179
179 179 179
179 179 179
179 179 179
179 179 179
179 179 179
179 179 179
179 179 179
179 179 179
179 179 179
179 179 179
179 179 179
179 179 179
179 179 179
179 179 179
179 179 179
179 179 179
179 179 179
179 179 179
179 179 179
179 179 179
179 179 179
179 179 179
179 179 179
179 179 179
179 179 179
179 179 179
179 179 179
179 179 179
179 179 179
179 179 179
179 179 179
179 179 179
179 179 179
179 179 179
179 179 179
179 179 179
179 179 179
179 179 179
179 179 179
179 179 179
179 179 179
179 179 179
179 179 179
179 179 179
179 179 179
179 179 179
179 179 179
179 179 179
179 179 179
179 179 179
179 179 179
179 179 179
179 179 179
179 179 179
179 179 179
179 179 179
179 179 179
179 179 179
179 179 179
179 179 179
179 179 179
179 179 179
179 179 179
179 179 179
179 179 179
179 179 179
179 179 179
179 179 179
179 179 179
179 179 179
179 179 179
179 179 179
179 179 179
179 179 179
179 179 179
179 179 179
179 179 179
179 179 179
179 179 179
179 179 179
179 179 179
179 179 179
179 179 179
179 179 179
179 179 179
179 179 179
179 179 179
179 179 179
179 179 179
179 179 179
179 179 179
179 179 179
179 179 179
179 179 179
179 179 179
179 179 179
179 179 179
179 179 179
179 179 179
179 179 179
179 179 179
179 179 179
179 179 179
179 179 179
179 179 179
179 179 179
179 179 179
179 179 179
179 179 179
179 179 179
179 179 179
179 179 179
179 179 179
179 179 179
179 179 179
179 179 179
179 179 179
179 179 179
179 179 179
0 0 0
0 0 0
0 0 0
0 0 0
0 0 0
0 0 0
0 0 0
0 0 0
0 0 0
0 0 0
0 0 0
0 0 0
0 0 0
0 0 0
0 0 0
0 0 0
0 0 0
0 0 0
0 0 0
0 0 0
0 0 0
0 0 0
0 0 0
0 0 0
0 0 0
0 0 0
0 0 0
0 0 0
0 0 0
0 0 0
0 0 0
0 0 0
0 0 0
0 0 0
0 0 0
0 0 0
0 0 0
0 0 0
0 0 0
0 0 0
0 0 0
0 0 0
0 0 0
0 0 0
0 0 0
0 0 0
0 0 0
0 0 0
0 0 0
0 0 0
0 0 0
0 0 0
0 0 0
0 0 0
0 0 0
0 0 0
0 0 0
0 0 0
0 0 0
0 0 0
0 0 0
0 0 0
0 0 0
0 0 0
0 0 0
0 0 0
0 0 0
0 0 0
0 0 0
0 0 0
0 0 0
0 0 0
0 0 0
0 0 0
0 0 0
0 0 0
0 0 0
0 0 0
0 0 0
0 0 0
0 0 0
0 0 0
0 0 0
0 0 0
0 0 0
0 0 0
0 0 0
0 0 0
0 0 0
0 0 0
0 0 0
0 0 0
0 0 0
0 0 0
0 0 0
0 0 0
0 0 0
0 0 0
0 0 0
0 0 0
0 0 0
0 0 0
0 0 0
0 0 0
0 0 0
0 0 0
0 0 0
0 0 0
0 0 0
0 0 0
0 0 0
0 0 0
0 0 0
0 0 0
0 0 0
0 0 0
0 0 0
0 0 0
0 0 0
0 0 0
0 0 0
0 0 0
0 0 0
0 0 0
0 0 0
0 0 0
0 0 0
0 0 0
0 0 0
0 0 0
0 0 0
0 0 0
0 0 0
0 0 0
0 0 0
0 0 0
0 0 0
0 0 0
0 0 0
0 0 0
0 0 0
0 0 0
0 0 0
0 0 0
0 0 0
0 0 0
0 0 0
0 0 0
0 0 0
0 0 0
0 0 0
0 0 0
0 0 0
0 0 0
0 0 0
0 0 0
0 0 0
0 0 0
0 0 0
0 0 0
0 0 0
0 0 0
0 0 0
0 0 0
0 0 0
0 0 0
0 0 0
0 0 0
0 0 0
0 0 0
0 0 0
0 0 0
0 0 0
0 0 0
0 0 0
0 0 0
0 0 0
0 0 0
0 0 0
0 0 0
0 0 0
0 0 0
0 0 0
0 0 0
0 0 0
0 0 0
0 0 0
0 0 0
0 0 0
0 0 0
0 0 0
0 0 0
0 0 0
0 0 0
0 0 0
0 0 0
0 0 0
0 0 0
0 0 0
0 0 0
0 0 0
0 0 0
0 0 0
0 0 0
0 0 0
0 0 0
0 0 0
0 0 0
179 179 179
179 179 179
179 179 179
179 179 179
179 179 179
179 179 179
179 179 179
179 179 179
179 179 179
179 179 179
179 179 179
179 179 179
179 179 179
179 179 179
179 179 179
179 179 179
179 179 179
179 179 179
179 179 179
179 179 179
179 179 179
179 179 179
179 179 179
179 179 179
179 179 179
179 179 179
179 179 179
179 179 179
179 179 179
179 179 179
179 179 179
179 179 179
179 179 179
179 179 179
179 179 179
179 179 179
179 179 179
179 179 179
179 179 179
179 179 179
179 179 179
179 179 179
179 179 179
179 179 179
179 179 179
179 179 179
179 179 179
179 179 179
179 179 179
179 179 179
179 179 179
179 179 179
179 179 179
179 179 179
179 179 179
179 179 179
179 179 179
179 179 179
179 179 179
179 179 179
179 179 179
179 179 179
179 179 179
179 179 179
179 179 179
179 179 179
179 179 179
179 179 179
179 179 179
179 179 179
179 179 179
179 179 179
179 179 179
179 179 179
179 179 179
179 179 179
179 179 179
179 179 179
179 179 179
179 179 179
179 179 179
179 179 179
179 179 179
179 179 179
179 179 179
179 179 179
179 179 179
179 179 179
179 179 179
179 179 179
179 179 179
179 179 179
179 179 179
179 179 179
179 179 179
179 179 179
179 179 179
179 179 179
179 179 179
179 179 179
179 179 179
179 179 179
179 179 179
179 179 179
179 179 179
179 179 179
179 179 179
179 179 179
179 179 179
179 179 179
179 179 179
179 179 179
179 179 179
179 179 179
179 179 179
179 179 179
179 179 179
179 179 179
179 179 179
179 179 179
179 179 179
179 179 179
179 179 179
179 179 179
179 179 179
179 179 179
179 179 179
179 179 179
179 179 179
179 179 179
179 179 179
179 179 179
179 179 179
179 179 179
179 179 179
179 179 179
179 179 179
179 179 179
179 179 179
179 179 179
179 179 179
179 179 179
179 179 179
179 179 179
179 179 179
179 179 179
179 179 179
179 179 179
179 179 179
179 179 179
179 179 179
179 179 179
179 179 179
179 179 179
179 179 179
179 179 179
179 179 179
179 179 179
179 179 179
179 179 179
179 179 179
179 179 179
179 179 179
179 179 179
179 179 179
179 179 179
179 179 179
179 179 179
179 179 179
179 179 179
179 179 179
179 179 179
179 179 179
179 179 179
179 179 179
179 179 179
179 179 179
179 179 179
179 179 179
179 179 179
179 179 179
179 179 179
179 179 179
179 179 179
179 179 179
179 179 179
179 179 179
179 179 179
179 179 179
179 179 179
179 179 179
0 0 0
0 0 0
0 0 0
0 0 0
0 0 0
0 0 0
0 0 0
0 0 0
0 0 0
0 0 0
0 0 0
0 0 0
0 0 0
0 0 0
0 0 0
0 0 0
0 0 0
0 0 0
0 0 0
0 0 0
0 0 0
0 0 0
0 0 0
0 0 0
0 0 0
0 0 0
0 0 0
0 0 0
0 0 0
0 0 0
0 0 0
0 0 0
0 0 0
0 0 0
0 0 0
0 0 0
0 0 0
0 0 0
0 0 0
0 0 0
0 0 0
0 0 0
0 0 0
0 0 0
0 0 0
0 0 0
0 0 0
0 0 0
0 0 0
0 0 0
0 0 0
0 0 0
0 0 0
0 0 0
0 0 0
0 0 0
0 0 0
0 0 0
0 0 0
0 0 0
0 0 0
0 0 0
0 0 0
0 0 0
0 0 0
0 0 0
0 0 0
0 0 0
0 0 0
0 0 0
0 0 0
0 0 0
0 0 0
0 0 0
0 0 0
0 0 0
0 0 0
0 0 0
0 0 0
0 0 0
0 0 0
0 0 0
0 0 0
0 0 0
0 0 0
0 0 0
0 0 0
0 0 0
0 0 0
0 0 0
0 0 0
0 0 0
0 0 0
0 0 0
0 0 0
0 0 0
0 0 0
0 0 0
0 0 0
0 0 0
0 0 0
0 0 0
0 0 0
0 0 0
0 0 0
0 0 0
0 0 0
0 0 0
0 0 0
0 0 0
0 0 0
0 0 0
0 0 0
0 0 0
0 0 0
0 0 0
0 0 0
0 0 0
0 0 0
0 0 0
0 0 0
0 0 0
0 0 0
0 0 0
0 0 0
0 0 0
0 0 0
0 0 0
0 0 0
0 0 0
0 0 0
0 0 0
0 0 0
0 0 0
0 0 0
0 0 0
0 0 0
0 0 0
0 0 0
0 0 0
0 0 0
0 0 0
0 0 0
0 0 0
0 0 0
0 0 0
0 0 0
0 0 0
0 0 0
0 0 0
0 0 0
0 0 0
0 0 0
0 0 0
0 0 0
0 0 0
0 0 0
0 0 0
0 0 0
0 0 0
0 0 0
0 0 0
0 0 0
0 0 0
0 0 0
0 0 0
0 0 0
0 0 0
0 0 0
0 0 0
0 0 0
0 0 0
0 0 0
0 0 0
0 0 0
0 0 0
0 0 0
0 0 0
0 0 0
0 0 0
0 0 0
0 0 0
0 0 0
0 0 0
0 0 0
0 0 0
0 0 0
0 0 0
0 0 0
0 0 0
0 0 0
0 0 0
0 0 0
0 0 0
0 0 0
0 0 0
0 0 0
0 0 0
0 0 0
0 0 0
0 0 0
0 0 0
0 0 0
0 0 0
0 0 0
0 0 0
0 0 0
0 0 0
0 0 0
0 0 0
179 179 179
179 179 179
179 179 179
179 179 179
179 179 179
179 179 179
179 179 179
179 179 179
179 179 179
179 179 179
179 179 179
179 179 179
179 179 179
179 179 179
179 179 179
179 179 179
179 179 179
179 179 179
179 179 179
179 179 179
179 179 179
179 179 179
179 179 179
179 179 179
179 179 179
179 179 179
179 179 179
179 179 179
179 179 179
179 179 179
179 179 179
179 179 179
179 179 179
179 179 179
179 179 179
179 179 179
179 179 179
179 179 179
179 179 179
179 179 179
179 179 179
179 179 179
179 179 179
179 179 179
179 179 179
179 179 179
179 179 179
179 179 179
179 179 179
179 179 179
179 179 179
179 179 179
179 179 179
179 179 179
179 179 179
179 179 179
179 179 179
179 179 179
179 179 179
179 179 179
179 179 179
179 179 179
179 179 179
179 179 179
179 179 179
179 179 179
179 179 179
179 179 179
179 179 179
179 179 179
179 179 179
179 179 179
179 179 179
179 179 179
179 179 179
179 179 179
179 179 179
179 179 179
179 179 179
179 179 179
179 179 179
179 179 179
179 179 179
179 179 179
179 179 179
179 179 179
179 179 179
179 179 179
179 179 179
179 179 179
179 179 179
179 179 179
179 179 179
179 179 179
179 179 179
179 179 179
179 179 179
179 179 179
179 179 179
179 179 179
179 179 179
179 179 179
179 179 179
179 179 179
179 179 179
179 179 179
179 179 179
179 179 179
179 179 179
179 179 179
179 179 179
179 179 179
179 179 179
179 179 179
179 179 179
179 179 179
179 179 179
179 179 179
179 179 179
179 179 179
179 179 179
179 179 179
179 179 179
179 179 179
179 179 179
179 179 179
179 179 179
179 179 179
179 179 179
179 179 179
179 179 179
179 179 179
179 179 179
179 179 179
179 179 179
179 179 179
179 179 179
179 179 179
179 179 179
179 179 179
179 179 179
179 179 179
179 179 179
179 179 179
179 179 179
179 179 179
179 179 179
179 179 179
179 179 179
179 179 179
179 179 179
179 179 179
179 179 179
179 179 179
179 179 179
179 179 179
179 179 179
179 179 179
179 179 179
179 179 179
179 179 179
179 179 179
179 179 179
179 179 179
179 179 179
179 179 179
179 179 179
179 179 179
179 179 179
179 179 179
179 179 179
179 179 179
179 179 179
179 179 179
179 179 179
179 179 179
179 179 179
179 179 179
179 179 179
179 179 179
179 179 179
179 179 179
179 179 179
179 179 179
179 179 179
179 179 179
179 179 179
179 179 179
179 179 179
179 179 179
0 0 0
0 0 0
0 0 0
0 0 0
0 0 0
0 0 0
0 0 0
0 0 0
0 0 0
0 0 0
0 0 0
0 0 0
0 0 0
0 0 0
0 0 0
0 0 0
0 0 0
0 0 0
0 0 0
0 0 0
0 0 0
0 0 0
0 0 0
0 0 0
0 0 0
0 0 0
0 0 0
0 0 0
0 0 0
0 0 0
0 0 0
0 0 0
0 0 0
0 0 0
0 0 0
0 0 0
0 0 0
0 0 0
0 0 0
0 0 0
0 0 0
0 0 0
0 0 0
0 0 0
0 0 0
0 0 0
0 0 0
0 0 0
0 0 0
0 0 0
0 0 0
0 0 0
0 0 0
0 0 0
0 0 0
0 0 0
0 0 0
0 0 0
0 0 0
0 0 0
0 0 0
0 0 0
0 0 0
0 0 0
0 0 0
0 0 0
0 0 0
0 0 0
0 0 0
0 0 0
0 0 0
0 0 0
0 0 0
0 0 0
0 0 0
0 0 0
0 0 0
0 0 0
0 0 0
0 0 0
0 0 0
0 0 0
0 0 0
0 0 0
0 0 0
0 0 0
0 0 0
0 0 0
0 0 0
0 0 0
0 0 0
0 0 0
0 0 0
0 0 0
0 0 0
0 0 0
0 0 0
0 0 0
0 0 0
0 0 0
0 0 0
0 0 0
0 0 0
0 0 0
0 0 0
0 0 0
0 0 0
0 0 0
0 0 0
0 0 0
0 0 0
0 0 0
0 0 0
0 0 0
0 0 0
0 0 0
0 0 0
0 0 0
0 0 0
0 0 0
0 0 0
0 0 0
0 0 0
0 0 0
0 0 0
0 0 0
0 0 0
0 0 0
0 0 0
0 0 0
0 0 0
0 0 0
0 0 0
0 0 0
0 0 0
0 0 0
0 0 0
0 0 0
0 0 0
0 0 0
0 0 0
0 0 0
0 0 0
0 0 0
0 0 0
0 0 0
0 0 0
0 0 0
0 0 0
0 0 0
0 0 0
0 0 0
0 0 0
0 0 0
0 0 0
0 0 0
0 0 0
0 0 0
0 0 0
0 0 0
0 0 0
0 0 0
0 0 0
0 0 0
0 0 0
0 0 0
0 0 0
0 0 0
0 0 0
0 0 0
0 0 0
0 0 0
0 0 0
0 0 0
0 0 0
0 0 0
0 0 0
0 0 0
0 0 0
0 0 0
0 0 0
0 0 0
0 0 0
0 0 0
0 0 0
0 0 0
0 0 0
0 0 0
0 0 0
0 0 0
0 0 0
0 0 0
0 0 0
0 0 0
0 0 0
0 0 0
0 0 0
0 0 0
0 0 0
0 0 0
0 0 0
0 0 0
0 0 0
0 0 0
0 0 0
0 0 0
0 0 0
0 0 0
0 0 0
0 0 0
179 179 179
179 179 179
179 179 179
179 179 179
179 179 179
179 179 179
179 179 179
179 179 179
179 179 179
179 179 179
179 179 179
179 179 179
179 179 179
179 179 179
179 179 179
179 179 179
179 179 179
179 179 179
179 179 179
179 179 179
179 179 179
179 179 179
179 179 179
179 179 179
179 179 179
179 179 179
179 179 179
179 179 179
179 179 179
179 179 179
179 179 179
179 179 179
179 179 179
179 179 179
179 179 179
179 179 179
179 179 179
179 179 179
179 179 179
179 179 179
179 179 179
179 179 179
179 179 179
179 179 179
179 179 179
179 179 179
179 179 179
179 179 179
179 179 179
179 179 179
179 179 179
179 179 179
179 179 179
179 179 179
179 179 179
179 179 179
179 179 179
179 179 179
179 179 179
179 179 179
179 179 179
179 179 179
179 179 179
179 179 179
179 179 179
179 179 179
179 179 179
179 179 179
179 179 179
179 179 179
179 179 179
179 179 179
179 179 179
179 179 179
179 179 179
179 179 179
179 179 179
179 179 179
179 179 179
179 179 179
179 179 179
179 179 179
179 179 179
179 179 179
179 179 179
179 179 179
179 179 179
179 179 179
179 179 179
179 179 179
179 179 179
179 179 179
179 179 179
179 179 179
179 179 179
179 179 179
179 179 179
179 179 179
179 179 179
179 179 179
179 179 179
179 179 179
179 179 179
179 179 179
179 179 179
179 179 179
179 179 179
179 179 179
179 179 179
179 179 179
179 179 179
179 179 179
179 179 179
179 179 179
179 179 179
179 179 179
179 179 179
179 179 179
179 179 179
179 179 179
179 179 179
179 179 179
179 179 179
179 179 179
179 179 179
179 179 179
179 179 179
179 179 179
179 179 179
179 179 179
179 179 179
179 179 179
179 179 179
179 179 179
179 179 179
179 179 179
179 179 179
179 179 179
179 179 179
179 179 179
179 179 179
179 179 179
179 179 179
179 179 179
179 179 179
179 179 179
179 179 179
179 179 179
179 179 179
179 179 179
179 179 179
179 179 179
179 179 179
179 179 179
179 179 179
179 179 179
179 179 179
179 179 179
179 179 179
179 179 179
179 179 179
179 179 179
179 179 179
179 179 179
179 179 179
179 179 179
179 179 179
179 179 179
179 179 179
179 179 179
179 179 179
179 179 179
179 179 179
179 179 179
179 179 179
179 179 179
179 179 179
179 179 179
179 179 179
179 179 179
179 179 179
179 179 179
179 179 179
179 179 179
179 179 179
179 179 179
179 179 179
179 179 179
179 179 179
179 179 179
0 0 0
0 0 0
0 0 0
0 0 0
0 0 0
0 0 0
0 0 0
0 0 0
0 0 0
0 0 0
0 0 0
0 0 0
0 0 0
0 0 0
0 0 0
0 0 0
0 0 0
0 0 0
0 0 0
0 0 0
0 0 0
0 0 0
0 0 0
0 0 0
0 0 0
0 0 0
0 0 0
0 0 0
0 0 0
0 0 0
0 0 0
0 0 0
0 0 0
0 0 0
0 0 0
0 0 0
0 0 0
0 0 0
0 0 0
0 0 0
0 0 0
0 0 0
0 0 0
0 0 0
0 0 0
0 0 0
0 0 0
0 0 0
0 0 0
0 0 0
0 0 0
0 0 0
0 0 0
0 0 0
0 0 0
0 0 0
0 0 0
0 0 0
0 0 0
0 0 0
0 0 0
0 0 0
0 0 0
0 0 0
0 0 0
0 0 0
0 0 0
0 0 0
0 0 0
0 0 0
0 0 0
0 0 0
0 0 0
0 0 0
0 0 0
0 0 0
0 0 0
0 0 0
0 0 0
0 0 0
0 0 0
0 0 0
0 0 0
0 0 0
0 0 0
0 0 0
0 0 0
0 0 0
0 0 0
0 0 0
0 0 0
0 0 0
0 0 0
0 0 0
0 0 0
0 0 0
0 0 0
0 0 0
0 0 0
0 0 0
0 0 0
0 0 0
0 0 0
0 0 0
0 0 0
0 0 0
0 0 0
0 0 0
0 0 0
0 0 0
0 0 0
0 0 0
0 0 0
0 0 0
0 0 0
0 0 0
0 0 0
0 0 0
0 0 0
0 0 0
0 0 0
0 0 0
0 0 0
0 0 0
0 0 0
0 0 0
0 0 0
0 0 0
0 0 0
0 0 0
0 0 0
0 0 0
0 0 0
0 0 0
0 0 0
0 0 0
0 0 0
0 0 0
0 0 0
0 0 0
0 0 0
0 0 0
0 0 0
0 0 0
0 0 0
0 0 0
0 0 0
0 0 0
0 0 0
0 0 0
0 0 0
0 0 0
0 0 0
0 0 0
0 0 0
0 0 0
0 0 0
0 0 0
0 0 0
0 0 0
0 0 0
0 0 0
0 0 0
0 0 0
0 0 0
0 0 0
0 0 0
0 0 0
0 0 0
0 0 0
0 0 0
0 0 0
0 0 0
0 0 0
0 0 0
0 0 0
0 0 0
0 0 0
0 0 0
0 0 0
0 0 0
0 0 0
0 0 0
0 0 0
0 0 0
0 0 0
0 0 0
0 0 0
0 0 0
0 0 0
0 0 0
0 0 0
0 0 0
0 0 0
0 0 0
0 0 0
0 0 0
0 0 0
0 0 0
0 0 0
0 0 0
0 0 0
0 0 0
0 0 0
0 0 0
0 0 0
0 0 0
0 0 0
0 0 0
0 0 0
179 179 179
179 179 179
179 179 179
179 179 179
179 179 179
179 179 179
179 179 179
179 179 179
179 179 179
179 179 179
179 179 179
179 179 179
179 179 179
179 179 179
179 179 179
179 179 179
179 179 179
179 179 179
179 179 179
179 179 179
179 179 179
179 179 179
179 179 179
179 179 179
179 179 179
179 179 179
179 179 179
179 179 179
179 179 179
179 179 179
179 179 179
179 179 179
179 179 179
179 179 179
179 179 179
179 179 179
179 179 179
179 179 179
179 179 179
179 179 179
179 179 179
179 179 179
179 179 179
179 179 179
179 179 179
179 179 179
179 179 179
179 179 179
179 179 179
179 179 179
179 179 179
179 179 179
179 179 179
179 179 179
179 179 179
179 179 179
179 179 179
179 179 179
179 179 179
179 179 179
179 179 179
179 179 179
179 179 179
179 179 179
179 179 179
179 179 179
179 179 179
179 179 179
179 179 179
179 179 179
179 179 179
179 179 179
179 179 179
179 179 179
179 179 179
179 179 179
179 179 179
179 179 179
179 179 179
179 179 179
179 179 179
179 179 179
179 179 179
179 179 179
179 179 179
179 179 179
179 179 179
179 179 179
179 179 179
179 179 179
179 179 179
179 179 179
179 179 179
179 179 179
179 179 179
179 179 179
179 179 179
179 179 179
179 179 179
179 179 179
179 179 179
179 179 179
179 179 179
179 179 179
179 179 179
179 179 179
179 179 179
179 179 179
179 179 179
179 179 179
179 179 179
179 179 179
179 179 179
179 179 179
179 179 179
179 179 179
179 179 179
179 179 179
179 179 179
179 179 179
179 179 179
179 179 179
179 179 179
179 179 179
179 179 179
179 179 179
179 179 179
179 179 179
179 179 179
179 179 179
179 179 179
179 179 179
179 179 179
179 179 179
179 179 179
179 179 179
179 179 179
179 179 179
179 179 179
179 179 179
179 179 179
179 179 179
179 179 179
179 179 179
179 179 179
179 179 179
179 179 179
179 179 179
179 179 179
179 179 179
179 179 179
179 179 179
179 179 179
179 179 179
179 179 179
179 179 179
179 179 179
179 179 179
179 179 179
179 179 179
179 179 179
179 179 179
179 179 179
179 179 179
179 179 179
179 179 179
179 179 179
179 179 179
179 179 179
179 179 179
179 179 179
179 179 179
179 179 179
179 179 179
179 179 179
179 179 179
179 179 179
179 179 179
179 179 179
179 179 179
179 179 179
179 179 179
179 179 179
179 179 179
179 179 179
179 179 179
179 179 179
179 179 179
179 179 179
179 179 179
0 0 0
0 0 0
0 0 0
0 0 0
0 0 0
0 0 0
0 0 0
0 0 0
0 0 0
0 0 0
0 0 0
0 0 0
0 0 0
0 0 0
0 0 0
0 0 0
0 0 0
0 0 0
0 0 0
0 0 0
0 0 0
0 0 0
0 0 0
0 0 0
0 0 0
0 0 0
0 0 0
0 0 0
0 0 0
0 0 0
0 0 0
0 0 0
0 0 0
0 0 0
0 0 0
0 0 0
0 0 0
0 0 0
0 0 0
0 0 0
0 0 0
0 0 0
0 0 0
0 0 0
0 0 0
0 0 0
0 0 0
0 0 0
0 0 0
0 0 0
0 0 0
0 0 0
0 0 0
0 0 0
0 0 0
0 0 0
0 0 0
0 0 0
0 0 0
0 0 0
0 0 0
0 0 0
0 0 0
0 0 0
0 0 0
0 0 0
0 0 0
0 0 0
0 0 0
0 0 0
0 0 0
0 0 0
0 0 0
0 0 0
0 0 0
0 0 0
0 0 0
0 0 0
0 0 0
0 0 0
0 0 0
0 0 0
0 0 0
0 0 0
0 0 0
0 0 0
0 0 0
0 0 0
0 0 0
0 0 0
0 0 0
0 0 0
0 0 0
0 0 0
0 0 0
0 0 0
0 0 0
0 0 0
0 0 0
0 0 0
0 0 0
0 0 0
0 0 0
0 0 0
0 0 0
0 0 0
0 0 0
0 0 0
0 0 0
0 0 0
0 0 0
0 0 0
0 0 0
0 0 0
0 0 0
0 0 0
0 0 0
0 0 0
0 0 0
0 0 0
0 0 0
0 0 0
0 0 0
0 0 0
0 0 0
0 0 0
0 0 0
0 0 0
0 0 0
0 0 0
0 0 0
0 0 0
0 0 0
0 0 0
0 0 0
0 0 0
0 0 0
0 0 0
0 0 0
0 0 0
0 0 0
0 0 0
0 0 0
0 0 0
0 0 0
0 0 0
0 0 0
0 0 0
0 0 0
0 0 0
0 0 0
0 0 0
0 0 0
0 0 0
0 0 0
0 0 0
0 0 0
0 0 0
0 0 0
0 0 0
0 0 0
0 0 0
0 0 0
0 0 0
0 0 0
0 0 0
0 0 0
0 0 0
0 0 0
0 0 0
0 0 0
0 0 0
0 0 0
0 0 0
0 0 0
0 0 0
0 0 0
0 0 0
0 0 0
0 0 0
0 0 0
0 0 0
0 0 0
0 0 0
0 0 0
0 0 0
0 0 0
0 0 0
0 0 0
0 0 0
0 0 0
0 0 0
0 0 0
0 0 0
0 0 0
0 0 0
0 0 0
0 0 0
0 0 0
0 0 0
0 0 0
0 0 0
0 0 0
0 0 0
0 0 0
0 0 0
0 0 0
0 0 0
0 0 0
0 0 0
179 179 179
179 179 179
179 179 179
179 179 179
179 179 179
179 179 179
179 179 179
179 179 179
179 179 179
179 179 179
179 179 179
179 179 179
179 179 179
179 179 179
179 179 179
179 179 179
179 179 179
179 179 179
179 179 179
179 179 179
179 179 179
179 179 179
179 179 179
179 179 179
179 179 179
179 179 179
179 179 179
179 179 179
179 179 179
179 179 179
179 179 179
179 179 179
179 179 179
179 179 179
179 179 179
179 179 179
179 179 179
179 179 179
179 179 179
179 179 179
179 179 179
179 179 179
179 179 179
179 179 179
179 179 179
179 179 179
179 179 179
179 179 179
179 179 179
179 179 179
179 179 179
179 179 179
179 179 179
179 179 179
179 179 179
179 179 179
179 179 179
179 179 179
179 179 179
179 179 179
179 179 179
179 179 179
179 179 179
179 179 179
179 179 179
179 179 179
179 179 179
179 179 179
179 179 179
179 179 179
179 179 179
179 179 179
179 179 179
179 179 179
179 179 179
179 179 179
179 179 179
179 179 179
179 179 179
179 179 179
179 179 179
179 179 179
179 179 179
179 179 179
179 179 179
179 179 179
179 179 179
179 179 179
179 179 179
179 179 179
179 179 179
179 179 179
179 179 179
179 179 179
179 179 179
179 179 179
179 179 179
179 179 179
179 179 179
179 179 179
179 179 179
179 179 179
179 179 179
179 179 179
179 179 179
179 179 179
179 179 179
179 179 179
179 179 179
179 179 179
179 179 179
179 179 179
179 179 179
179 179 179
179 179 179
179 179 179
179 179 179
179 179 179
179 179 179
179 179 179
179 179 179
179 179 179
179 179 179
179 179 179
179 179 179
179 179 179
179 179 179
179 179 179
179 179 179
179 179 179
179 179 179
179 179 179
179 179 179
179 179 179
179 179 179
179 179 179
179 179 179
179 179 179
179 179 179
179 179 179
179 179 179
179 179 179
179 179 179
179 179 179
179 179 179
179 179 179
179 179 179
179 179 179
179 179 179
179 179 179
179 179 179
179 179 179
179 179 179
179 179 179
179 179 179
179 179 179
179 179 179
179 179 179
179 179 179
179 179 179
179 179 179
179 179 179
179 179 179
179 179 179
179 179 179
179 179 179
179 179 179
179 179 179
179 179 179
179 179 179
179 179 179
179 179 179
179 179 179
179 179 179
179 179 179
179 179 179
179 179 179
179 179 179
179 179 179
179 179 179
179 179 179
179 179 179
179 179 179
179 179 179
179 179 179
179 179 179
179 179 179
179 179 179
179 179 179
179 179 179
0 0 0
0 0 0
0 0 0
0 0 0
0 0 0
0 0 0
0 0 0
0 0 0
0 0 0
0 0 0
0 0 0
0 0 0
0 0 0
0 0 0
0 0 0
0 0 0
0 0 0
0 0 0
0 0 0
0 0 0
0 0 0
0 0 0
0 0 0
0 0 0
0 0 0
0 0 0
0 0 0
0 0 0
0 0 0
0 0 0
0 0 0
0 0 0
0 0 0
0 0 0
0 0 0
0 0 0
0 0 0
0 0 0
0 0 0
0 0 0
0 0 0
0 0 0
0 0 0
0 0 0
0 0 0
0 0 0
0 0 0
0 0 0
0 0 0
0 0 0
0 0 0
0 0 0
0 0 0
0 0 0
0 0 0
0 0 0
0 0 0
0 0 0
0 0 0
0 0 0
0 0 0
0 0 0
0 0 0
0 0 0
0 0 0
0 0 0
0 0 0
0 0 0
0 0 0
0 0 0
0 0 0
0 0 0
0 0 0
0 0 0
0 0 0
0 0 0
0 0 0
0 0 0
0 0 0
0 0 0
0 0 0
0 0 0
0 0 0
0 0 0
0 0 0
0 0 0
0 0 0
0 0 0
0 0 0
0 0 0
0 0 0
0 0 0
0 0 0
0 0 0
0 0 0
0 0 0
0 0 0
0 0 0
0 0 0
0 0 0
0 0 0
0 0 0
0 0 0
0 0 0
0 0 0
0 0 0
0 0 0
0 0 0
0 0 0
0 0 0
0 0 0
0 0 0
0 0 0
0 0 0
0 0 0
0 0 0
0 0 0
0 0 0
0 0 0
0 0 0
0 0 0
0 0 0
0 0 0
0 0 0
0 0 0
0 0 0
0 0 0
0 0 0
0 0 0
0 0 0
0 0 0
0 0 0
0 0 0
0 0 0
0 0 0
0 0 0
0 0 0
0 0 0
0 0 0
0 0 0
0 0 0
0 0 0
0 0 0
0 0 0
0 0 0
0 0 0
0 0 0
0 0 0
0 0 0
0 0 0
0 0 0
0 0 0
0 0 0
0 0 0
0 0 0
0 0 0
0 0 0
0 0 0
0 0 0
0 0 0
0 0 0
0 0 0
0 0 0
0 0 0
0 0 0
0 0 0
0 0 0
0 0 0
0 0 0
0 0 0
0 0 0
0 0 0
0 0 0
0 0 0
0 0 0
0 0 0
0 0 0
0 0 0
0 0 0
0 0 0
0 0 0
0 0 0
0 0 0
0 0 0
0 0 0
0 0 0
0 0 0
0 0 0
0 0 0
0 0 0
0 0 0
0 0 0
0 0 0
0 0 0
0 0 0
0 0 0
0 0 0
0 0 0
0 0 0
0 0 0
0 0 0
0 0 0
0 0 0
0 0 0
0 0 0
0 0 0
0 0 0
0 0 0
0 0 0
0 0 0
179 179 179
179 179 179
179 179 179
179 179 179
179 179 179
179 179 179
179 179 179
179 179 179
179 179 179
179 179 179
179 179 179
179 179 179
179 179 179
179 179 179
179 179 179
179 179 179
179 179 179
179 179 179
179 179 179
179 179 179
179 179 179
179 179 179
179 179 179
179 179 179
179 179 179
179 179 179
179 179 179
179 179 179
179 179 179
179 179 179
179 179 179
179 179 179
179 179 179
179 179 179
179 179 179
179 179 179
179 179 179
179 179 179
179 179 179
179 179 179
179 179 179
179 179 179
179 179 179
179 179 179
179 179 179
179 179 179
179 179 179
179 179 179
179 179 179
179 179 179
179 179 179
179 179 179
179 179 179
179 179 179
179 179 179
179 179 179
179 179 179
179 179 179
179 179 179
179 179 179
179 179 179
179 179 179
179 179 179
179 179 179
179 179 179
179 179 179
179 179 179
179 179 179
179 179 179
179 179 179
179 179 179
179 179 179
179 179 179
179 179 179
179 179 179
179 179 179
179 179 179
179 179 179
179 179 179
179 179 179
179 179 179
179 179 179
179 179 179
179 179 179
179 179 179
179 179 179
179 179 179
179 179 179
179 179 179
179 179 179
179 179 179
179 179 179
179 179 179
179 179 179
179 179 179
179 179 179
179 179 179
179 179 179
179 179 179
179 179 179
179 179 179
179 179 179
179 179 179
179 179 179
179 179 179
179 179 179
179 179 179
179 179 179
179 179 179
179 179 179
179 179 179
179 179 179
179 179 179
179 179 179
179 179 179
179 179 179
179 179 179
179 179 179
179 179 179
179 179 179
179 179 179
179 179 179
179 179 179
179 179 179
179 179 179
179 179 179
179 179 179
179 179 179
179 179 179
179 179 179
179 179 179
179 179 179
179 179 179
179 179 179
179 179 179
179 179 179
179 179 179
179 179 179
179 179 179
179 179 179
179 179 179
179 179 179
179 179 179
179 179 179
179 179 179
179 179 179
179 179 179
179 179 179
179 179 179
179 179 179
179 179 179
179 179 179
179 179 179
179 179 179
179 179 179
179 179 179
179 179 179
179 179 179
179 179 179
179 179 179
179 179 179
179 179 179
179 179 179
179 179 179
179 179 179
179 179 179
179 179 179
179 179 179
179 179 179
179 179 179
179 179 179
179 179 179
179 179 179
179 179 179
179 179 179
179 179 179
179 179 179
179 179 179
179 179 179
179 179 179
179 179 179
179 179 179
179 179 179
179 179 179
179 179 179
179 179 179
179 179 179
179 179 179
179 179 179
0 0 0
0 0 0
0 0 0
0 0 0
0 0 0
0 0 0
0 0 0
0 0 0
0 0 0
0 0 0
0 0 0
0 0 0
0 0 0
0 0 0
0 0 0
0 0 0
0 0 0
0 0 0
0 0 0
0 0 0
0 0 0
0 0 0
0 0 0
0 0 0
0 0 0
0 0 0
0 0 0
0 0 0
0 0 0
0 0 0
0 0 0
0 0 0
0 0 0
0 0 0
0 0 0
0 0 0
0 0 0
0 0 0
0 0 0
0 0 0
0 0 0
0 0 0
0 0 0
0 0 0
0 0 0
0 0 0
0 0 0
0 0 0
0 0 0
0 0 0
0 0 0
0 0 0
0 0 0
0 0 0
0 0 0
0 0 0
0 0 0
0 0 0
0 0 0
0 0 0
0 0 0
0 0 0
0 0 0
0 0 0
0 0 0
0 0 0
0 0 0
0 0 0
0 0 0
0 0 0
0 0 0
0 0 0
0 0 0
0 0 0
0 0 0
0 0 0
0 0 0
0 0 0
0 0 0
0 0 0
0 0 0
0 0 0
0 0 0
0 0 0
0 0 0
0 0 0
0 0 0
0 0 0
0 0 0
0 0 0
0 0 0
0 0 0
0 0 0
0 0 0
0 0 0
0 0 0
0 0 0
0 0 0
0 0 0
0 0 0
0 0 0
0 0 0
0 0 0
0 0 0
0 0 0
0 0 0
0 0 0
0 0 0
0 0 0
0 0 0
0 0 0
0 0 0
0 0 0
0 0 0
0 0 0
0 0 0
0 0 0
0 0 0
0 0 0
0 0 0
0 0 0
0 0 0
0 0 0
0 0 0
0 0 0
0 0 0
0 0 0
0 0 0
0 0 0
0 0 0
0 0 0
0 0 0
0 0 0
0 0 0
0 0 0
0 0 0
0 0 0
0 0 0
0 0 0
0 0 0
0 0 0
0 0 0
0 0 0
0 0 0
0 0 0
0 0 0
0 0 0
0 0 0
0 0 0
0 0 0
0 0 0
0 0 0
0 0 0
0 0 0
0 0 0
0 0 0
0 0 0
0 0 0
0 0 0
0 0 0
0 0 0
0 0 0
0 0 0
0 0 0
0 0 0
0 0 0
0 0 0
0 0 0
0 0 0
0 0 0
0 0 0
0 0 0
0 0 0
0 0 0
0 0 0
0 0 0
0 0 0
0 0 0
0 0 0
0 0 0
0 0 0
0 0 0
0 0 0
0 0 0
0 0 0
0 0 0
0 0 0
0 0 0
0 0 0
0 0 0
0 0 0
0 0 0
0 0 0
0 0 0
0 0 0
0 0 0
0 0 0
0 0 0
0 0 0
0 0 0
0 0 0
0 0 0
0 0 0
0 0 0
0 0 0
0 0 0
0 0 0
0 0 0
0 0 0
0 0 0
0 0 0
0 0 0
179 179 179
179 179 179
179 179 179
179 179 179
179 179 179
179 179 179
179 179 179
179 179 179
179 179 179
179 179 179
179 179 179
179 179 179
179 179 179
179 179 179
179 179 179
179 179 179
179 179 179
179 179 179
179 179 179
179 179 179
179 179 179
179 179 179
179 179 179
179 179 179
179 179 179
179 179 179
179 179 179
179 179 179
179 179 179
179 179 179
179 179 179
179 179 179
179 179 179
179 179 179
179 179 179
179 179 179
179 179 179
179 179 179
179 179 179
179 179 179
179 179 179
179 179 179
179 179 179
179 179 179
179 179 179
179 179 179
179 179 179
179 179 179
179 179 179
179 179 179
179 179 179
179 179 179
179 179 179
179 179 179
179 179 179
179 179 179
179 179 179
179 179 179
179 179 179
179 179 179
179 179 179
179 179 179
179 179 179
179 179 179
179 179 179
179 179 179
179 179 179
179 179 179
179 179 179
179 179 179
179 179 179
179 179 179
179 179 179
179 179 179
179 179 179
179 179 179
179 179 179
179 179 179
179 179 179
179 179 179
179 179 179
179 179 179
179 179 179
179 179 179
179 179 179
179 179 179
179 179 179
179 179 179
179 179 179
179 179 179
179 179 179
179 179 179
179 179 179
179 179 179
179 179 179
179 179 179
179 179 179
179 179 179
179 179 179
179 179 179
179 179 179
179 179 179
179 179 179
179 179 179
179 179 179
179 179 179
179 179 179
179 179 179
179 179 179
179 179 179
179 179 179
179 179 179
179 179 179
179 179 179
179 179 179
179 179 179
179 179 179
179 179 179
179 179 179
179 179 179
179 179 179
179 179 179
179 179 179
179 179 179
179 179 179
179 179 179
179 179 179
179 179 179
179 179 179
179 179 179
179 179 179
179 179 179
179 179 179
179 179 179
179 179 179
179 179 179
179 179 179
179 179 179
179 179 179
179 179 179
179 179 179
179 179 179
179 179 179
179 179 179
179 179 179
179 179 179
179 179 179
179 179 179
179 179 179
179 179 179
179 179 179
179 179 179
179 179 179
179 179 179
179 179 179
179 179 179
179 179 179
179 179 179
179 179 179
179 179 179
179 179 179
179 179 179
179 179 179
179 179 179
179 179 179
179 179 179
179 179 179
179 179 179
179 179 179
179 179 179
179 179 179
179 179 179
179 179 179
179 179 179
179 179 179
179 179 179
179 179 179
179 179 179
179 179 179
179 179 179
179 179 179
179 179 179
179 179 179
179 179 179
179 179 179
179 179 179
179 179 179
179 179 179
0 0 0
0 0 0
0 0 0
0 0 0
0 0 0
0 0 0
0 0 0
0 0 0
0 0 0
0 0 0
0 0 0
0 0 0
0 0 0
0 0 0
0 0 0
0 0 0
0 0 0
0 0 0
0 0 0
0 0 0
0 0 0
0 0 0
0 0 0
0 0 0
0 0 0
0 0 0
0 0 0
0 0 0
0 0 0
0 0 0
0 0 0
0 0 0
0 0 0
0 0 0
0 0 0
0 0 0
0 0 0
0 0 0
0 0 0
0 0 0
0 0 0
0 0 0
0 0 0
0 0 0
0 0 0
0 0 0
0 0 0
0 0 0
0 0 0
0 0 0
0 0 0
0 0 0
0 0 0
0 0 0
0 0 0
0 0 0
0 0 0
0 0 0
0 0 0
0 0 0
0 0 0
0 0 0
0 0 0
0 0 0
0 0 0
0 0 0
0 0 0
0 0 0
0 0 0
0 0 0
0 0 0
0 0 0
0 0 0
0 0 0
0 0 0
0 0 0
0 0 0
0 0 0
0 0 0
0 0 0
0 0 0
0 0 0
0 0 0
0 0 0
0 0 0
0 0 0
0 0 0
0 0 0
0 0 0
0 0 0
0 0 0
0 0 0
0 0 0
0 0 0
0 0 0
0 0 0
0 0 0
0 0 0
0 0 0
0 0 0
0 0 0
0 0 0
0 0 0
0 0 0
0 0 0
0 0 0
0 0 0
0 0 0
0 0 0
0 0 0
0 0 0
0 0 0
0 0 0
0 0 0
0 0 0
0 0 0
0 0 0
0 0 0
0 0 0
0 0 0
0 0 0
0 0 0
0 0 0
0 0 0
0 0 0
0 0 0
0 0 0
0 0 0
0 0 0
0 0 0
0 0 0
0 0 0
0 0 0
0 0 0
0 0 0
0 0 0
0 0 0
0 0 0
0 0 0
0 0 0
0 0 0
0 0 0
0 0 0
0 0 0
0 0 0
0 0 0
0 0 0
0 0 0
0 0 0
0 0 0
0 0 0
0 0 0
0 0 0
0 0 0
0 0 0
0 0 0
0 0 0
0 0 0
0 0 0
0 0 0
0 0 0
0 0 0
0 0 0
0 0 0
0 0 0
0 0 0
0 0 0
0 0 0
0 0 0
0 0 0
0 0 0
0 0 0
0 0 0
0 0 0
0 0 0
0 0 0
0 0 0
0 0 0
0 0 0
0 0 0
0 0 0
0 0 0
0 0 0
0 0 0
0 0 0
0 0 0
0 0 0
0 0 0
0 0 0
0 0 0
0 0 0
0 0 0
0 0 0
0 0 0
0 0 0
0 0 0
0 0 0
0 0 0
0 0 0
0 0 0
0 0 0
0 0 0
0 0 0
0 0 0
0 0 0
0 0 0
0 0 0
0 0 0
0 0 0
0 0 0
0 0 0
0 0 0
179 179 179
179 179 179
179 179 179
179 179 179
179 179 179
179 179 179
179 179 179
179 179 179
179 179 179
179 179 179
179 179 179
179 179 179
179 179 179
179 179 179
179 179 179
179 179 179
179 179 179
179 179 179
179 179 179
179 179 179
179 179 179
179 179 179
179 179 179
179 179 179
179 179 179
179 179 179
179 179 179
179 179 179
179 179 179
179 179 179
179 179 179
179 179 179
179 179 179
179 179 179
179 179 179
179 179 179
179 179 179
179 179 179
179 179 179
179 179 179
179 179 179
179 179 179
179 179 179
179 179 179
179 179 179
179 179 179
179 179 179
179 179 179
179 179 179
179 179 179
179 179 179
179 179 179
179 179 179
179 179 179
179 179 179
179 179 179
179 179 179
179 179 179
179 179 179
179 179 179
179 179 179
179 179 179
179 179 179
179 179 179
179 179 179
179 179 179
179 179 179
179 179 179
179 179 179
179 179 179
179 179 179
179 179 179
179 179 179
179 179 179
179 179 179
179 179 179
179 179 179
179 179 179
179 179 179
179 179 179
179 179 179
179 179 179
179 179 179
179 179 179
179 179 179
179 179 179
179 179 179
179 179 179
179 179 179
179 179 179
179 179 179
179 179 179
179 179 179
179 179 179
179 179 179
179 179 179
179 179 179
179 179 179
179 179 179
179 179 179
179 179 179
179 179 179
179 179 179
179 179 179
179 179 179
179 179 179
179 179 179
179 179 179
179 179 179
179 179 179
179 179 179
179 179 179
179 179 179
179 179 179
179 179 179
179 179 179
179 179 179
179 179 179
179 179 179
179 179 179
179 179 179
179 179 179
179 179 179
179 179 179
179 179 179
179 179 179
179 179 179
179 179 179
179 179 179
179 179 179
179 179 179
179 179 179
179 179 179
179 179 179
179 179 179
179 179 179
179 179 179
179 179 179
179 179 179
179 179 179
179 179 179
179 179 179
179 179 179
179 179 179
179 179 179
179 179 179
179 179 179
179 179 179
179 179 179
179 179 179
179 179 179
179 179 179
179 179 179
179 179 179
179 179 179
179 179 179
179 179 179
179 179 179
179 179 179
179 179 179
179 179 179
179 179 179
179 179 179
179 179 179
179 179 179
179 179 179
179 179 179
179 179 179
179 179 179
179 179 179
179 179 179
179 179 179
179 179 179
179 179 179
179 179 179
179 179 179
179 179 179
179 179 179
179 179 179
179 179 179
179 179 179
179 179 179
179 179 179
179 179 179
179 179 179
179 179 179
179 179 179
179 179 179
0 0 0
0 0 0
0 0 0
0 0 0
0 0 0
0 0 0
0 0 0
0 0 0
0 0 0
0 0 0
0 0 0
0 0 0
0 0 0
0 0 0
0 0 0
0 0 0
0 0 0
0 0 0
0 0 0
0 0 0
0 0 0
0 0 0
0 0 0
0 0 0
0 0 0
0 0 0
0 0 0
0 0 0
0 0 0
0 0 0
0 0 0
0 0 0
0 0 0
0 0 0
0 0 0
0 0 0
0 0 0
0 0 0
0 0 0
0 0 0
0 0 0
0 0 0
0 0 0
0 0 0
0 0 0
0 0 0
0 0 0
0 0 0
0 0 0
0 0 0
0 0 0
0 0 0
0 0 0
0 0 0
0 0 0
0 0 0
0 0 0
0 0 0
0 0 0
0 0 0
0 0 0
0 0 0
0 0 0
0 0 0
0 0 0
0 0 0
0 0 0
0 0 0
0 0 0
0 0 0
0 0 0
0 0 0
0 0 0
0 0 0
0 0 0
0 0 0
0 0 0
0 0 0
0 0 0
0 0 0
0 0 0
0 0 0
0 0 0
0 0 0
0 0 0
0 0 0
0 0 0
0 0 0
0 0 0
0 0 0
0 0 0
0 0 0
0 0 0
0 0 0
0 0 0
0 0 0
0 0 0
0 0 0
0 0 0
0 0 0
0 0 0
0 0 0
0 0 0
0 0 0
0 0 0
0 0 0
0 0 0
0 0 0
0 0 0
0 0 0
0 0 0
0 0 0
0 0 0
0 0 0
0 0 0
0 0 0
0 0 0
0 0 0
0 0 0
0 0 0
0 0 0
0 0 0
0 0 0
0 0 0
0 0 0
0 0 0
0 0 0
0 0 0
0 0 0
0 0 0
0 0 0
0 0 0
0 0 0
0 0 0
0 0 0
0 0 0
0 0 0
0 0 0
0 0 0
0 0 0
0 0 0
0 0 0
0 0 0
0 0 0
0 0 0
0 0 0
0 0 0
0 0 0
0 0 0
0 0 0
0 0 0
0 0 0
0 0 0
0 0 0
0 0 0
0 0 0
0 0 0
0 0 0
0 0 0
0 0 0
0 0 0
0 0 0
0 0 0
0 0 0
0 0 0
0 0 0
0 0 0
0 0 0
0 0 0
0 0 0
0 0 0
0 0 0
0 0 0
0 0 0
0 0 0
0 0 0
0 0 0
0 0 0
0 0 0
0 0 0
0 0 0
0 0 0
0 0 0
0 0 0
0 0 0
0 0 0
0 0 0
0 0 0
0 0 0
0 0 0
0 0 0
0 0 0
0 0 0
0 0 0
0 0 0
0 0 0
0 0 0
0 0 0
0 0 0
0 0 0
0 0 0
0 0 0
0 0 0
0 0 0
0 0 0
0 0 0
0 0 0
0 0 0
0 0 0
0 0 0
0 0 0
0 0 0
179 179 179
179 179 179
179 179 179
179 179 179
179 179 179
179 179 179
179 179 179
179 179 179
179 179 179
179 179 179
179 179 179
179 179 179
179 179 179
179 179 179
179 179 179
179 179 179
179 179 179
179 179 179
179 179 179
179 179 179
179 179 179
179 179 179
179 179 179
179 179 179
179 179 179
179 179 179
179 179 179
179 179 179
179 179 179
179 179 179
179 179 179
179 179 179
179 179 179
179 179 179
179 179 179
179 179 179
179 179 179
179 179 179
179 179 179
179 179 179
179 179 179
179 179 179
179 179 179
179 179 179
179 179 179
179 179 179
179 179 179
179 179 179
179 179 179
179 179 179
179 179 179
179 179 179
179 179 179
179 179 179
179 179 179
179 179 179
179 179 179
179 179 179
179 179 179
179 179 179
179 179 179
179 179 179
179 179 179
179 179 179
179 179 179
179 179 179
179 179 179
179 179 179
179 179 179
179 179 179
179 179 179
179 179 179
179 179 179
179 179 179
179 179 179
179 179 179
179 179 179
179 179 179
179 179 179
179 179 179
179 179 179
179 179 179
179 179 179
179 179 179
179 179 179
179 179 179
179 179 179
179 179 179
179 179 179
179 179 179
179 179 179
179 179 179
179 179 179
179 179 179
179 179 179
179 179 179
179 179 179
179 179 179
179 179 179
179 179 179
179 179 179
179 179 179
179 179 179
179 179 179
179 179 179
179 179 179
179 179 179
179 179 179
179 179 179
179 179 179
179 179 179
179 179 179
179 179 179
179 179 179
179 179 179
179 179 179
179 179 179
179 179 179
179 179 179
179 179 179
179 179 179
179 179 179
179 179 179
179 179 179
179 179 179
179 179 179
179 179 179
179 179 179
179 179 179
179 179 179
179 179 179
179 179 179
179 179 179
179 179 179
179 179 179
179 179 179
179 179 179
179 179 179
179 179 179
179 179 179
179 179 179
179 179 179
179 179 179
179 179 179
179 179 179
179 179 179
179 179 179
179 179 179
179 179 179
179 179 179
179 179 179
179 179 179
179 179 179
179 179 179
179 179 179
179 179 179
179 179 179
179 179 179
179 179 179
179 179 179
179 179 179
179 179 179
179 179 179
179 179 179
179 179 179
179 179 179
179 179 179
179 179 179
179 179 179
179 179 179
179 179 179
179 179 179
179 179 179
179 179 179
179 179 179
179 179 179
179 179 179
179 179 179
179 179 179
179 179 179
179 179 179
179 179 179
179 179 179
179 179 179
179 179 179
179 179 179
179 179 179
179 179 179
0 0 0
0 0 0
0 0 0
0 0 0
0 0 0
0 0 0
0 0 0
0 0 0
0 0 0
0 0 0
0 0 0
0 0 0
0 0 0
0 0 0
0 0 0
0 0 0
0 0 0
0 0 0
0 0 0
0 0 0
0 0 0
0 0 0
0 0 0
0 0 0
0 0 0
0 0 0
0 0 0
0 0 0
0 0 0
0 0 0
0 0 0
0 0 0
0 0 0
0 0 0
0 0 0
0 0 0
0 0 0
0 0 0
0 0 0
0 0 0
0 0 0
0 0 0
0 0 0
0 0 0
0 0 0
0 0 0
0 0 0
0 0 0
0 0 0
0 0 0
0 0 0
0 0 0
0 0 0
0 0 0
0 0 0
0 0 0
0 0 0
0 0 0
0 0 0
0 0 0
0 0 0
0 0 0
0 0 0
0 0 0
0 0 0
0 0 0
0 0 0
0 0 0
0 0 0
0 0 0
0 0 0
0 0 0
0 0 0
0 0 0
0 0 0
0 0 0
0 0 0
0 0 0
0 0 0
0 0 0
0 0 0
0 0 0
0 0 0
0 0 0
0 0 0
0 0 0
0 0 0
0 0 0
0 0 0
0 0 0
0 0 0
0 0 0
0 0 0
0 0 0
0 0 0
0 0 0
0 0 0
0 0 0
0 0 0
0 0 0
0 0 0
0 0 0
0 0 0
0 0 0
0 0 0
0 0 0
0 0 0
0 0 0
0 0 0
0 0 0
0 0 0
0 0 0
0 0 0
0 0 0
0 0 0
0 0 0
0 0 0
0 0 0
0 0 0
0 0 0
0 0 0
0 0 0
0 0 0
0 0 0
0 0 0
0 0 0
0 0 0
0 0 0
0 0 0
0 0 0
0 0 0
0 0 0
0 0 0
0 0 0
0 0 0
0 0 0
0 0 0
0 0 0
0 0 0
0 0 0
0 0 0
0 0 0
0 0 0
0 0 0
0 0 0
0 0 0
0 0 0
0 0 0
0 0 0
0 0 0
0 0 0
0 0 0
0 0 0
0 0 0
0 0 0
0 0 0
0 0 0
0 0 0
0 0 0
0 0 0
0 0 0
0 0 0
0 0 0
0 0 0
0 0 0
0 0 0
0 0 0
0 0 0
0 0 0
0 0 0
0 0 0
0 0 0
0 0 0
0 0 0
0 0 0
0 0 0
0 0 0
0 0 0
0 0 0
0 0 0
0 0 0
0 0 0
0 0 0
0 0 0
0 0 0
0 0 0
0 0 0
0 0 0
0 0 0
0 0 0
0 0 0
0 0 0
0 0 0
0 0 0
0 0 0
0 0 0
0 0 0
0 0 0
0 0 0
0 0 0
0 0 0
0 0 0
0 0 0
0 0 0
0 0 0
0 0 0
0 0 0
0 0 0
0 0 0
0 0 0
0 0 0
0 0 0
179 179 179
179 179 179
179 179 179
179 179 179
179 179 179
179 179 179
179 179 179
179 179 179
179 179 179
179 179 179
179 179 179
179 179 179
179 179 179
179 179 179
179 179 179
179 179 179
179 179 179
179 179 179
179 179 179
179 179 179
179 179 179
179 179 179
179 179 179
179 179 179
179 179 179
179 179 179
179 179 179
179 179 179
179 179 179
179 179 179
179 179 179
179 179 179
179 179 179
179 179 179
179 179 179
179 179 179
179 179 179
179 179 179
179 179 179
179 179 179
179 179 179
179 179 179
179 179 179
179 179 179
179 179 179
179 179 179
179 179 179
179 179 179
179 179 179
179 179 179
179 179 179
179 179 179
179 179 179
179 179 179
179 179 179
179 179 179
179 179 179
179 179 179
179 179 179
179 179 179
179 179 179
179 179 179
179 179 179
179 179 179
179 179 179
179 179 179
179 179 179
179 179 179
179 179 179
179 179 179
179 179 179
179 179 179
179 179 179
179 179 179
179 179 179
179 179 179
179 179 179
179 179 179
179 179 179
179 179 179
179 179 179
179 179 179
179 179 179
179 179 179
179 179 179
179 179 179
179 179 179
179 179 179
179 179 179
179 179 179
179 179 179
179 179 179
179 179 179
179 179 179
179 179 179
179 179 179
179 179 179
179 179 179
179 179 179
179 179 179
179 179 179
179 179 179
179 179 179
179 179 179
179 179 179
179 179 179
179 179 179
179 179 179
179 179 179
179 179 179
179 179 179
179 179 179
179 179 179
179 179 179
179 179 179
179 179 179
179 179 179
179 179 179
179 179 179
179 179 179
179 179 179
179 179 179
179 179 179
179 179 179
179 179 179
179 179 179
179 179 179
179 179 179
179 179 179
179 179 179
179 179 179
179 179 179
179 179 179
179 179 179
179 179 179
179 179 179
179 179 179
179 179 179
179 179 179
179 179 179
179 179 179
179 179 179
179 179 179
179 179 179
179 179 179
179 179 179
179 179 179
179 179 179
179 179 179
179 179 179
179 179 179
179 179 179
179 179 179
179 179 179
179 179 179
179 179 179
179 179 179
179 179 179
179 179 179
179 179 179
179 179 179
179 179 179
179 179 179
179 179 179
179 179 179
179 179 179
179 179 179
179 179 179
179 179 179
179 179 179
179 179 179
179 179 179
179 179 179
179 179 179
179 179 179
179 179 179
179 179 179
179 179 179
179 179 179
179 179 179
179 179 179
179 179 179
179 179 179
179 179 179
179 179 179
179 179 179
179 179 179
179 179 179
0 0 0
0 0 0
0 0 0
0 0 0
0 0 0
0 0 0
0 0 0
0 0 0
0 0 0
0 0 0
0 0 0
0 0 0
0 0 0
0 0 0
0 0 0
0 0 0
0 0 0
0 0 0
0 0 0
0 0 0
0 0 0
0 0 0
0 0 0
0 0 0
0 0 0
0 0 0
0 0 0
0 0 0
0 0 0
0 0 0
0 0 0
0 0 0
0 0 0
0 0 0
0 0 0
0 0 0
0 0 0
0 0 0
0 0 0
0 0 0
0 0 0
0 0 0
0 0 0
0 0 0
0 0 0
0 0 0
0 0 0
0 0 0
0 0 0
0 0 0
0 0 0
0 0 0
0 0 0
0 0 0
0 0 0
0 0 0
0 0 0
0 0 0
0 0 0
0 0 0
0 0 0
0 0 0
0 0 0
0 0 0
0 0 0
0 0 0
0 0 0
0 0 0
0 0 0
0 0 0
0 0 0
0 0 0
0 0 0
0 0 0
0 0 0
0 0 0
0 0 0
0 0 0
0 0 0
0 0 0
0 0 0
0 0 0
0 0 0
0 0 0
0 0 0
0 0 0
0 0 0
0 0 0
0 0 0
0 0 0
0 0 0
0 0 0
0 0 0
0 0 0
0 0 0
0 0 0
0 0 0
0 0 0
0 0 0
0 0 0
0 0 0
0 0 0
0 0 0
0 0 0
0 0 0
0 0 0
0 0 0
0 0 0
0 0 0
0 0 0
0 0 0
0 0 0
0 0 0
0 0 0
0 0 0
0 0 0
0 0 0
0 0 0
0 0 0
0 0 0
0 0 0
0 0 0
0 0 0
0 0 0
0 0 0
0 0 0
0 0 0
0 0 0
0 0 0
0 0 0
0 0 0
0 0 0
0 0 0
0 0 0
0 0 0
0 0 0
0 0 0
0 0 0
0 0 0
0 0 0
0 0 0
0 0 0
0 0 0
0 0 0
0 0 0
0 0 0
0 0 0
0 0 0
0 0 0
0 0 0
0 0 0
0 0 0
0 0 0
0 0 0
0 0 0
0 0 0
0 0 0
0 0 0
0 0 0
0 0 0
0 0 0
0 0 0
0 0 0
0 0 0
0 0 0
0 0 0
0 0 0
0 0 0
0 0 0
0 0 0
0 0 0
0 0 0
0 0 0
0 0 0
0 0 0
0 0 0
0 0 0
0 0 0
0 0 0
0 0 0
0 0 0
0 0 0
0 0 0
0 0 0
0 0 0
0 0 0
0 0 0
0 0 0
0 0 0
0 0 0
0 0 0
0 0 0
0 0 0
0 0 0
0 0 0
0 0 0
0 0 0
0 0 0
0 0 0
0 0 0
0 0 0
0 0 0
0 0 0
0 0 0
0 0 0
0 0 0
0 0 0
0 0 0
0 0 0
0 0 0
0 0 0
0 0 0
179 179 179
179 179 179
179 179 179
179 179 179
179 179 179
179 179 179
179 179 179
179 179 179
179 179 179
179 179 179
179 179 179
179 179 179
179 179 179
179 179 179
179 179 179
179 179 179
179 179 179
179 179 179
179 179 179
179 179 179
179 179 179
179 179 179
179 179 179
179 179 179
179 179 179
179 179 179
179 179 179
179 179 179
179 179 179
179 179 179
179 179 179
179 179 179
179 179 179
179 179 179
179 179 179
179 179 179
179 179 179
179 179 179
179 179 179
179 179 179
179 179 179
179 179 179
179 179 179
179 179 179
179 179 179
179 179 179
179 179 179
179 179 179
179 179 179
179 179 179
179 179 179
179 179 179
179 179 179
179 179 179
179 179 179
179 179 179
179 179 179
179 179 179
179 179 179
179 179 179
179 179 179
179 179 179
179 179 179
179 179 179
179 179 179
179 179 179
179 179 179
179 179 179
179 179 179
179 179 179
179 179 179
179 179 179
179 179 179
179 179 179
179 179 179
179 179 179
179 179 179
179 179 179
179 179 179
179 179 179
179 179 179
179 179 179
179 179 179
179 179 179
179 179 179
179 179 179
179 179 179
179 179 179
179 179 179
179 179 179
179 179 179
179 179 179
179 179 179
179 179 179
179 179 179
179 179 179
179 179 179
179 179 179
179 179 179
179 179 179
179 179 179
179 179 179
179 179 179
179 179 179
179 179 179
179 179 179
179 179 179
179 179 179
179 179 179
179 179 179
179 179 179
179 179 179
179 179 179
179 179 179
179 179 179
179 179 179
179 179 179
179 179 179
179 179 179
179 179 179
179 179 179
179 179 179
179 179 179
179 179 179
179 179 179
179 179 179
179 179 179
179 179 179
179 179 179
179 179 179
179 179 179
179 179 179
179 179 179
179 179 179
179 179 179
179 179 179
179 179 179
179 179 179
179 179 179
179 179 179
179 179 179
179 179 179
179 179 179
179 179 179
179 179 179
179 179 179
179 179 179
179 179 179
179 179 179
179 179 179
179 179 179
179 179 179
179 179 179
179 179 179
179 179 179
179 179 179
179 179 179
179 179 179
179 179 179
179 179 179
179 179 179
179 179 179
179 179 179
179 179 179
179 179 179
179 179 179
179 179 179
179 179 179
179 179 179
179 179 179
179 179 179
179 179 179
179 179 179
179 179 179
179 179 179
179 179 179
179 179 179
179 179 179
179 179 179
179 179 179
179 179 179
179 179 179
179 179 179
179 179 179
179 179 179
179 179 179
179 179 179
179 179 179
0 0 0
0 0 0
0 0 0
0 0 0
0 0 0
0 0 0
0 0 0
0 0 0
0 0 0
0 0 0
0 0 0
0 0 0
0 0 0
0 0 0
0 0 0
0 0 0
0 0 0
0 0 0
0 0 0
0 0 0
0 0 0
0 0 0
0 0 0
0 0 0
0 0 0
0 0 0
0 0 0
0 0 0
0 0 0
0 0 0
0 0 0
0 0 0
0 0 0
0 0 0
0 0 0
0 0 0
0 0 0
0 0 0
0 0 0
0 0 0
0 0 0
0 0 0
0 0 0
0 0 0
0 0 0
0 0 0
0 0 0
0 0 0
0 0 0
0 0 0
0 0 0
0 0 0
0 0 0
0 0 0
0 0 0
0 0 0
0 0 0
0 0 0
0 0 0
0 0 0
0 0 0
0 0 0
0 0 0
0 0 0
0 0 0
0 0 0
0 0 0
0 0 0
0 0 0
0 0 0
0 0 0
0 0 0
0 0 0
0 0 0
0 0 0
0 0 0
0 0 0
0 0 0
0 0 0
0 0 0
0 0 0
0 0 0
0 0 0
0 0 0
0 0 0
0 0 0
0 0 0
0 0 0
0 0 0
0 0 0
0 0 0
0 0 0
0 0 0
0 0 0
0 0 0
0 0 0
0 0 0
0 0 0
0 0 0
0 0 0
0 0 0
0 0 0
0 0 0
0 0 0
0 0 0
0 0 0
0 0 0
0 0 0
0 0 0
0 0 0
0 0 0
0 0 0
0 0 0
0 0 0
0 0 0
0 0 0
0 0 0
0 0 0
0 0 0
0 0 0
0 0 0
0 0 0
0 0 0
0 0 0
0 0 0
0 0 0
0 0 0
0 0 0
0 0 0
0 0 0
0 0 0
0 0 0
0 0 0
0 0 0
0 0 0
0 0 0
0 0 0
0 0 0
0 0 0
0 0 0
0 0 0
0 0 0
0 0 0
0 0 0
0 0 0
0 0 0
0 0 0
0 0 0
0 0 0
0 0 0
0 0 0
0 0 0
0 0 0
0 0 0
0 0 0
0 0 0
0 0 0
0 0 0
0 0 0
0 0 0
0 0 0
0 0 0
0 0 0
0 0 0
0 0 0
0 0 0
0 0 0
0 0 0
0 0 0
0 0 0
0 0 0
0 0 0
0 0 0
0 0 0
0 0 0
0 0 0
0 0 0
0 0 0
0 0 0
0 0 0
0 0 0
0 0 0
0 0 0
0 0 0
0 0 0
0 0 0
0 0 0
0 0 0
0 0 0
0 0 0
0 0 0
0 0 0
0 0 0
0 0 0
0 0 0
0 0 0
0 0 0
0 0 0
0 0 0
0 0 0
0 0 0
0 0 0
0 0 0
0 0 0
0 0 0
0 0 0
0 0 0
0 0 0
0 0 0
0 0 0
0 0 0
0 0 0
179 179 179
179 179 179
179 179 179
179 179 179
179 179 179
179 179 179
179 179 179
179 179 179
179 179 179
179 179 179
179 179 179
179 179 179
179 179 179
179 179 179
179 179 179
179 179 179
179 179 179
179 179 179
179 179 179
179 179 179
179 179 179
179 179 179
179 179 179
179 179 179
179 179 179
179 179 179
179 179 179
179 179 179
179 179 179
179 179 179
179 179 179
179 179 179
179 179 179
179 179 179
179 179 179
179 179 179
179 179 179
179 179 179
179 179 179
179 179 179
179 179 179
179 179 179
179 179 179
179 179 179
179 179 179
179 179 179
179 179 179
179 179 179
179 179 179
179 179 179
179 179 179
179 179 179
179 179 179
179 179 179
179 179 179
179 179 179
179 179 179
179 179 179
179 179 179
179 179 179
179 179 179
179 179 179
179 179 179
179 179 179
179 179 179
179 179 179
179 179 179
179 179 179
179 179 179
179 179 179
179 179 179
179 179 179
179 179 179
179 179 179
179 179 179
179 179 179
179 179 179
179 179 179
179 179 179
179 179 179
179 179 179
179 179 179
179 179 179
179 179 179
179 179 179
179 179 179
179 179 179
179 179 179
179 179 179
179 179 179
179 179 179
179 179 179
179 179 179
179 179 179
179 179 179
179 179 179
179 179 179
179 179 179
179 179 179
179 179 179
179 179 179
179 179 179
179 179 179
179 179 179
179 179 179
179 179 179
179 179 179
179 179 179
179 179 179
179 179 179
179 179 179
179 179 179
179 179 179
179 179 179
179 179 179
179 179 179
179 179 179
179 179 179
179 179 179
179 179 179
179 179 179
179 179 179
179 179 179
179 179 179
179 179 179
179 179 179
179 179 179
179 179 179
179 179 179
179 179 179
179 179 179
179 179 179
179 179 179
179 179 179
179 179 179
179 179 179
179 179 179
179 179 179
179 179 179
179 179 179
179 179 179
179 179 179
179 179 179
179 179 179
179 179 179
179 179 179
179 179 179
179 179 179
179 179 179
179 179 179
179 179 179
179 179 179
179 179 179
179 179 179
179 179 179
179 179 179
179 179 179
179 179 179
179 179 179
179 179 179
179 179 179
179 179 179
179 179 179
179 179 179
179 179 179
179 179 179
179 179 179
179 179 179
179 179 179
179 179 179
179 179 179
179 179 179
179 179 179
179 179 179
179 179 179
179 179 179
179 179 179
179 179 179
179 179 179
179 179 179
179 179 179
179 179 179
179 179 179
179 179 179
179 179 179
179 179 179
179 179 179
179 179 179
0 0 0
0 0 0
0 0 0
0 0 0
0 0 0
0 0 0
0 0 0
0 0 0
0 0 0
0 0 0
0 0 0
0 0 0
0 0 0
0 0 0
0 0 0
0 0 0
0 0 0
0 0 0
0 0 0
0 0 0
0 0 0
0 0 0
0 0 0
0 0 0
0 0 0
0 0 0
0 0 0
0 0 0
0 0 0
0 0 0
0 0 0
0 0 0
0 0 0
0 0 0
0 0 0
0 0 0
0 0 0
0 0 0
0 0 0
0 0 0
0 0 0
0 0 0
0 0 0
0 0 0
0 0 0
0 0 0
0 0 0
0 0 0
0 0 0
0 0 0
0 0 0
0 0 0
0 0 0
0 0 0
0 0 0
0 0 0
0 0 0
0 0 0
0 0 0
0 0 0
0 0 0
0 0 0
0 0 0
0 0 0
0 0 0
0 0 0
0 0 0
0 0 0
0 0 0
0 0 0
0 0 0
0 0 0
0 0 0
0 0 0
0 0 0
0 0 0
0 0 0
0 0 0
0 0 0
0 0 0
0 0 0
0 0 0
0 0 0
0 0 0
0 0 0
0 0 0
0 0 0
0 0 0
0 0 0
0 0 0
0 0 0
0 0 0
0 0 0
0 0 0
0 0 0
0 0 0
0 0 0
0 0 0
0 0 0
0 0 0
0 0 0
0 0 0
0 0 0
0 0 0
0 0 0
0 0 0
0 0 0
0 0 0
0 0 0
0 0 0
0 0 0
0 0 0
0 0 0
0 0 0
0 0 0
0 0 0
0 0 0
0 0 0
0 0 0
0 0 0
0 0 0
0 0 0
0 0 0
0 0 0
0 0 0
0 0 0
0 0 0
0 0 0
0 0 0
0 0 0
0 0 0
0 0 0
0 0 0
0 0 0
0 0 0
0 0 0
0 0 0
0 0 0
0 0 0
0 0 0
0 0 0
0 0 0
0 0 0
0 0 0
0 0 0
0 0 0
0 0 0
0 0 0
0 0 0
0 0 0
0 0 0
0 0 0
0 0 0
0 0 0
0 0 0
0 0 0
0 0 0
0 0 0
0 0 0
0 0 0
0 0 0
0 0 0
0 0 0
0 0 0
0 0 0
0 0 0
0 0 0
0 0 0
0 0 0
0 0 0
0 0 0
0 0 0
0 0 0
0 0 0
0 0 0
0 0 0
0 0 0
0 0 0
0 0 0
0 0 0
0 0 0
0 0 0
0 0 0
0 0 0
0 0 0
0 0 0
0 0 0
0 0 0
0 0 0
0 0 0
0 0 0
0 0 0
0 0 0
0 0 0
0 0 0
0 0 0
0 0 0
0 0 0
0 0 0
0 0 0
0 0 0
0 0 0
0 0 0
0 0 0
0 0 0
0 0 0
0 0 0
0 0 0
0 0 0
0 0 0
0 0 0
0 0 0
179 179 179
179 179 179
179 179 179
179 179 179
179 179 179
179 179 179
179 179 179
179 179 179
179 179 179
179 179 179
179 179 179
179 179 179
179 179 179
179 179 179
179 179 179
179 179 179
179 179 179
179 179 179
179 179 179
179 179 179
179 179 179
179 179 179
179 179 179
179 179 179
179 179 179
179 179 179
179 179 179
179 179 179
179 179 179
179 179 179
179 179 179
179 179 179
179 179 179
179 179 179
179 179 179
179 179 179
179 179 179
179 179 179
179 179 179
179 179 179
179 179 179
179 179 179
179 179 179
179 179 179
179 179 179
179 179 179
179 179 179
179 179 179
179 179 179
179 179 179
179 179 179
179 179 179
179 179 179
179 179 179
179 179 179
179 179 179
179 179 179
179 179 179
179 179 179
179 179 179
179 179 179
179 179 179
179 179 179
179 179 179
179 179 179
179 179 179
179 179 179
179 179 179
179 179 179
179 179 179
179 179 179
179 179 179
179 179 179
179 179 179
179 179 179
179 179 179
179 179 179
179 179 179
179 179 179
179 179 179
179 179 179
179 179 179
179 179 179
179 179 179
179 179 179
179 179 179
179 179 179
179 179 179
179 179 179
179 179 179
179 179 179
179 179 179
179 179 179
179 179 179
179 179 179
179 179 179
179 179 179
179 179 179
179 179 179
179 179 179
179 179 179
179 179 179
179 179 179
179 179 179
179 179 179
179 179 179
179 179 179
179 179 179
179 179 179
179 179 179
179 179 179
179 179 179
179 179 179
179 179 179
179 179 179
179 179 179
179 179 179
179 179 179
179 179 179
179 179 179
179 179 179
179 179 179
179 179 179
179 179 179
179 179 179
179 179 179
179 179 179
179 179 179
179 179 179
179 179 179
179 179 179
179 179 179
179 179 179
179 179 179
179 179 179
179 179 179
179 179 179
179 179 179
179 179 179
179 179 179
179 179 179
179 179 179
179 179 179
179 179 179
179 179 179
179 179 179
179 179 179
179 179 179
179 179 179
179 179 179
179 179 179
179 179 179
179 179 179
179 179 179
179 179 179
179 179 179
179 179 179
179 179 179
179 179 179
179 179 179
179 179 179
179 179 179
179 179 179
179 179 179
179 179 179
179 179 179
179 179 179
179 179 179
179 179 179
179 179 179
179 179 179
179 179 179
179 179 179
179 179 179
179 179 179
179 179 179
179 179 179
179 179 179
179 179 179
179 179 179
179 179 179
179 179 179
179 179 179
179 179 179
179 179 179
179 179 179
179 179 179
179 179 179
0 0 0
0 0 0
0 0 0
0 0 0
0 0 0
0 0 0
0 0 0
0 0 0
0 0 0
0 0 0
0 0 0
0 0 0
0 0 0
0 0 0
0 0 0
0 0 0
0 0 0
0 0 0
0 0 0
0 0 0
0 0 0
0 0 0
0 0 0
0 0 0
0 0 0
0 0 0
0 0 0
0 0 0
0 0 0
0 0 0
0 0 0
0 0 0
0 0 0
0 0 0
0 0 0
0 0 0
0 0 0
0 0 0
0 0 0
0 0 0
0 0 0
0 0 0
0 0 0
0 0 0
0 0 0
0 0 0
0 0 0
0 0 0
0 0 0
0 0 0
0 0 0
0 0 0
0 0 0
0 0 0
0 0 0
0 0 0
0 0 0
0 0 0
0 0 0
0 0 0
0 0 0
0 0 0
0 0 0
0 0 0
0 0 0
0 0 0
0 0 0
0 0 0
0 0 0
0 0 0
0 0 0
0 0 0
0 0 0
0 0 0
0 0 0
0 0 0
0 0 0
0 0 0
0 0 0
0 0 0
0 0 0
0 0 0
0 0 0
0 0 0
0 0 0
0 0 0
0 0 0
0 0 0
0 0 0
0 0 0
0 0 0
0 0 0
0 0 0
0 0 0
0 0 0
0 0 0
0 0 0
0 0 0
0 0 0
0 0 0
0 0 0
0 0 0
0 0 0
0 0 0
0 0 0
0 0 0
0 0 0
0 0 0
0 0 0
0 0 0
0 0 0
0 0 0
0 0 0
0 0 0
0 0 0
0 0 0
0 0 0
0 0 0
0 0 0
0 0 0
0 0 0
0 0 0
0 0 0
0 0 0
0 0 0
0 0 0
0 0 0
0 0 0
0 0 0
0 0 0
0 0 0
0 0 0
0 0 0
0 0 0
0 0 0
0 0 0
0 0 0
0 0 0
0 0 0
0 0 0
0 0 0
0 0 0
0 0 0
0 0 0
0 0 0
0 0 0
0 0 0
0 0 0
0 0 0
0 0 0
0 0 0
0 0 0
0 0 0
0 0 0
0 0 0
0 0 0
0 0 0
0 0 0
0 0 0
0 0 0
0 0 0
0 0 0
0 0 0
0 0 0
0 0 0
0 0 0
0 0 0
0 0 0
0 0 0
0 0 0
0 0 0
0 0 0
0 0 0
0 0 0
0 0 0
0 0 0
0 0 0
0 0 0
0 0 0
0 0 0
0 0 0
0 0 0
0 0 0
0 0 0
0 0 0
0 0 0
0 0 0
0 0 0
0 0 0
0 0 0
0 0 0
0 0 0
0 0 0
0 0 0
0 0 0
0 0 0
0 0 0
0 0 0
0 0 0
0 0 0
0 0 0
0 0 0
0 0 0
0 0 0
0 0 0
0 0 0
0 0 0
0 0 0
0 0 0
0 0 0
0 0 0
0 0 0
179 179 179
179 179 179
179 179 179
179 179 179
179 179 179
179 179 179
179 179 179
179 179 179
179 179 179
179 179 179
179 179 179
179 179 179
179 179 179
179 179 179
179 179 179
179 179 179
179 179 179
179 179 179
179 179 179
179 179 179
179 179 179
179 179 179
179 179 179
179 179 179
179 179 179
179 179 179
179 179 179
179 179 179
179 179 179
179 179 179
179 179 179
179 179 179
179 179 179
179 179 179
179 179 179
179 179 179
179 179 179
179 179 179
179 179 179
179 179 179
179 179 179
179 179 179
179 179 179
179 179 179
179 179 179
179 179 179
179 179 179
179 179 179
179 179 179
179 179 179
179 179 179
179 179 179
179 179 179
179 179 179
179 179 179
179 179 179
179 179 179
179 179 179
179 179 179
179 179 179
179 179 179
179 179 179
179 179 179
179 179 179
179 179 179
179 179 179
179 179 179
179 179 179
179 179 179
179 179 179
179 179 179
179 179 179
179 179 179
179 179 179
179 179 179
179 179 179
179 179 179
179 179 179
179 179 179
179 179 179
179 179 179
179 179 179
179 179 179
179 179 179
179 179 179
179 179 179
179 179 179
179 179 179
179 179 179
179 179 179
179 179 179
179 179 179
179 179 179
179 179 179
179 179 179
179 179 179
179 179 179
179 179 179
179 179 179
179 179 179
179 179 179
179 179 179
179 179 179
179 179 179
179 179 179
179 179 179
179 179 179
179 179 179
179 179 179
179 179 179
179 179 179
179 179 179
179 179 179
179 179 179
179 179 179
179 179 179
179 179 179
179 179 179
179 179 179
179 179 179
179 179 179
179 179 179
179 179 179
179 179 179
179 179 179
179 179 179
179 179 179
179 179 179
179 179 179
179 179 179
179 179 179
179 179 179
179 179 179
179 179 179
179 179 179
179 179 179
179 179 179
179 179 179
179 179 179
179 179 179
179 179 179
179 179 179
179 179 179
179 179 179
179 179 179
179 179 179
179 179 179
179 179 179
179 179 179
179 179 179
179 179 179
179 179 179
179 179 179
179 179 179
179 179 179
179 179 179
179 179 179
179 179 179
179 179 179
179 179 179
179 179 179
179 179 179
179 179 179
179 179 179
179 179 179
179 179 179
179 179 179
179 179 179
179 179 179
179 179 179
179 179 179
179 179 179
179 179 179
179 179 179
179 179 179
179 179 179
179 179 179
179 179 179
179 179 179
179 179 179
179 179 179
179 179 179
179 179 179
179 179 179
179 179 179
179 179 179
179 179 179
179 179 179
0 0 0
0 0 0
0 0 0
0 0 0
0 0 0
0 0 0
0 0 0
0 0 0
0 0 0
0 0 0
0 0 0
0 0 0
0 0 0
0 0 0
0 0 0
0 0 0
0 0 0
0 0 0
0 0 0
0 0 0
0 0 0
0 0 0
0 0 0
0 0 0
0 0 0
0 0 0
0 0 0
0 0 0
0 0 0
0 0 0
0 0 0
0 0 0
0 0 0
0 0 0
0 0 0
0 0 0
0 0 0
0 0 0
0 0 0
0 0 0
0 0 0
0 0 0
0 0 0
0 0 0
0 0 0
0 0 0
0 0 0
0 0 0
0 0 0
0 0 0
0 0 0
0 0 0
0 0 0
0 0 0
0 0 0
0 0 0
0 0 0
0 0 0
0 0 0
0 0 0
0 0 0
0 0 0
0 0 0
0 0 0
0 0 0
0 0 0
0 0 0
0 0 0
0 0 0
0 0 0
0 0 0
0 0 0
0 0 0
0 0 0
0 0 0
0 0 0
0 0 0
0 0 0
0 0 0
0 0 0
0 0 0
0 0 0
0 0 0
0 0 0
0 0 0
0 0 0
0 0 0
0 0 0
0 0 0
0 0 0
0 0 0
0 0 0
0 0 0
0 0 0
0 0 0
0 0 0
0 0 0
0 0 0
0 0 0
0 0 0
0 0 0
0 0 0
0 0 0
0 0 0
0 0 0
0 0 0
0 0 0
0 0 0
0 0 0
0 0 0
0 0 0
0 0 0
0 0 0
0 0 0
0 0 0
0 0 0
0 0 0
0 0 0
0 0 0
0 0 0
0 0 0
0 0 0
0 0 0
0 0 0
0 0 0
0 0 0
0 0 0
0 0 0
0 0 0
0 0 0
0 0 0
0 0 0
0 0 0
0 0 0
0 0 0
0 0 0
0 0 0
0 0 0
0 0 0
0 0 0
0 0 0
0 0 0
0 0 0
0 0 0
0 0 0
0 0 0
0 0 0
0 0 0
0 0 0
0 0 0
0 0 0
0 0 0
0 0 0
0 0 0
0 0 0
0 0 0
0 0 0
0 0 0
0 0 0
0 0 0
0 0 0
0 0 0
0 0 0
0 0 0
0 0 0
0 0 0
0 0 0
0 0 0
0 0 0
0 0 0
0 0 0
0 0 0
0 0 0
0 0 0
0 0 0
0 0 0
0 0 0
0 0 0
0 0 0
0 0 0
0 0 0
0 0 0
0 0 0
0 0 0
0 0 0
0 0 0
0 0 0
0 0 0
0 0 0
0 0 0
0 0 0
0 0 0
0 0 0
0 0 0
0 0 0
0 0 0
0 0 0
0 0 0
0 0 0
0 0 0
0 0 0
0 0 0
0 0 0
0 0 0
0 0 0
0 0 0
0 0 0
0 0 0
0 0 0
0 0 0
0 0 0
0 0 0
179 179 179
179 179 179
179 179 179
179 179 179
179 179 179
179 179 179
179 179 179
179 179 179
179 179 179
179 179 179
179 179 179
179 179 179
179 179 179
179 179 179
179 179 179
179 179 179
179 179 179
179 179 179
179 179 179
179 179 179
179 179 179
179 179 179
179 179 179
179 179 179
179 179 179
179 179 179
179 179 179
179 179 179
179 179 179
179 179 179
179 179 179
179 179 179
179 179 179
179 179 179
179 179 179
179 179 179
179 179 179
179 179 179
179 179 179
179 179 179
179 179 179
179 179 179
179 179 179
179 179 179
179 179 179
179 179 179
179 179 179
179 179 179
179 179 179
179 179 179
179 179 179
179 179 179
179 179 179
179 179 179
179 179 179
179 179 179
179 179 179
179 179 179
179 179 179
179 179 179
179 179 179
179 179 179
179 179 179
179 179 179
179 179 179
179 179 179
179 179 179
179 179 179
179 179 179
179 179 179
179 179 179
179 179 179
179 179 179
179 179 179
179 179 179
179 179 179
179 179 179
179 179 179
179 179 179
179 179 179
179 179 179
179 179 179
179 179 179
179 179 179
179 179 179
179 179 179
179 179 179
179 179 179
179 179 179
179 179 179
179 179 179
179 179 179
179 179 179
179 179 179
179 179 179
179 179 179
179 179 179
179 179 179
179 179 179
179 179 179
179 179 179
179 179 179
179 179 179
179 179 179
179 179 179
179 179 179
179 179 179
179 179 179
179 179 179
179 179 179
179 179 179
179 179 179
179 179 179
179 179 179
179 179 179
179 179 179
179 179 179
179 179 179
179 179 179
179 179 179
179 179 179
179 179 179
179 179 179
179 179 179
179 179 179
179 179 179
179 179 179
179 179 179
179 179 179
179 179 179
179 179 179
179 179 179
179 179 179
179 179 179
179 179 179
179 179 179
179 179 179
179 179 179
179 179 179
179 179 179
179 179 179
179 179 179
179 179 179
179 179 179
179 179 179
179 179 179
179 179 179
179 179 179
179 179 179
179 179 179
179 179 179
179 179 179
179 179 179
179 179 179
179 179 179
179 179 179
179 179 179
179 179 179
179 179 179
179 179 179
179 179 179
179 179 179
179 179 179
179 179 179
179 179 179
179 179 179
179 179 179
179 179 179
179 179 179
179 179 179
179 179 179
179 179 179
179 179 179
179 179 179
179 179 179
179 179 179
179 179 179
179 179 179
179 179 179
179 179 179
179 179 179
179 179 179
179 179 179
179 179 179
179 179 179
179 179 179
179 179 179
0 0 0
0 0 0
0 0 0
0 0 0
0 0 0
0 0 0
0 0 0
0 0 0
0 0 0
0 0 0
0 0 0
0 0 0
0 0 0
0 0 0
0 0 0
0 0 0
0 0 0
0 0 0
0 0 0
0 0 0
0 0 0
0 0 0
0 0 0
0 0 0
0 0 0
0 0 0
0 0 0
0 0 0
0 0 0
0 0 0
0 0 0
0 0 0
0 0 0
0 0 0
0 0 0
0 0 0
0 0 0
0 0 0
0 0 0
0 0 0
0 0 0
0 0 0
0 0 0
0 0 0
0 0 0
0 0 0
0 0 0
0 0 0
0 0 0
0 0 0
0 0 0
0 0 0
0 0 0
0 0 0
0 0 0
0 0 0
0 0 0
0 0 0
0 0 0
0 0 0
0 0 0
0 0 0
0 0 0
0 0 0
0 0 0
0 0 0
0 0 0
0 0 0
0 0 0
0 0 0
0 0 0
0 0 0
0 0 0
0 0 0
0 0 0
0 0 0
0 0 0
0 0 0
0 0 0
0 0 0
0 0 0
0 0 0
0 0 0
0 0 0
0 0 0
0 0 0
0 0 0
0 0 0
0 0 0
0 0 0
0 0 0
0 0 0
0 0 0
0 0 0
0 0 0
0 0 0
0 0 0
0 0 0
0 0 0
0 0 0
0 0 0
0 0 0
0 0 0
0 0 0
0 0 0
0 0 0
0 0 0
0 0 0
0 0 0
0 0 0
0 0 0
0 0 0
0 0 0
0 0 0
0 0 0
0 0 0
0 0 0
0 0 0
0 0 0
0 0 0
0 0 0
0 0 0
0 0 0
0 0 0
0 0 0
0 0 0
0 0 0
0 0 0
0 0 0
0 0 0
0 0 0
0 0 0
0 0 0
0 0 0
0 0 0
0 0 0
0 0 0
0 0 0
0 0 0
0 0 0
0 0 0
0 0 0
0 0 0
0 0 0
0 0 0
0 0 0
0 0 0
0 0 0
0 0 0
0 0 0
0 0 0
0 0 0
0 0 0
0 0 0
0 0 0
0 0 0
0 0 0
0 0 0
0 0 0
0 0 0
0 0 0
0 0 0
0 0 0
0 0 0
0 0 0
0 0 0
0 0 0
0 0 0
0 0 0
0 0 0
0 0 0
0 0 0
0 0 0
0 0 0
0 0 0
0 0 0
0 0 0
0 0 0
0 0 0
0 0 0
0 0 0
0 0 0
0 0 0
0 0 0
0 0 0
0 0 0
0 0 0
0 0 0
0 0 0
0 0 0
0 0 0
0 0 0
0 0 0
0 0 0
0 0 0
0 0 0
0 0 0
0 0 0
0 0 0
0 0 0
0 0 0
0 0 0
0 0 0
0 0 0
0 0 0
0 0 0
0 0 0
0 0 0
0 0 0
0 0 0
0 0 0
0 0 0
0 0 0
0 0 0
179 179 179
179 179 179
179 179 179
179 179 179
179 179 179
179 179 179
179 179 179
179 179 179
179 179 179
179 179 179
179 179 179
179 179 179
179 179 179
179 179 179
179 179 179
179 179 179
179 179 179
179 179 179
179 179 179
179 179 179
179 179 179
179 179 179
179 179 179
179 179 179
179 179 179
179 179 179
179 179 179
179 179 179
179 179 179
179 179 179
179 179 179
179 179 179
179 179 179
179 179 179
179 179 179
179 179 179
179 179 179
179 179 179
179 179 179
179 179 179
179 179 179
179 179 179
179 179 179
179 179 179
179 179 179
179 179 179
179 179 179
179 179 179
179 179 179
179 179 179
179 179 179
179 179 179
179 179 179
179 179 179
179 179 179
179 179 179
179 179 179
179 179 179
179 179 179
179 179 179
179 179 179
179 179 179
179 179 179
179 179 179
179 179 179
179 179 179
179 179 179
179 179 179
179 179 179
179 179 179
179 179 179
179 179 179
179 179 179
179 179 179
179 179 179
179 179 179
179 179 179
179 179 179
179 179 179
179 179 179
179 179 179
179 179 179
179 179 179
179 179 179
179 179 179
179 179 179
179 179 179
179 179 179
179 179 179
179 179 179
179 179 179
179 179 179
179 179 179
179 179 179
179 179 179
179 179 179
179 179 179
179 179 179
179 179 179
179 179 179
179 179 179
179 179 179
179 179 179
179 179 179
179 179 179
179 179 179
179 179 179
179 179 179
179 179 179
179 179 179
179 179 179
179 179 179
179 179 179
179 179 179
179 179 179
179 179 179
179 179 179
179 179 179
179 179 179
179 179 179
179 179 179
179 179 179
179 179 179
179 179 179
179 179 179
179 179 179
179 179 179
179 179 179
179 179 179
179 179 179
179 179 179
179 179 179
179 179 179
179 179 179
179 179 179
179 179 179
179 179 179
179 179 179
179 179 179
179 179 179
179 179 179
179 179 179
179 179 179
179 179 179
179 179 179
179 179 179
179 179 179
179 179 179
179 179 179
179 179 179
179 179 179
179 179 179
179 179 179
179 179 179
179 179 179
179 179 179
179 179 179
179 179 179
179 179 179
179 179 179
179 179 179
179 179 179
179 179 179
179 179 179
179 179 179
179 179 179
179 179 179
179 179 179
179 179 179
179 179 179
179 179 179
179 179 179
179 179 179
179 179 179
179 179 179
179 179 179
179 179 179
179 179 179
179 179 179
179 179 179
179 179 179
179 179 179
179 179 179
179 179 179
179 179 179
179 179 179
0 0 0
0 0 0
0 0 0
0 0 0
0 0 0
0 0 0
0 0 0
0 0 0
0 0 0
0 0 0
0 0 0
0 0 0
0 0 0
0 0 0
0 0 0
0 0 0
0 0 0
0 0 0
0 0 0
0 0 0
0 0 0
0 0 0
0 0 0
0 0 0
0 0 0
0 0 0
0 0 0
0 0 0
0 0 0
0 0 0
0 0 0
0 0 0
0 0 0
0 0 0
0 0 0
0 0 0
0 0 0
0 0 0
0 0 0
0 0 0
0 0 0
0 0 0
0 0 0
0 0 0
0 0 0
0 0 0
0 0 0
0 0 0
0 0 0
0 0 0
0 0 0
0 0 0
0 0 0
0 0 0
0 0 0
0 0 0
0 0 0
0 0 0
0 0 0
0 0 0
0 0 0
0 0 0
0 0 0
0 0 0
0 0 0
0 0 0
0 0 0
0 0 0
0 0 0
0 0 0
0 0 0
0 0 0
0 0 0
0 0 0
0 0 0
0 0 0
0 0 0
0 0 0
0 0 0
0 0 0
0 0 0
0 0 0
0 0 0
0 0 0
0 0 0
0 0 0
0 0 0
0 0 0
0 0 0
0 0 0
0 0 0
0 0 0
0 0 0
0 0 0
0 0 0
0 0 0
0 0 0
0 0 0
0 0 0
0 0 0
0 0 0
0 0 0
0 0 0
0 0 0
0 0 0
0 0 0
0 0 0
0 0 0
0 0 0
0 0 0
0 0 0
0 0 0
0 0 0
0 0 0
0 0 0
0 0 0
0 0 0
0 0 0
0 0 0
0 0 0
0 0 0
0 0 0
0 0 0
0 0 0
0 0 0
0 0 0
0 0 0
0 0 0
0 0 0
0 0 0
0 0 0
0 0 0
0 0 0
0 0 0
0 0 0
0 0 0
0 0 0
0 0 0
0 0 0
0 0 0
0 0 0
0 0 0
0 0 0
0 0 0
0 0 0
0 0 0
0 0 0
0 0 0
0 0 0
0 0 0
0 0 0
0 0 0
0 0 0
0 0 0
0 0 0
0 0 0
0 0 0
0 0 0
0 0 0
0 0 0
0 0 0
0 0 0
0 0 0
0 0 0
0 0 0
0 0 0
0 0 0
0 0 0
0 0 0
0 0 0
0 0 0
0 0 0
0 0 0
0 0 0
0 0 0
0 0 0
0 0 0
0 0 0
0 0 0
0 0 0
0 0 0
0 0 0
0 0 0
0 0 0
0 0 0
0 0 0
0 0 0
0 0 0
0 0 0
0 0 0
0 0 0
0 0 0
0 0 0
0 0 0
0 0 0
0 0 0
0 0 0
0 0 0
0 0 0
0 0 0
0 0 0
0 0 0
0 0 0
0 0 0
0 0 0
0 0 0
0 0 0
0 0 0
0 0 0
0 0 0
0 0 0
0 0 0
0 0 0
0 0 0
179 179 179
179 179 179
179 179 179
179 179 179
179 179 179
179 179 179
179 179 179
179 179 179
179 179 179
179 179 179
179 179 179
179 179 179
179 179 179
179 179 179
179 179 179
179 179 179
179 179 179
179 179 179
179 179 179
179 179 179
179 179 179
179 179 179
179 179 179
179 179 179
179 179 179
179 179 179
179 179 179
179 179 179
179 179 179
179 179 179
179 179 179
179 179 179
179 179 179
179 179 179
179 179 179
179 179 179
179 179 179
179 179 179
179 179 179
179 179 179
179 179 179
179 179 179
179 179 179
179 179 179
179 179 179
179 179 179
179 179 179
179 179 179
179 179 179
179 179 179
179 179 179
179 179 179
179 179 179
179 179 179
179 179 179
179 179 179
179 179 179
179 179 179
179 179 179
179 179 179
179 179 179
179 179 179
179 179 179
179 179 179
179 179 179
179 179 179
179 179 179
179 179 179
179 179 179
179 179 179
179 179 179
179 179 179
179 179 179
179 179 179
179 179 179
179 179 179
179 179 179
179 179 179
179 179 179
179 179 179
179 179 179
179 179 179
179 179 179
179 179 179
179 179 179
179 179 179
179 179 179
179 179 179
179 179 179
179 179 179
179 179 179
179 179 179
179 179 179
179 179 179
179 179 179
179 179 179
179 179 179
179 179 179
179 179 179
179 179 179
179 179 179
179 179 179
179 179 179
179 179 179
179 179 179
179 179 179
179 179 179
179 179 179
179 179 179
179 179 179
179 179 179
179 179 179
179 179 179
179 179 179
179 179 179
179 179 179
179 179 179
179 179 179
179 179 179
179 179 179
179 179 179
179 179 179
179 179 179
179 179 179
179 179 179
179 179 179
179 179 179
179 179 179
179 179 179
179 179 179
179 179 179
179 179 179
179 179 179
179 179 179
179 179 179
179 179 179
179 179 179
179 179 179
179 179 179
179 179 179
179 179 179
179 179 179
179 179 179
179 179 179
179 179 179
179 179 179
179 179 179
179 179 179
179 179 179
179 179 179
179 179 179
179 179 179
179 179 179
179 179 179
179 179 179
179 179 179
179 179 179
179 179 179
179 179 179
179 179 179
179 179 179
179 179 179
179 179 179
179 179 179
179 179 179
179 179 179
179 179 179
179 179 179
179 179 179
179 179 179
179 179 179
179 179 179
179 179 179
179 179 179
179 179 179
179 179 179
179 179 179
179 179 179
179 179 179
179 179 179
179 179 179
179 179 179
179 179 179
179 179 179
179 179 179
179 179 179
0 0 0
0 0 0
0 0 0
0 0 0
0 0 0
0 0 0
0 0 0
0 0 0
0 0 0
0 0 0
0 0 0
0 0 0
0 0 0
0 0 0
0 0 0
0 0 0
0 0 0
0 0 0
0 0 0
0 0 0
0 0 0
0 0 0
0 0 0
0 0 0
0 0 0
0 0 0
0 0 0
0 0 0
0 0 0
0 0 0
0 0 0
0 0 0
0 0 0
0 0 0
0 0 0
0 0 0
0 0 0
0 0 0
0 0 0
0 0 0
0 0 0
0 0 0
0 0 0
0 0 0
0 0 0
0 0 0
0 0 0
0 0 0
0 0 0
0 0 0
0 0 0
0 0 0
0 0 0
0 0 0
0 0 0
0 0 0
0 0 0
0 0 0
0 0 0
0 0 0
0 0 0
0 0 0
0 0 0
0 0 0
0 0 0
0 0 0
0 0 0
0 0 0
0 0 0
0 0 0
0 0 0
0 0 0
0 0 0
0 0 0
0 0 0
0 0 0
0 0 0
0 0 0
0 0 0
0 0 0
0 0 0
0 0 0
0 0 0
0 0 0
0 0 0
0 0 0
0 0 0
0 0 0
0 0 0
0 0 0
0 0 0
0 0 0
0 0 0
0 0 0
0 0 0
0 0 0
0 0 0
0 0 0
0 0 0
0 0 0
0 0 0
0 0 0
0 0 0
0 0 0
0 0 0
0 0 0
0 0 0
0 0 0
0 0 0
0 0 0
0 0 0
0 0 0
0 0 0
0 0 0
0 0 0
0 0 0
0 0 0
0 0 0
0 0 0
0 0 0
0 0 0
0 0 0
0 0 0
0 0 0
0 0 0
0 0 0
0 0 0
0 0 0
0 0 0
0 0 0
0 0 0
0 0 0
0 0 0
0 0 0
0 0 0
0 0 0
0 0 0
0 0 0
0 0 0
0 0 0
0 0 0
0 0 0
0 0 0
0 0 0
0 0 0
0 0 0
0 0 0
0 0 0
0 0 0
0 0 0
0 0 0
0 0 0
0 0 0
0 0 0
0 0 0
0 0 0
0 0 0
0 0 0
0 0 0
0 0 0
0 0 0
0 0 0
0 0 0
0 0 0
0 0 0
0 0 0
0 0 0
0 0 0
0 0 0
0 0 0
0 0 0
0 0 0
0 0 0
0 0 0
0 0 0
0 0 0
0 0 0
0 0 0
0 0 0
0 0 0
0 0 0
0 0 0
0 0 0
0 0 0
0 0 0
0 0 0
0 0 0
0 0 0
0 0 0
0 0 0
0 0 0
0 0 0
0 0 0
0 0 0
0 0 0
0 0 0
0 0 0
0 0 0
0 0 0
0 0 0
0 0 0
0 0 0
0 0 0
0 0 0
0 0 0
0 0 0
0 0 0
0 0 0
0 0 0
0 0 0
0 0 0
0 0 0
0 0 0
0 0 0
179 179 179
179 179 179
179 179 179
179 179 179
179 179 179
179 179 179
179 179 179
179 179 179
179 179 179
179 179 179
179 179 179
179 179 179
179 179 179
179 179 179
179 179 179
179 179 179
179 179 179
179 179 179
179 179 179
179 179 179
179 179 179
179 179 179
179 179 179
179 179 179
179 179 179
179 179 179
179 179 179
179 179 179
179 179 179
179 179 179
179 179 179
179 179 179
179 179 179
179 179 179
179 179 179
179 179 179
179 179 179
179 179 179
179 179 179
179 179 179
179 179 179
179 179 179
179 179 179
179 179 179
179 179 179
179 179 179
179 179 179
179 179 179
179 179 179
179 179 179
179 179 179
179 179 179
179 179 179
179 179 179
179 179 179
179 179 179
179 179 179
179 179 179
179 179 179
179 179 179
179 179 179
179 179 179
179 179 179
179 179 179
179 179 179
179 179 179
179 179 179
179 179 179
179 179 179
179 179 179
179 179 179
179 179 179
179 179 179
179 179 179
179 179 179
179 179 179
179 179 179
179 179 179
179 179 179
179 179 179
179 179 179
179 179 179
179 179 179
179 179 179
179 179 179
179 179 179
179 179 179
179 179 179
179 179 179
179 179 179
179 179 179
179 179 179
179 179 179
179 179 179
179 179 179
179 179 179
179 179 179
179 179 179
179 179 179
179 179 179
179 179 179
179 179 179
179 179 179
179 179 179
179 179 179
179 179 179
179 179 179
179 179 179
179 179 179
179 179 179
179 179 179
179 179 179
179 179 179
179 179 179
179 179 179
179 179 179
179 179 179
179 179 179
179 179 179
179 179 179
179 179 179
179 179 179
179 179 179
179 179 179
179 179 179
179 179 179
179 179 179
179 179 179
179 179 179
179 179 179
179 179 179
179 179 179
179 179 179
179 179 179
179 179 179
179 179 179
179 179 179
179 179 179
179 179 179
179 179 179
179 179 179
179 179 179
179 179 179
179 179 179
179 179 179
179 179 179
179 179 179
179 179 179
179 179 179
179 179 179
179 179 179
179 179 179
179 179 179
179 179 179
179 179 179
179 179 179
179 179 179
179 179 179
179 179 179
179 179 179
179 179 179
179 179 179
179 179 179
179 179 179
179 179 179
179 179 179
179 179 179
179 179 179
179 179 179
179 179 179
179 179 179
179 179 179
179 179 179
179 179 179
179 179 179
179 179 179
179 179 179
179 179 179
179 179 179
179 179 179
179 179 179
179 179 179
179 179 179
179 179 179
179 179 179
179 179 179
0 0 0
0 0 0
0 0 0
0 0 0
0 0 0
0 0 0
0 0 0
0 0 0
0 0 0
0 0 0
0 0 0
0 0 0
0 0 0
0 0 0
0 0 0
0 0 0
0 0 0
0 0 0
0 0 0
0 0 0
0 0 0
0 0 0
0 0 0
0 0 0
0 0 0
0 0 0
0 0 0
0 0 0
0 0 0
0 0 0
0 0 0
0 0 0
0 0 0
0 0 0
0 0 0
0 0 0
0 0 0
0 0 0
0 0 0
0 0 0
0 0 0
0 0 0
0 0 0
0 0 0
0 0 0
0 0 0
0 0 0
0 0 0
0 0 0
0 0 0
0 0 0
0 0 0
0 0 0
0 0 0
0 0 0
0 0 0
0 0 0
0 0 0
0 0 0
0 0 0
0 0 0
0 0 0
0 0 0
0 0 0
0 0 0
0 0 0
0 0 0
0 0 0
0 0 0
0 0 0
0 0 0
0 0 0
0 0 0
0 0 0
0 0 0
0 0 0
0 0 0
0 0 0
0 0 0
0 0 0
0 0 0
0 0 0
0 0 0
0 0 0
0 0 0
0 0 0
0 0 0
0 0 0
0 0 0
0 0 0
0 0 0
0 0 0
0 0 0
0 0 0
0 0 0
0 0 0
0 0 0
0 0 0
0 0 0
0 0 0
0 0 0
0 0 0
0 0 0
0 0 0
0 0 0
0 0 0
0 0 0
0 0 0
0 0 0
0 0 0
0 0 0
0 0 0
0 0 0
0 0 0
0 0 0
0 0 0
0 0 0
0 0 0
0 0 0
0 0 0
0 0 0
0 0 0
0 0 0
0 0 0
0 0 0
0 0 0
0 0 0
0 0 0
0 0 0
0 0 0
0 0 0
0 0 0
0 0 0
0 0 0
0 0 0
0 0 0
0 0 0
0 0 0
0 0 0
0 0 0
0 0 0
0 0 0
0 0 0
0 0 0
0 0 0
0 0 0
0 0 0
0 0 0
0 0 0
0 0 0
0 0 0
0 0 0
0 0 0
0 0 0
0 0 0
0 0 0
0 0 0
0 0 0
0 0 0
0 0 0
0 0 0
0 0 0
0 0 0
0 0 0
0 0 0
0 0 0
0 0 0
0 0 0
0 0 0
0 0 0
0 0 0
0 0 0
0 0 0
0 0 0
0 0 0
0 0 0
0 0 0
0 0 0
0 0 0
0 0 0
0 0 0
0 0 0
0 0 0
0 0 0
0 0 0
0 0 0
0 0 0
0 0 0
0 0 0
0 0 0
0 0 0
0 0 0
0 0 0
0 0 0
0 0 0
0 0 0
0 0 0
0 0 0
0 0 0
0 0 0
0 0 0
0 0 0
0 0 0
0 0 0
0 0 0
0 0 0
0 0 0
0 0 0
0 0 0
0 0 0
0 0 0
0 0 0
0 0 0
0 0 0
179 179 179
179 179 179
179 179 179
179 179 179
179 179 179
179 179 179
179 179 179
179 179 179
179 179 179
179 179 179
179 179 179
179 179 179
179 179 179
179 179 179
179 179 179
179 179 179
179 179 179
179 179 179
179 179 179
179 179 179
179 179 179
179 179 179
179 179 179
179 179 179
179 179 179
179 179 179
179 179 179
179 179 179
179 179 179
179 179 179
179 179 179
179 179 179
179 179 179
179 179 179
179 179 179
179 179 179
179 179 179
179 179 179
179 179 179
179 179 179
179 179 179
179 179 179
179 179 179
179 179 179
179 179 179
179 179 179
179 179 179
179 179 179
179 179 179
179 179 179
179 179 179
179 179 179
179 179 179
179 179 179
179 179 179
179 179 179
179 179 179
179 179 179
179 179 179
179 179 179
179 179 179
179 179 179
179 179 179
179 179 179
179 179 179
179 179 179
179 179 179
179 179 179
179 179 179
179 179 179
179 179 179
179 179 179
179 179 179
179 179 179
179 179 179
179 179 179
179 179 179
179 179 179
179 179 179
179 179 179
179 179 179
179 179 179
179 179 179
179 179 179
179 179 179
179 179 179
179 179 179
179 179 179
179 179 179
179 179 179
179 179 179
179 179 179
179 179 179
179 179 179
179 179 179
179 179 179
179 179 179
179 179 179
179 179 179
179 179 179
179 179 179
179 179 179
179 179 179
179 179 179
179 179 179
179 179 179
179 179 179
179 179 179
179 179 179
179 179 179
179 179 179
179 179 179
179 179 179
179 179 179
179 179 179
179 179 179
179 179 179
179 179 179
179 179 179
179 179 179
179 179 179
179 179 179
179 179 179
179 179 179
179 179 179
179 179 179
179 179 179
179 179 179
179 179 179
179 179 179
179 179 179
179 179 179
179 179 179
179 179 179
179 179 179
179 179 179
179 179 179
179 179 179
179 179 179
179 179 179
179 179 179
179 179 179
179 179 179
179 179 179
179 179 179
179 179 179
179 179 179
179 179 179
179 179 179
179 179 179
179 179 179
179 179 179
179 179 179
179 179 179
179 179 179
179 179 179
179 179 179
179 179 179
179 179 179
179 179 179
179 179 179
179 179 179
179 179 179
179 179 179
179 179 179
179 179 179
179 179 179
179 179 179
179 179 179
179 179 179
179 179 179
179 179 179
179 179 179
179 179 179
179 179 179
179 179 179
179 179 179
179 179 179
179 179 179
179 179 179
179 179 179
179 179 179
179 179 179
179 179 179
179 179 179
179 179 179
0 0 0
0 0 0
0 0 0
0 0 0
0 0 0
0 0 0
0 0 0
0 0 0
0 0 0
0 0 0
0 0 0
0 0 0
0 0 0
0 0 0
0 0 0
0 0 0
0 0 0
0 0 0
0 0 0
0 0 0
0 0 0
0 0 0
0 0 0
0 0 0
0 0 0
0 0 0
0 0 0
0 0 0
0 0 0
0 0 0
0 0 0
0 0 0
0 0 0
0 0 0
0 0 0
0 0 0
0 0 0
0 0 0
0 0 0
0 0 0
0 0 0
0 0 0
0 0 0
0 0 0
0 0 0
0 0 0
0 0 0
0 0 0
0 0 0
0 0 0
0 0 0
0 0 0
0 0 0
0 0 0
0 0 0
0 0 0
0 0 0
0 0 0
0 0 0
0 0 0
0 0 0
0 0 0
0 0 0
0 0 0
0 0 0
0 0 0
0 0 0
0 0 0
0 0 0
0 0 0
0 0 0
0 0 0
0 0 0
0 0 0
0 0 0
0 0 0
0 0 0
0 0 0
0 0 0
0 0 0
0 0 0
0 0 0
0 0 0
0 0 0
0 0 0
0 0 0
0 0 0
0 0 0
0 0 0
0 0 0
0 0 0
0 0 0
0 0 0
0 0 0
0 0 0
0 0 0
0 0 0
0 0 0
0 0 0
0 0 0
0 0 0
0 0 0
0 0 0
0 0 0
0 0 0
0 0 0
0 0 0
0 0 0
0 0 0
0 0 0
0 0 0
0 0 0
0 0 0
0 0 0
0 0 0
0 0 0
0 0 0
0 0 0
0 0 0
0 0 0
0 0 0
0 0 0
0 0 0
0 0 0
0 0 0
0 0 0
0 0 0
0 0 0
0 0 0
0 0 0
0 0 0
0 0 0
0 0 0
0 0 0
0 0 0
0 0 0
0 0 0
0 0 0
0 0 0
0 0 0
0 0 0
0 0 0
0 0 0
0 0 0
0 0 0
0 0 0
0 0 0
0 0 0
0 0 0
0 0 0
0 0 0
0 0 0
0 0 0
0 0 0
0 0 0
0 0 0
0 0 0
0 0 0
0 0 0
0 0 0
0 0 0
0 0 0
0 0 0
0 0 0
0 0 0
0 0 0
0 0 0
0 0 0
0 0 0
0 0 0
0 0 0
0 0 0
0 0 0
0 0 0
0 0 0
0 0 0
0 0 0
0 0 0
0 0 0
0 0 0
0 0 0
0 0 0
0 0 0
0 0 0
0 0 0
0 0 0
0 0 0
0 0 0
0 0 0
0 0 0
0 0 0
0 0 0
0 0 0
0 0 0
0 0 0
0 0 0
0 0 0
0 0 0
0 0 0
0 0 0
0 0 0
0 0 0
0 0 0
0 0 0
0 0 0
0 0 0
0 0 0
0 0 0
0 0 0
0 0 0
0 0 0
0 0 0
0 0 0
0 0 0
179 179 179
179 179 179
179 179 179
179 179 179
179 179 179
179 179 179
179 179 179
179 179 179
179 179 179
179 179 179
179 179 179
179 179 179
179 179 179
179 179 179
179 179 179
179 179 179
179 179 179
179 179 179
179 179 179
179 179 179
179 179 179
179 179 179
179 179 179
179 179 179
179 179 179
179 179 179
179 179 179
179 179 179
179 179 179
179 179 179
179 179 179
179 179 179
179 179 179
179 179 179
179 179 179
179 179 179
179 179 179
179 179 179
179 179 179
179 179 179
179 179 179
179 179 179
179 179 179
179 179 179
179 179 179
179 179 179
179 179 179
179 179 179
179 179 179
179 179 179
179 179 179
179 179 179
179 179 179
179 179 179
179 179 179
179 179 179
179 179 179
179 179 179
179 179 179
179 179 179
179 179 179
179 179 179
179 179 179
179 179 179
179 179 179
179 179 179
179 179 179
179 179 179
179 179 179
179 179 179
179 179 179
179 179 179
179 179 179
179 179 179
179 179 179
179 179 179
179 179 179
179 179 179
179 179 179
179 179 179
179 179 179
179 179 179
179 179 179
179 179 179
179 179 179
179 179 179
179 179 179
179 179 179
179 179 179
179 179 179
179 179 179
179 179 179
179 179 179
179 179 179
179 179 179
179 179 179
179 179 179
179 179 179
179 179 179
179 179 179
179 179 179
179 179 179
179 179 179
179 179 179
179 179 179
179 179 179
179 179 179
179 179 179
179 179 179
179 179 179
179 179 179
179 179 179
179 179 179
179 179 179
179 179 179
179 179 179
179 179 179
179 179 179
179 179 179
179 179 179
179 179 179
179 179 179
179 179 179
179 179 179
179 179 179
179 179 179
179 179 179
179 179 179
179 179 179
179 179 179
179 179 179
179 179 179
179 179 179
179 179 179
179 179 179
179 179 179
179 179 179
179 179 179
179 179 179
179 179 179
179 179 179
179 179 179
179 179 179
179 179 179
179 179 179
179 179 179
179 179 179
179 179 179
179 179 179
179 179 179
179 179 179
179 179 179
179 179 179
179 179 179
179 179 179
179 179 179
179 179 179
179 179 179
179 179 179
179 179 179
179 179 179
179 179 179
179 179 179
179 179 179
179 179 179
179 179 179
179 179 179
179 179 179
179 179 179
179 179 179
179 179 179
179 179 179
179 179 179
179 179 179
179 179 179
179 179 179
179 179 179
179 179 179
179 179 179
179 179 179
179 179 179
179 179 179
179 179 179
179 179 179
179 179 179
179 179 179
0 0 0
0 0 0
0 0 0
0 0 0
0 0 0
0 0 0
0 0 0
0 0 0
0 0 0
0 0 0
0 0 0
0 0 0
0 0 0
0 0 0
0 0 0
0 0 0
0 0 0
0 0 0
0 0 0
0 0 0
0 0 0
0 0 0
0 0 0
0 0 0
0 0 0
0 0 0
0 0 0
0 0 0
0 0 0
0 0 0
0 0 0
0 0 0
0 0 0
0 0 0
0 0 0
0 0 0
0 0 0
0 0 0
0 0 0
0 0 0
0 0 0
0 0 0
0 0 0
0 0 0
0 0 0
0 0 0
0 0 0
0 0 0
0 0 0
0 0 0
0 0 0
0 0 0
0 0 0
0 0 0
0 0 0
0 0 0
0 0 0
0 0 0
0 0 0
0 0 0
0 0 0
0 0 0
0 0 0
0 0 0
0 0 0
0 0 0
0 0 0
0 0 0
0 0 0
0 0 0
0 0 0
0 0 0
0 0 0
0 0 0
0 0 0
0 0 0
0 0 0
0 0 0
0 0 0
0 0 0
0 0 0
0 0 0
0 0 0
0 0 0
0 0 0
0 0 0
0 0 0
0 0 0
0 0 0
0 0 0
0 0 0
0 0 0
0 0 0
0 0 0
0 0 0
0 0 0
0 0 0
0 0 0
0 0 0
0 0 0
0 0 0
0 0 0
0 0 0
0 0 0
0 0 0
0 0 0
0 0 0
0 0 0
0 0 0
0 0 0
0 0 0
0 0 0
0 0 0
0 0 0
0 0 0
0 0 0
0 0 0
0 0 0
0 0 0
0 0 0
0 0 0
0 0 0
0 0 0
0 0 0
0 0 0
0 0 0
0 0 0
0 0 0
0 0 0
0 0 0
0 0 0
0 0 0
0 0 0
0 0 0
0 0 0
0 0 0
0 0 0
0 0 0
0 0 0
0 0 0
0 0 0
0 0 0
0 0 0
0 0 0
0 0 0
0 0 0
0 0 0
0 0 0
0 0 0
0 0 0
0 0 0
0 0 0
0 0 0
0 0 0
0 0 0
0 0 0
0 0 0
0 0 0
0 0 0
0 0 0
0 0 0
0 0 0
0 0 0
0 0 0
0 0 0
0 0 0
0 0 0
0 0 0
0 0 0
0 0 0
0 0 0
0 0 0
0 0 0
0 0 0
0 0 0
0 0 0
0 0 0
0 0 0
0 0 0
0 0 0
0 0 0
0 0 0
0 0 0
0 0 0
0 0 0
0 0 0
0 0 0
0 0 0
0 0 0
0 0 0
0 0 0
0 0 0
0 0 0
0 0 0
0 0 0
0 0 0
0 0 0
0 0 0
0 0 0
0 0 0
0 0 0
0 0 0
0 0 0
0 0 0
0 0 0
0 0 0
0 0 0
0 0 0
0 0 0
0 0 0
0 0 0
0 0 0
0 0 0
0 0 0
179 179 179
179 179 179
179 179 179
179 179 179
179 179 179
179 179 179
179 179 179
179 179 179
179 179 179
179 179 179
179 179 179
179 179 179
179 179 179
179 179 179
179 179 179
179 179 179
179 179 179
179 179 179
179 179 179
179 179 179
179 179 179
179 179 179
179 179 179
179 179 179
179 179 179
179 179 179
179 179 179
179 179 179
179 179 179
179 179 179
179 179 179
179 179 179
179 179 179
179 179 179
179 179 179
179 179 179
179 179 179
179 179 179
179 179 179
179 179 179
179 179 179
179 179 179
179 179 179
179 179 179
179 179 179
179 179 179
179 179 179
179 179 179
179 179 179
179 179 179
179 179 179
179 179 179
179 179 179
179 179 179
179 179 179
179 179 179
179 179 179
179 179 179
179 179 179
179 179 179
179 179 179
179 179 179
179 179 179
179 179 179
179 179 179
179 179 179
179 179 179
179 179 179
179 179 179
179 179 179
179 179 179
179 179 179
179 179 179
179 179 179
179 179 179
179 179 179
179 179 179
179 179 179
179 179 179
179 179 179
179 179 179
179 179 179
179 179 179
179 179 179
179 179 179
179 179 179
179 179 179
179 179 179
179 179 179
179 179 179
179 179 179
179 179 179
179 179 179
179 179 179
179 179 179
179 179 179
179 179 179
179 179 179
179 179 179
179 179 179
179 179 179
179 179 179
179 179 179
179 179 179
179 179 179
179 179 179
179 179 179
179 179 179
179 179 179
179 179 179
179 179 179
179 179 179
179 179 179
179 179 179
179 179 179
179 179 179
179 179 179
179 179 179
179 179 179
179 179 179
179 179 179
179 179 179
179 179 179
179 179 179
179 179 179
179 179 179
179 179 179
179 179 179
179 179 179
179 179 179
179 179 179
179 179 179
179 179 179
179 179 179
179 179 179
179 179 179
179 179 179
179 179 179
179 179 179
179 179 179
179 179 179
179 179 179
179 179 179
179 179 179
179 179 179
179 179 179
179 179 179
179 179 179
179 179 179
179 179 179
179 179 179
179 179 179
179 179 179
179 179 179
179 179 179
179 179 179
179 179 179
179 179 179
179 179 179
179 179 179
179 179 179
179 179 179
179 179 179
179 179 179
179 179 179
179 179 179
179 179 179
179 179 179
179 179 179
179 179 179
179 179 179
179 179 179
179 179 179
179 179 179
179 179 179
179 179 179
179 179 179
179 179 179
179 179 179
179 179 179
179 179 179
179 179 179
179 179 179
179 179 179
179 179 179
179 179 179
0 0 0
0 0 0
0 0 0
0 0 0
0 0 0
0 0 0
0 0 0
0 0 0
0 0 0
0 0 0
0 0 0
0 0 0
0 0 0
0 0 0
0 0 0
0 0 0
0 0 0
0 0 0
0 0 0
0 0 0
0 0 0
0 0 0
0 0 0
0 0 0
0 0 0
0 0 0
0 0 0
0 0 0
0 0 0
0 0 0
0 0 0
0 0 0
0 0 0
0 0 0
0 0 0
0 0 0
0 0 0
0 0 0
0 0 0
0 0 0
0 0 0
0 0 0
0 0 0
0 0 0
0 0 0
0 0 0
0 0 0
0 0 0
0 0 0
0 0 0
0 0 0
0 0 0
0 0 0
0 0 0
0 0 0
0 0 0
0 0 0
0 0 0
0 0 0
0 0 0
0 0 0
0 0 0
0 0 0
0 0 0
0 0 0
0 0 0
0 0 0
0 0 0
0 0 0
0 0 0
0 0 0
0 0 0
0 0 0
0 0 0
0 0 0
0 0 0
0 0 0
0 0 0
0 0 0
0 0 0
0 0 0
0 0 0
0 0 0
0 0 0
0 0 0
0 0 0
0 0 0
0 0 0
0 0 0
0 0 0
0 0 0
0 0 0
0 0 0
0 0 0
0 0 0
0 0 0
0 0 0
0 0 0
0 0 0
0 0 0
0 0 0
0 0 0
0 0 0
0 0 0
0 0 0
0 0 0
0 0 0
0 0 0
0 0 0
0 0 0
0 0 0
0 0 0
0 0 0
0 0 0
0 0 0
0 0 0
0 0 0
0 0 0
0 0 0
0 0 0
0 0 0
0 0 0
0 0 0
0 0 0
0 0 0
0 0 0
0 0 0
0 0 0
0 0 0
0 0 0
0 0 0
0 0 0
0 0 0
0 0 0
0 0 0
0 0 0
0 0 0
0 0 0
0 0 0
0 0 0
0 0 0
0 0 0
0 0 0
0 0 0
0 0 0
0 0 0
0 0 0
0 0 0
0 0 0
0 0 0
0 0 0
0 0 0
0 0 0
0 0 0
0 0 0
0 0 0
0 0 0
0 0 0
0 0 0
0 0 0
0 0 0
0 0 0
0 0 0
0 0 0
0 0 0
0 0 0
0 0 0
0 0 0
0 0 0
0 0 0
0 0 0
0 0 0
0 0 0
0 0 0
0 0 0
0 0 0
0 0 0
0 0 0
0 0 0
0 0 0
0 0 0
0 0 0
0 0 0
0 0 0
0 0 0
0 0 0
0 0 0
0 0 0
0 0 0
0 0 0
0 0 0
0 0 0
0 0 0
0 0 0
0 0 0
0 0 0
0 0 0
0 0 0
0 0 0
0 0 0
0 0 0
0 0 0
0 0 0
0 0 0
0 0 0
0 0 0
0 0 0
0 0 0
0 0 0
0 0 0
0 0 0
0 0 0
0 0 0
0 0 0
179 179 179
179 179 179
179 179 179
179 179 179
179 179 179
179 179 179
179 179 179
179 179 179
179 179 179
179 179 179
179 179 179
179 179 179
179 179 179
179 179 179
179 179 179
179 179 179
179 179 179
179 179 179
179 179 179
179 179 179
179 179 179
179 179 179
179 179 179
179 179 179
179 179 179
179 179 179
179 179 179
179 179 179
179 179 179
179 179 179
179 179 179
179 179 179
179 179 179
179 179 179
179 179 179
179 179 179
179 179 179
179 179 179
179 179 179
179 179 179
179 179 179
179 179 179
179 179 179
179 179 179
179 179 179
179 179 179
179 179 179
179 179 179
179 179 179
179 179 179
179 179 179
179 179 179
179 179 179
179 179 179
179 179 179
179 179 179
179 179 179
179 179 179
179 179 179
179 179 179
179 179 179
179 179 179
179 179 179
179 179 179
179 179 179
179 179 179
179 179 179
179 179 179
179 179 179
179 179 179
179 179 179
179 179 179
179 179 179
179 179 179
179 179 179
179 179 179
179 179 179
179 179 179
179 179 179
179 179 179
179 179 179
179 179 179
179 179 179
179 179 179
179 179 179
179 179 179
179 179 179
179 179 179
179 179 179
179 179 179
179 179 179
179 179 179
179 179 179
179 179 179
179 179 179
179 179 179
179 179 179
179 179 179
179 179 179
179 179 179
179 179 179
179 179 179
179 179 179
179 179 179
179 179 179
179 179 179
179 179 179
179 179 179
179 179 179
179 179 179
179 179 179
179 179 179
179 179 179
179 179 179
179 179 179
179 179 179
179 179 179
179 179 179
179 179 179
179 179 179
179 179 179
179 179 179
179 179 179
179 179 179
179 179 179
179 179 179
179 179 179
179 179 179
179 179 179
179 179 179
179 179 179
179 179 179
179 179 179
179 179 179
179 179 179
179 179 179
179 179 179
179 179 179
179 179 179
179 179 179
179 179 179
179 179 179
179 179 179
179 179 179
179 179 179
179 179 179
179 179 179
179 179 179
179 179 179
179 179 179
179 179 179
179 179 179
179 179 179
179 179 179
179 179 179
179 179 179
179 179 179
179 179 179
179 179 179
179 179 179
179 179 179
179 179 179
179 179 179
179 179 179
179 179 179
179 179 179
179 179 179
179 179 179
179 179 179
179 179 179
179 179 179
179 179 179
179 179 179
179 179 179
179 179 179
179 179 179
179 179 179
179 179 179
179 179 179
179 179 179
179 179 179
179 179 179
179 179 179
179 179 179
179 179 179
179 179 179
0 0 0
0 0 0
0 0 0
0 0 0
0 0 0
0 0 0
0 0 0
0 0 0
0 0 0
0 0 0
0 0 0
0 0 0
0 0 0
0 0 0
0 0 0
0 0 0
0 0 0
0 0 0
0 0 0
0 0 0
0 0 0
0 0 0
0 0 0
0 0 0
0 0 0
0 0 0
0 0 0
0 0 0
0 0 0
0 0 0
0 0 0
0 0 0
0 0 0
0 0 0
0 0 0
0 0 0
0 0 0
0 0 0
0 0 0
0 0 0
0 0 0
0 0 0
0 0 0
0 0 0
0 0 0
0 0 0
0 0 0
0 0 0
0 0 0
0 0 0
0 0 0
0 0 0
0 0 0
0 0 0
0 0 0
0 0 0
0 0 0
0 0 0
0 0 0
0 0 0
0 0 0
0 0 0
0 0 0
0 0 0
0 0 0
0 0 0
0 0 0
0 0 0
0 0 0
0 0 0
0 0 0
0 0 0
0 0 0
0 0 0
0 0 0
0 0 0
0 0 0
0 0 0
0 0 0
0 0 0
0 0 0
0 0 0
0 0 0
0 0 0
0 0 0
0 0 0
0 0 0
0 0 0
0 0 0
0 0 0
0 0 0
0 0 0
0 0 0
0 0 0
0 0 0
0 0 0
0 0 0
0 0 0
0 0 0
0 0 0
0 0 0
0 0 0
0 0 0
0 0 0
0 0 0
0 0 0
0 0 0
0 0 0
0 0 0
0 0 0
0 0 0
0 0 0
0 0 0
0 0 0
0 0 0
0 0 0
0 0 0
0 0 0
0 0 0
0 0 0
0 0 0
0 0 0
0 0 0
0 0 0
0 0 0
0 0 0
0 0 0
0 0 0
0 0 0
0 0 0
0 0 0
0 0 0
0 0 0
0 0 0
0 0 0
0 0 0
0 0 0
0 0 0
0 0 0
0 0 0
0 0 0
0 0 0
0 0 0
0 0 0
0 0 0
0 0 0
0 0 0
0 0 0
0 0 0
0 0 0
0 0 0
0 0 0
0 0 0
0 0 0
0 0 0
0 0 0
0 0 0
0 0 0
0 0 0
0 0 0
0 0 0
0 0 0
0 0 0
0 0 0
0 0 0
0 0 0
0 0 0
0 0 0
0 0 0
0 0 0
0 0 0
0 0 0
0 0 0
0 0 0
0 0 0
0 0 0
0 0 0
0 0 0
0 0 0
0 0 0
0 0 0
0 0 0
0 0 0
0 0 0
0 0 0
0 0 0
0 0 0
0 0 0
0 0 0
0 0 0
0 0 0
0 0 0
0 0 0
0 0 0
0 0 0
0 0 0
0 0 0
0 0 0
0 0 0
0 0 0
0 0 0
0 0 0
0 0 0
0 0 0
0 0 0
0 0 0
0 0 0
0 0 0
0 0 0
0 0 0
0 0 0
0 0 0
0 0 0
0 0 0
179 179 179
179 179 179
179 179 179
179 179 179
179 179 179
179 179 179
179 179 179
179 179 179
179 179 179
179 179 179
179 179 179
179 179 179
179 179 179
179 179 179
179 179 179
179 179 179
179 179 179
179 179 179
179 179 179
179 179 179
179 179 179
179 179 179
179 179 179
179 179 179
179 179 179
179 179 179
179 179 179
179 179 179
179 179 179
179 179 179
179 179 179
179 179 179
179 179 179
179 179 179
179 179 179
179 179 179
179 179 179
179 179 179
179 179 179
179 179 179
179 179 179
179 179 179
179 179 179
179 179 179
179 179 179
179 179 179
179 179 179
179 179 179
179 179 179
179 179 179
179 179 179
179 179 179
179 179 179
179 179 179
179 179 179
179 179 179
179 179 179
179 179 179
179 179 179
179 179 179
179 179 179
179 179 179
179 179 179
179 179 179
179 179 179
179 179 179
179 179 179
179 179 179
179 179 179
179 179 179
179 179 179
179 179 179
179 179 179
179 179 179
179 179 179
179 179 179
179 179 179
179 179 179
179 179 179
179 179 179
179 179 179
179 179 179
179 179 179
179 179 179
179 179 179
179 179 179
179 179 179
179 179 179
179 179 179
179 179 179
179 179 179
179 179 179
179 179 179
179 179 179
179 179 179
179 179 179
179 179 179
179 179 179
179 179 179
179 179 179
179 179 179
179 179 179
179 179 179
179 179 179
179 179 179
179 179 179
179 179 179
179 179 179
179 179 179
179 179 179
179 179 179
179 179 179
179 179 179
179 179 179
179 179 179
179 179 179
179 179 179
179 179 179
179 179 179
179 179 179
179 179 179
179 179 179
179 179 179
179 179 179
179 179 179
179 179 179
179 179 179
179 179 179
179 179 179
179 179 179
179 179 179
179 179 179
179 179 179
179 179 179
179 179 179
179 179 179
179 179 179
179 179 179
179 179 179
179 179 179
179 179 179
179 179 179
179 179 179
179 179 179
179 179 179
179 179 179
179 179 179
179 179 179
179 179 179
179 179 179
179 179 179
179 179 179
179 179 179
179 179 179
179 179 179
179 179 179
179 179 179
179 179 179
179 179 179
179 179 179
179 179 179
179 179 179
179 179 179
179 179 179
179 179 179
179 179 179
179 179 179
179 179 179
179 179 179
179 179 179
179 179 179
179 179 179
179 179 179
179 179 179
179 179 179
179 179 179
179 179 179
179 179 179
179 179 179
179 179 179
179 179 179
179 179 179
179 179 179
179 179 179
179 179 179
179 179 179
0 0 0
0 0 0
0 0 0
0 0 0
0 0 0
0 0 0
0 0 0
0 0 0
0 0 0
0 0 0
0 0 0
0 0 0
0 0 0
0 0 0
0 0 0
0 0 0
0 0 0
0 0 0
0 0 0
0 0 0
0 0 0
0 0 0
0 0 0
0 0 0
0 0 0
0 0 0
0 0 0
0 0 0
0 0 0
0 0 0
0 0 0
0 0 0
0 0 0
0 0 0
0 0 0
0 0 0
0 0 0
0 0 0
0 0 0
0 0 0
0 0 0
0 0 0
0 0 0
0 0 0
0 0 0
0 0 0
0 0 0
0 0 0
0 0 0
0 0 0
0 0 0
0 0 0
0 0 0
0 0 0
0 0 0
0 0 0
0 0 0
0 0 0
0 0 0
0 0 0
0 0 0
0 0 0
0 0 0
0 0 0
0 0 0
0 0 0
0 0 0
0 0 0
0 0 0
0 0 0
0 0 0
0 0 0
0 0 0
0 0 0
0 0 0
0 0 0
0 0 0
0 0 0
0 0 0
0 0 0
0 0 0
0 0 0
0 0 0
0 0 0
0 0 0
0 0 0
0 0 0
0 0 0
0 0 0
0 0 0
0 0 0
0 0 0
0 0 0
0 0 0
0 0 0
0 0 0
0 0 0
0 0 0
0 0 0
0 0 0
0 0 0
0 0 0
0 0 0
0 0 0
0 0 0
0 0 0
0 0 0
0 0 0
0 0 0
0 0 0
0 0 0
0 0 0
0 0 0
0 0 0
0 0 0
0 0 0
0 0 0
0 0 0
0 0 0
0 0 0
0 0 0
0 0 0
0 0 0
0 0 0
0 0 0
0 0 0
0 0 0
0 0 0
0 0 0
0 0 0
0 0 0
0 0 0
0 0 0
0 0 0
0 0 0
0 0 0
0 0 0
0 0 0
0 0 0
0 0 0
0 0 0
0 0 0
0 0 0
0 0 0
0 0 0
0 0 0
0 0 0
0 0 0
0 0 0
0 0 0
0 0 0
0 0 0
0 0 0
0 0 0
0 0 0
0 0 0
0 0 0
0 0 0
0 0 0
0 0 0
0 0 0
0 0 0
0 0 0
0 0 0
0 0 0
0 0 0
0 0 0
0 0 0
0 0 0
0 0 0
0 0 0
0 0 0
0 0 0
0 0 0
0 0 0
0 0 0
0 0 0
0 0 0
0 0 0
0 0 0
0 0 0
0 0 0
0 0 0
0 0 0
0 0 0
0 0 0
0 0 0
0 0 0
0 0 0
0 0 0
0 0 0
0 0 0
0 0 0
0 0 0
0 0 0
0 0 0
0 0 0
0 0 0
0 0 0
0 0 0
0 0 0
0 0 0
0 0 0
0 0 0
0 0 0
0 0 0
0 0 0
0 0 0
0 0 0
0 0 0
0 0 0
0 0 0
0 0 0
0 0 0
179 179 179
179 179 179
179 179 179
179 179 179
179 179 179
179 179 179
179 179 179
179 179 179
179 179 179
179 179 179
179 179 179
179 179 179
179 179 179
179 179 179
179 179 179
179 179 179
179 179 179
179 179 179
179 179 179
179 179 179
179 179 179
179 179 179
179 179 179
179 179 179
179 179 179
179 179 179
179 179 179
179 179 179
179 179 179
179 179 179
179 179 179
179 179 179
179 179 179
179 179 179
179 179 179
179 179 179
179 179 179
179 179 179
179 179 179
179 179 179
179 179 179
179 179 179
179 179 179
179 179 179
179 179 179
179 179 179
179 179 179
179 179 179
179 179 179
179 179 179
179 179 179
179 179 179
179 179 179
179 179 179
179 179 179
179 179 179
179 179 179
179 179 179
179 179 179
179 179 179
179 179 179
179 179 179
179 179 179
179 179 179
179 179 179
179 179 179
179 179 179
179 179 179
179 179 179
179 179 179
179 179 179
179 179 179
179 179 179
179 179 179
179 179 179
179 179 179
179 179 179
179 179 179
179 179 179
179 179 179
179 179 179
179 179 179
179 179 179
179 179 179
179 179 179
179 179 179
179 179 179
179 179 179
179 179 179
179 179 179
179 179 179
179 179 179
179 179 179
179 179 179
179 179 179
179 179 179
179 179 179
179 179 179
179 179 179
179 179 179
179 179 179
179 179 179
179 179 179
179 179 179
179 179 179
179 179 179
179 179 179
179 179 179
179 179 179
179 179 179
179 179 179
179 179 179
179 179 179
179 179 179
179 179 179
179 179 179
179 179 179
179 179 179
179 179 179
179 179 179
179 179 179
179 179 179
179 179 179
179 179 179
179 179 179
179 179 179
179 179 179
179 179 179
179 179 179
179 179 179
179 179 179
179 179 179
179 179 179
179 179 179
179 179 179
179 179 179
179 179 179
179 179 179
179 179 179
179 179 179
179 179 179
179 179 179
179 179 179
179 179 179
179 179 179
179 179 179
179 179 179
179 179 179
179 179 179
179 179 179
179 179 179
179 179 179
179 179 179
179 179 179
179 179 179
179 179 179
179 179 179
179 179 179
179 179 179
179 179 179
179 179 179
179 179 179
179 179 179
179 179 179
179 179 179
179 179 179
179 179 179
179 179 179
179 179 179
179 179 179
179 179 179
179 179 179
179 179 179
179 179 179
179 179 179
179 179 179
179 179 179
179 179 179
179 179 179
179 179 179
179 179 179
179 179 179
179 179 179
179 179 179
179 179 179
179 179 179
0 0 0
0 0 0
0 0 0
0 0 0
0 0 0
0 0 0
0 0 0
0 0 0
0 0 0
0 0 0
0 0 0
0 0 0
0 0 0
0 0 0
0 0 0
0 0 0
0 0 0
0 0 0
0 0 0
0 0 0
0 0 0
0 0 0
0 0 0
0 0 0
0 0 0
0 0 0
0 0 0
0 0 0
0 0 0
0 0 0
0 0 0
0 0 0
0 0 0
0 0 0
0 0 0
0 0 0
0 0 0
0 0 0
0 0 0
0 0 0
0 0 0
0 0 0
0 0 0
0 0 0
0 0 0
0 0 0
0 0 0
0 0 0
0 0 0
0 0 0
0 0 0
0 0 0
0 0 0
0 0 0
0 0 0
0 0 0
0 0 0
0 0 0
0 0 0
0 0 0
0 0 0
0 0 0
0 0 0
0 0 0
0 0 0
0 0 0
0 0 0
0 0 0
0 0 0
0 0 0
0 0 0
0 0 0
0 0 0
0 0 0
0 0 0
0 0 0
0 0 0
0 0 0
0 0 0
0 0 0
0 0 0
0 0 0
0 0 0
0 0 0
0 0 0
0 0 0
0 0 0
0 0 0
0 0 0
0 0 0
0 0 0
0 0 0
0 0 0
0 0 0
0 0 0
0 0 0
0 0 0
0 0 0
0 0 0
0 0 0
0 0 0
0 0 0
0 0 0
0 0 0
0 0 0
0 0 0
0 0 0
0 0 0
0 0 0
0 0 0
0 0 0
0 0 0
0 0 0
0 0 0
0 0 0
0 0 0
0 0 0
0 0 0
0 0 0
0 0 0
0 0 0
0 0 0
0 0 0
0 0 0
0 0 0
0 0 0
0 0 0
0 0 0
0 0 0
0 0 0
0 0 0
0 0 0
0 0 0
0 0 0
0 0 0
0 0 0
0 0 0
0 0 0
0 0 0
0 0 0
0 0 0
0 0 0
0 0 0
0 0 0
0 0 0
0 0 0
0 0 0
0 0 0
0 0 0
0 0 0
0 0 0
0 0 0
0 0 0
0 0 0
0 0 0
0 0 0
0 0 0
0 0 0
0 0 0
0 0 0
0 0 0
0 0 0
0 0 0
0 0 0
0 0 0
0 0 0
0 0 0
0 0 0
0 0 0
0 0 0
0 0 0
0 0 0
0 0 0
0 0 0
0 0 0
0 0 0
0 0 0
0 0 0
0 0 0
0 0 0
0 0 0
0 0 0
0 0 0
0 0 0
0 0 0
0 0 0
0 0 0
0 0 0
0 0 0
0 0 0
0 0 0
0 0 0
0 0 0
0 0 0
0 0 0
0 0 0
0 0 0
0 0 0
0 0 0
0 0 0
0 0 0
0 0 0
0 0 0
0 0 0
0 0 0
0 0 0
0 0 0
0 0 0
0 0 0
0 0 0
0 0 0
0 0 0
0 0 0
0 0 0
179 179 179
179 179 179
179 179 179
179 179 179
179 179 179
179 179 179
179 179 179
179 179 179
179 179 179
179 179 179
179 179 179
179 179 179
179 179 179
179 179 179
179 179 179
179 179 179
179 179 179
179 179 179
179 179 179
179 179 179
179 179 179
179 179 179
179 179 179
179 179 179
179 179 179
179 179 179
179 179 179
179 179 179
179 179 179
179 179 179
179 179 179
179 179 179
179 179 179
179 179 179
179 179 179
179 179 179
179 179 179
179 179 179
179 179 179
179 179 179
179 179 179
179 179 179
179 179 179
179 179 179
179 179 179
179 179 179
179 179 179
179 179 179
179 179 179
179 179 179
179 179 179
179 179 179
179 179 179
179 179 179
179 179 179
179 179 179
179 179 179
179 179 179
179 179 179
179 179 179
179 179 179
179 179 179
179 179 179
179 179 179
179 179 179
179 179 179
179 179 179
179 179 179
179 179 179
179 179 179
179 179 179
179 179 179
179 179 179
179 179 179
179 179 179
179 179 179
179 179 179
179 179 179
179 179 179
179 179 179
179 179 179
179 179 179
179 179 179
179 179 179
179 179 179
179 179 179
179 179 179
179 179 179
179 179 179
179 179 179
179 179 179
179 179 179
179 179 179
179 179 179
179 179 179
179 179 179
179 179 179
179 179 179
179 179 179
179 179 179
179 179 179
179 179 179
179 179 179
179 179 179
179 179 179
179 179 179
179 179 179
179 179 179
179 179 179
179 179 179
179 179 179
179 179 179
179 179 179
179 179 179
179 179 179
179 179 179
179 179 179
179 179 179
179 179 179
179 179 179
179 179 179
179 179 179
179 179 179
179 179 179
179 179 179
179 179 179
179 179 179
179 179 179
179 179 179
179 179 179
179 179 179
179 179 179
179 179 179
179 179 179
179 179 179
179 179 179
179 179 179
179 179 179
179 179 179
179 179 179
179 179 179
179 179 179
179 179 179
179 179 179
179 179 179
179 179 179
179 179 179
179 179 179
179 179 179
179 179 179
179 179 179
179 179 179
179 179 179
179 179 179
179 179 179
179 179 179
179 179 179
179 179 179
179 179 179
179 179 179
179 179 179
179 179 179
179 179 179
179 179 179
179 179 179
179 179 179
179 179 179
179 179 179
179 179 179
179 179 179
179 179 179
179 179 179
179 179 179
179 179 179
179 179 179
179 179 179
179 179 179
179 179 179
179 179 179
179 179 179
179 179 179
179 179 179
179 179 179
179 179 179
179 179 179
179 179 179
0 0 0
0 0 0
0 0 0
0 0 0
0 0 0
0 0 0
0 0 0
0 0 0
0 0 0
0 0 0
0 0 0
0 0 0
0 0 0
0 0 0
0 0 0
0 0 0
0 0 0
0 0 0
0 0 0
0 0 0
0 0 0
0 0 0
0 0 0
0 0 0
0 0 0
0 0 0
0 0 0
0 0 0
0 0 0
0 0 0
0 0 0
0 0 0
0 0 0
0 0 0
0 0 0
0 0 0
0 0 0
0 0 0
0 0 0
0 0 0
0 0 0
0 0 0
0 0 0
0 0 0
0 0 0
0 0 0
0 0 0
0 0 0
0 0 0
0 0 0
0 0 0
0 0 0
0 0 0
0 0 0
0 0 0
0 0 0
0 0 0
0 0 0
0 0 0
0 0 0
0 0 0
0 0 0
0 0 0
0 0 0
0 0 0
0 0 0
0 0 0
0 0 0
0 0 0
0 0 0
0 0 0
0 0 0
0 0 0
0 0 0
0 0 0
0 0 0
0 0 0
0 0 0
0 0 0
0 0 0
0 0 0
0 0 0
0 0 0
0 0 0
0 0 0
0 0 0
0 0 0
0 0 0
0 0 0
0 0 0
0 0 0
0 0 0
0 0 0
0 0 0
0 0 0
0 0 0
0 0 0
0 0 0
0 0 0
0 0 0
0 0 0
0 0 0
0 0 0
0 0 0
0 0 0
0 0 0
0 0 0
0 0 0
0 0 0
0 0 0
0 0 0
0 0 0
0 0 0
0 0 0
0 0 0
0 0 0
0 0 0
0 0 0
0 0 0
0 0 0
0 0 0
0 0 0
0 0 0
0 0 0
0 0 0
0 0 0
0 0 0
0 0 0
0 0 0
0 0 0
0 0 0
0 0 0
0 0 0
0 0 0
0 0 0
0 0 0
0 0 0
0 0 0
0 0 0
0 0 0
0 0 0
0 0 0
0 0 0
0 0 0
0 0 0
0 0 0
0 0 0
0 0 0
0 0 0
0 0 0
0 0 0
0 0 0
0 0 0
0 0 0
0 0 0
0 0 0
0 0 0
0 0 0
0 0 0
0 0 0
0 0 0
0 0 0
0 0 0
0 0 0
0 0 0
0 0 0
0 0 0
0 0 0
0 0 0
0 0 0
0 0 0
0 0 0
0 0 0
0 0 0
0 0 0
0 0 0
0 0 0
0 0 0
0 0 0
0 0 0
0 0 0
0 0 0
0 0 0
0 0 0
0 0 0
0 0 0
0 0 0
0 0 0
0 0 0
0 0 0
0 0 0
0 0 0
0 0 0
0 0 0
0 0 0
0 0 0
0 0 0
0 0 0
0 0 0
0 0 0
0 0 0
0 0 0
0 0 0
0 0 0
0 0 0
0 0 0
0 0 0
0 0 0
0 0 0
0 0 0
0 0 0
0 0 0
0 0 0
0 0 0
179 179 179
179 179 179
179 179 179
179 179 179
179 179 179
179 179 179
179 179 179
179 179 179
179 179 179
179 179 179
179 179 179
179 179 179
179 179 179
179 179 179
179 179 179
179 179 179
179 179 179
179 179 179
179 179 179
179 179 179
179 179 179
179 179 179
179 179 179
179 179 179
179 179 179
179 179 179
179 179 179
179 179 179
179 179 179
179 179 179
179 179 179
179 179 179
179 179 179
179 179 179
179 179 179
179 179 179
179 179 179
179 179 179
179 179 179
179 179 179
179 179 179
179 179 179
179 179 179
179 179 179
179 179 179
179 179 179
179 179 179
179 179 179
179 179 179
179 179 179
179 179 179
179 179 179
179 179 179
179 179 179
179 179 179
179 179 179
179 179 179
179 179 179
179 179 179
179 179 179
179 179 179
179 179 179
179 179 179
179 179 179
179 179 179
179 179 179
179 179 179
179 179 179
179 179 179
179 179 179
179 179 179
179 179 179
179 179 179
179 179 179
179 179 179
179 179 179
179 179 179
179 179 179
179 179 179
179 179 179
179 179 179
179 179 179
179 179 179
179 179 179
179 179 179
179 179 179
179 179 179
179 179 179
179 179 179
179 179 179
179 179 179
179 179 179
179 179 179
179 179 179
179 179 179
179 179 179
179 179 179
179 179 179
179 179 179
179 179 179
179 179 179
179 179 179
179 179 179
179 179 179
179 179 179
179 179 179
179 179 179
179 179 179
179 179 179
179 179 179
179 179 179
179 179 179
179 179 179
179 179 179
179 179 179
179 179 179
179 179 179
179 179 179
179 179 179
179 179 179
179 179 179
179 179 179
179 179 179
179 179 179
179 179 179
179 179 179
179 179 179
179 179 179
179 179 179
179 179 179
179 179 179
179 179 179
179 179 179
179 179 179
179 179 179
179 179 179
179 179 179
179 179 179
179 179 179
179 179 179
179 179 179
179 179 179
179 179 179
179 179 179
179 179 179
179 179 179
179 179 179
179 179 179
179 179 179
179 179 179
179 179 179
179 179 179
179 179 179
179 179 179
179 179 179
179 179 179
179 179 179
179 179 179
179 179 179
179 179 179
179 179 179
179 179 179
179 179 179
179 179 179
179 179 179
179 179 179
179 179 179
179 179 179
179 179 179
179 179 179
179 179 179
179 179 179
179 179 179
179 179 179
179 179 179
179 179 179
179 179 179
179 179 179
179 179 179
179 179 179
179 179 179
179 179 179
179 179 179
179 179 179
179 179 179
179 179 179
0 0 0
0 0 0
0 0 0
0 0 0
0 0 0
0 0 0
0 0 0
0 0 0
0 0 0
0 0 0
0 0 0
0 0 0
0 0 0
0 0 0
0 0 0
0 0 0
0 0 0
0 0 0
0 0 0
0 0 0
0 0 0
0 0 0
0 0 0
0 0 0
0 0 0
0 0 0
0 0 0
0 0 0
0 0 0
0 0 0
0 0 0
0 0 0
0 0 0
0 0 0
0 0 0
0 0 0
0 0 0
0 0 0
0 0 0
0 0 0
0 0 0
0 0 0
0 0 0
0 0 0
0 0 0
0 0 0
0 0 0
0 0 0
0 0 0
0 0 0
0 0 0
0 0 0
0 0 0
0 0 0
0 0 0
0 0 0
0 0 0
0 0 0
0 0 0
0 0 0
0 0 0
0 0 0
0 0 0
0 0 0
0 0 0
0 0 0
0 0 0
0 0 0
0 0 0
0 0 0
0 0 0
0 0 0
0 0 0
0 0 0
0 0 0
0 0 0
0 0 0
0 0 0
0 0 0
0 0 0
0 0 0
0 0 0
0 0 0
0 0 0
0 0 0
0 0 0
0 0 0
0 0 0
0 0 0
0 0 0
0 0 0
0 0 0
0 0 0
0 0 0
0 0 0
0 0 0
0 0 0
0 0 0
0 0 0
0 0 0
0 0 0
0 0 0
0 0 0
0 0 0
0 0 0
0 0 0
0 0 0
0 0 0
0 0 0
0 0 0
0 0 0
0 0 0
0 0 0
0 0 0
0 0 0
0 0 0
0 0 0
0 0 0
0 0 0
0 0 0
0 0 0
0 0 0
0 0 0
0 0 0
0 0 0
0 0 0
0 0 0
0 0 0
0 0 0
0 0 0
0 0 0
0 0 0
0 0 0
0 0 0
0 0 0
0 0 0
0 0 0
0 0 0
0 0 0
0 0 0
0 0 0
0 0 0
0 0 0
0 0 0
0 0 0
0 0 0
0 0 0
0 0 0
0 0 0
0 0 0
0 0 0
0 0 0
0 0 0
0 0 0
0 0 0
0 0 0
0 0 0
0 0 0
0 0 0
0 0 0
0 0 0
0 0 0
0 0 0
0 0 0
0 0 0
0 0 0
0 0 0
0 0 0
0 0 0
0 0 0
0 0 0
0 0 0
0 0 0
0 0 0
0 0 0
0 0 0
0 0 0
0 0 0
0 0 0
0 0 0
0 0 0
0 0 0
0 0 0
0 0 0
0 0 0
0 0 0
0 0 0
0 0 0
0 0 0
0 0 0
0 0 0
0 0 0
0 0 0
0 0 0
0 0 0
0 0 0
0 0 0
0 0 0
0 0 0
0 0 0
0 0 0
0 0 0
0 0 0
0 0 0
0 0 0
0 0 0
0 0 0
0 0 0
0 0 0
0 0 0
0 0 0
0 0 0
0 0 0
0 0 0
179 179 179
179 179 179
179 179 179
179 179 179
179 179 179
179 179 179
179 179 179
179 179 179
179 179 179
179 179 179
179 179 179
179 179 179
179 179 179
179 179 179
179 179 179
179 179 179
179 179 179
179 179 179
179 179 179
179 179 179
179 179 179
179 179 179
179 179 179
179 179 179
179 179 179
179 179 179
179 179 179
179 179 179
179 179 179
179 179 179
179 179 179
179 179 179
179 179 179
179 179 179
179 179 179
179 179 179
179 179 179
179 179 179
179 179 179
179 179 179
179 179 179
179 179 179
179 179 179
179 179 179
179 179 179
179 179 179
179 179 179
179 179 179
179 179 179
179 179 179
179 179 179
179 179 179
179 179 179
179 179 179
179 179 179
179 179 179
179 179 179
179 179 179
179 179 179
179 179 179
179 179 179
179 179 179
179 179 179
179 179 179
179 179 179
179 179 179
179 179 179
179 179 179
179 179 179
179 179 179
179 179 179
179 179 179
179 179 179
179 179 179
179 179 179
179 179 179
179 179 179
179 179 179
179 179 179
179 179 179
179 179 179
179 179 179
179 179 179
179 179 179
179 179 179
179 179 179
179 179 179
179 179 179
179 179 179
179 179 179
179 179 179
179 179 179
179 179 179
179 179 179
179 179 179
179 179 179
179 179 179
179 179 179
179 179 179
179 179 179
179 179 179
179 179 179
179 179 179
179 179 179
179 179 179
179 179 179
179 179 179
179 179 179
179 179 179
179 179 179
179 179 179
179 179 179
179 179 179
179 179 179
179 179 179
179 179 179
179 179 179
179 179 179
179 179 179
179 179 179
179 179 179
179 179 179
179 179 179
179 179 179
179 179 179
179 179 179
179 179 179
179 179 179
179 179 179
179 179 179
179 179 179
179 179 179
179 179 179
179 179 179
179 179 179
179 179 179
179 179 179
179 179 179
179 179 179
179 179 179
179 179 179
179 179 179
179 179 179
179 179 179
179 179 179
179 179 179
179 179 179
179 179 179
179 179 179
179 179 179
179 179 179
179 179 179
179 179 179
179 179 179
179 179 179
179 179 179
179 179 179
179 179 179
179 179 179
179 179 179
179 179 179
179 179 179
179 179 179
179 179 179
179 179 179
179 179 179
179 179 179
179 179 179
179 179 179
179 179 179
179 179 179
179 179 179
179 179 179
179 179 179
179 179 179
179 179 179
179 179 179
179 179 179
179 179 179
179 179 179
179 179 179
179 179 179
179 179 179
179 179 179
179 179 179
179 179 179
0 0 0
0 0 0
0 0 0
0 0 0
0 0 0
0 0 0
0 0 0
0 0 0
0 0 0
0 0 0
0 0 0
0 0 0
0 0 0
0 0 0
0 0 0
0 0 0
0 0 0
0 0 0
0 0 0
0 0 0
0 0 0
0 0 0
0 0 0
0 0 0
0 0 0
0 0 0
0 0 0
0 0 0
0 0 0
0 0 0
0 0 0
0 0 0
0 0 0
0 0 0
0 0 0
0 0 0
0 0 0
0 0 0
0 0 0
0 0 0
0 0 0
0 0 0
0 0 0
0 0 0
0 0 0
0 0 0
0 0 0
0 0 0
0 0 0
0 0 0
0 0 0
0 0 0
0 0 0
0 0 0
0 0 0
0 0 0
0 0 0
0 0 0
0 0 0
0 0 0
0 0 0
0 0 0
0 0 0
0 0 0
0 0 0
0 0 0
0 0 0
0 0 0
0 0 0
0 0 0
0 0 0
0 0 0
0 0 0
0 0 0
0 0 0
0 0 0
0 0 0
0 0 0
0 0 0
0 0 0
0 0 0
0 0 0
0 0 0
0 0 0
0 0 0
0 0 0
0 0 0
0 0 0
0 0 0
0 0 0
0 0 0
0 0 0
0 0 0
0 0 0
0 0 0
0 0 0
0 0 0
0 0 0
0 0 0
0 0 0
0 0 0
0 0 0
0 0 0
0 0 0
0 0 0
0 0 0
0 0 0
0 0 0
0 0 0
0 0 0
0 0 0
0 0 0
0 0 0
0 0 0
0 0 0
0 0 0
0 0 0
0 0 0
0 0 0
0 0 0
0 0 0
0 0 0
0 0 0
0 0 0
0 0 0
0 0 0
0 0 0
0 0 0
0 0 0
0 0 0
0 0 0
0 0 0
0 0 0
0 0 0
0 0 0
0 0 0
0 0 0
0 0 0
0 0 0
0 0 0
0 0 0
0 0 0
0 0 0
0 0 0
0 0 0
0 0 0
0 0 0
0 0 0
0 0 0
0 0 0
0 0 0
0 0 0
0 0 0
0 0 0
0 0 0
0 0 0
0 0 0
0 0 0
0 0 0
0 0 0
0 0 0
0 0 0
0 0 0
0 0 0
0 0 0
0 0 0
0 0 0
0 0 0
0 0 0
0 0 0
0 0 0
0 0 0
0 0 0
0 0 0
0 0 0
0 0 0
0 0 0
0 0 0
0 0 0
0 0 0
0 0 0
0 0 0
0 0 0
0 0 0
0 0 0
0 0 0
0 0 0
0 0 0
0 0 0
0 0 0
0 0 0
0 0 0
0 0 0
0 0 0
0 0 0
0 0 0
0 0 0
0 0 0
0 0 0
0 0 0
0 0 0
0 0 0
0 0 0
0 0 0
0 0 0
0 0 0
0 0 0
0 0 0
0 0 0
0 0 0
0 0 0
0 0 0
0 0 0
0 0 0
179 179 179
179 179 179
179 179 179
179 179 179
179 179 179
179 179 179
179 179 179
179 179 179
179 179 179
179 179 179
179 179 179
179 179 179
179 179 179
179 179 179
179 179 179
179 179 179
179 179 179
179 179 179
179 179 179
179 179 179
179 179 179
179 179 179
179 179 179
179 179 179
179 179 179
179 179 179
179 179 179
179 179 179
179 179 179
179 179 179
179 179 179
179 179 179
179 179 179
179 179 179
179 179 179
179 179 179
179 179 179
179 179 179
179 179 179
179 179 179
179 179 179
179 179 179
179 179 179
179 179 179
179 179 179
179 179 179
179 179 179
179 179 179
179 179 179
179 179 179
179 179 179
179 179 179
179 179 179
179 179 179
179 179 179
179 179 179
179 179 179
179 179 179
179 179 179
179 179 179
179 179 179
179 179 179
179 179 179
179 179 179
179 179 179
179 179 179
179 179 179
179 179 179
179 179 179
179 179 179
179 179 179
179 179 179
179 179 179
179 179 179
179 179 179
179 179 179
179 179 179
179 179 179
179 179 179
179 179 179
179 179 179
179 179 179
179 179 179
179 179 179
179 179 179
179 179 179
179 179 179
179 179 179
179 179 179
179 179 179
179 179 179
179 179 179
179 179 179
179 179 179
179 179 179
179 179 179
179 179 179
179 179 179
179 179 179
179 179 179
179 179 179
179 179 179
179 179 179
179 179 179
179 179 179
179 179 179
179 179 179
179 179 179
179 179 179
179 179 179
179 179 179
179 179 179
179 179 179
179 179 179
179 179 179
179 179 179
179 179 179
179 179 179
179 179 179
179 179 179
179 179 179
179 179 179
179 179 179
179 179 179
179 179 179
179 179 179
179 179 179
179 179 179
179 179 179
179 179 179
179 179 179
179 179 179
179 179 179
179 179 179
179 179 179
179 179 179
179 179 179
179 179 179
179 179 179
179 179 179
179 179 179
179 179 179
179 179 179
179 179 179
179 179 179
179 179 179
179 179 179
179 179 179
179 179 179
179 179 179
179 179 179
179 179 179
179 179 179
179 179 179
179 179 179
179 179 179
179 179 179
179 179 179
179 179 179
179 179 179
179 179 179
179 179 179
179 179 179
179 179 179
179 179 179
179 179 179
179 179 179
179 179 179
179 179 179
179 179 179
179 179 179
179 179 179
179 179 179
179 179 179
179 179 179
179 179 179
179 179 179
179 179 179
179 179 179
179 179 179
179 179 179
179 179 179
179 179 179
179 179 179
179 179 179
179 179 179
0 0 0
0 0 0
0 0 0
0 0 0
0 0 0
0 0 0
0 0 0
0 0 0
0 0 0
0 0 0
0 0 0
0 0 0
0 0 0
0 0 0
0 0 0
0 0 0
0 0 0
0 0 0
0 0 0
0 0 0
0 0 0
0 0 0
0 0 0
0 0 0
0 0 0
0 0 0
0 0 0
0 0 0
0 0 0
0 0 0
0 0 0
0 0 0
0 0 0
0 0 0
0 0 0
0 0 0
0 0 0
0 0 0
0 0 0
0 0 0
0 0 0
0 0 0
0 0 0
0 0 0
0 0 0
0 0 0
0 0 0
0 0 0
0 0 0
0 0 0
0 0 0
0 0 0
0 0 0
0 0 0
0 0 0
0 0 0
0 0 0
0 0 0
0 0 0
0 0 0
0 0 0
0 0 0
0 0 0
0 0 0
0 0 0
0 0 0
0 0 0
0 0 0
0 0 0
0 0 0
0 0 0
0 0 0
0 0 0
0 0 0
0 0 0
0 0 0
0 0 0
0 0 0
0 0 0
0 0 0
0 0 0
0 0 0
0 0 0
0 0 0
0 0 0
0 0 0
0 0 0
0 0 0
0 0 0
0 0 0
0 0 0
0 0 0
0 0 0
0 0 0
0 0 0
0 0 0
0 0 0
0 0 0
0 0 0
0 0 0
0 0 0
0 0 0
0 0 0
0 0 0
0 0 0
0 0 0
0 0 0
0 0 0
0 0 0
0 0 0
0 0 0
0 0 0
0 0 0
0 0 0
0 0 0
0 0 0
0 0 0
0 0 0
0 0 0
0 0 0
0 0 0
0 0 0
0 0 0
0 0 0
0 0 0
0 0 0
0 0 0
0 0 0
0 0 0
0 0 0
0 0 0
0 0 0
0 0 0
0 0 0
0 0 0
0 0 0
0 0 0
0 0 0
0 0 0
0 0 0
0 0 0
0 0 0
0 0 0
0 0 0
0 0 0
0 0 0
0 0 0
0 0 0
0 0 0
0 0 0
0 0 0
0 0 0
0 0 0
0 0 0
0 0 0
0 0 0
0 0 0
0 0 0
0 0 0
0 0 0
0 0 0
0 0 0
0 0 0
0 0 0
0 0 0
0 0 0
0 0 0
0 0 0
0 0 0
0 0 0
0 0 0
0 0 0
0 0 0
0 0 0
0 0 0
0 0 0
0 0 0
0 0 0
0 0 0
0 0 0
0 0 0
0 0 0
0 0 0
0 0 0
0 0 0
0 0 0
0 0 0
0 0 0
0 0 0
0 0 0
0 0 0
0 0 0
0 0 0
0 0 0
0 0 0
0 0 0
0 0 0
0 0 0
0 0 0
0 0 0
0 0 0
0 0 0
0 0 0
0 0 0
0 0 0
0 0 0
0 0 0
0 0 0
0 0 0
0 0 0
0 0 0
0 0 0
0 0 0
0 0 0
179 179 179
179 179 179
179 179 179
179 179 179
179 179 179
179 179 179
179 179 179
179 179 179
179 179 179
179 179 179
179 179 179
179 179 179
179 179 179
179 179 179
179 179 179
179 179 179
179 179 179
179 179 179
179 179 179
179 179 179
179 179 179
179 179 179
179 179 179
179 179 179
179 179 179
179 179 179
179 179 179
179 179 179
179 179 179
179 179 179
179 179 179
179 179 179
179 179 179
179 179 179
179 179 179
179 179 179
179 179 179
179 179 179
179 179 179
179 179 179
179 179 179
179 179 179
179 179 179
179 179 179
179 179 179
179 179 179
179 179 179
179 179 179
179 179 179
179 179 179
179 179 179
179 179 179
179 179 179
179 179 179
179 179 179
179 179 179
179 179 179
179 179 179
179 179 179
179 179 179
179 179 179
179 179 179
179 179 179
179 179 179
179 179 179
179 179 179
179 179 179
179 179 179
179 179 179
179 179 179
179 179 179
179 179 179
179 179 179
179 179 179
179 179 179
179 179 179
179 179 179
179 179 179
179 179 179
179 179 179
179 179 179
179 179 179
179 179 179
179 179 179
179 179 179
179 179 179
179 179 179
179 179 179
179 179 179
179 179 179
179 179 179
179 179 179
179 179 179
179 179 179
179 179 179
179 179 179
179 179 179
179 179 179
179 179 179
179 179 179
179 179 179
179 179 179
179 179 179
179 179 179
179 179 179
179 179 179
179 179 179
179 179 179
179 179 179
179 179 179
179 179 179
179 179 179
179 179 179
179 179 179
179 179 179
179 179 179
179 179 179
179 179 179
179 179 179
179 179 179
179 179 179
179 179 179
179 179 179
179 179 179
179 179 179
179 179 179
179 179 179
179 179 179
179 179 179
179 179 179
179 179 179
179 179 179
179 179 179
179 179 179
179 179 179
179 179 179
179 179 179
179 179 179
179 179 179
179 179 179
179 179 179
179 179 179
179 179 179
179 179 179
179 179 179
179 179 179
179 179 179
179 179 179
179 179 179
179 179 179
179 179 179
179 179 179
179 179 179
179 179 179
179 179 179
179 179 179
179 179 179
179 179 179
179 179 179
179 179 179
179 179 179
179 179 179
179 179 179
179 179 179
179 179 179
179 179 179
179 179 179
179 179 179
179 179 179
179 179 179
179 179 179
179 179 179
179 179 179
179 179 179
179 179 179
179 179 179
179 179 179
179 179 179
179 179 179
179 179 179
179 179 179
179 179 179
179 179 179
179 179 179
179 179 179
179 179 179
0 0 0
0 0 0
0 0 0
0 0 0
0 0 0
0 0 0
0 0 0
0 0 0
0 0 0
0 0 0
0 0 0
0 0 0
0 0 0
0 0 0
0 0 0
0 0 0
0 0 0
0 0 0
0 0 0
0 0 0
0 0 0
0 0 0
0 0 0
0 0 0
0 0 0
0 0 0
0 0 0
0 0 0
0 0 0
0 0 0
0 0 0
0 0 0
0 0 0
0 0 0
0 0 0
0 0 0
0 0 0
0 0 0
0 0 0
0 0 0
0 0 0
0 0 0
0 0 0
0 0 0
0 0 0
0 0 0
0 0 0
0 0 0
0 0 0
0 0 0
0 0 0
0 0 0
0 0 0
0 0 0
0 0 0
0 0 0
0 0 0
0 0 0
0 0 0
0 0 0
0 0 0
0 0 0
0 0 0
0 0 0
0 0 0
0 0 0
0 0 0
0 0 0
0 0 0
0 0 0
0 0 0
0 0 0
0 0 0
0 0 0
0 0 0
0 0 0
0 0 0
0 0 0
0 0 0
0 0 0
0 0 0
0 0 0
0 0 0
0 0 0
0 0 0
0 0 0
0 0 0
0 0 0
0 0 0
0 0 0
0 0 0
0 0 0
0 0 0
0 0 0
0 0 0
0 0 0
0 0 0
0 0 0
0 0 0
0 0 0
0 0 0
0 0 0
0 0 0
0 0 0
0 0 0
0 0 0
0 0 0
0 0 0
0 0 0
0 0 0
0 0 0
0 0 0
0 0 0
0 0 0
0 0 0
0 0 0
0 0 0
0 0 0
0 0 0
0 0 0
0 0 0
0 0 0
0 0 0
0 0 0
0 0 0
0 0 0
0 0 0
0 0 0
0 0 0
0 0 0
0 0 0
0 0 0
0 0 0
0 0 0
0 0 0
0 0 0
0 0 0
0 0 0
0 0 0
0 0 0
0 0 0
0 0 0
0 0 0
0 0 0
0 0 0
0 0 0
0 0 0
0 0 0
0 0 0
0 0 0
0 0 0
0 0 0
0 0 0
0 0 0
0 0 0
0 0 0
0 0 0
0 0 0
0 0 0
0 0 0
0 0 0
0 0 0
0 0 0
0 0 0
0 0 0
0 0 0
0 0 0
0 0 0
0 0 0
0 0 0
0 0 0
0 0 0
0 0 0
0 0 0
0 0 0
0 0 0
0 0 0
0 0 0
0 0 0
0 0 0
0 0 0
0 0 0
0 0 0
0 0 0
0 0 0
0 0 0
0 0 0
0 0 0
0 0 0
0 0 0
0 0 0
0 0 0
0 0 0
0 0 0
0 0 0
0 0 0
0 0 0
0 0 0
0 0 0
0 0 0
0 0 0
0 0 0
0 0 0
0 0 0
0 0 0
0 0 0
0 0 0
0 0 0
0 0 0
0 0 0
0 0 0
0 0 0
0 0 0
0 0 0
179 179 179
179 179 179
179 179 179
179 179 179
179 179 179
179 179 179
179 179 179
179 179 179
179 179 179
179 179 179
179 179 179
179 179 179
179 179 179
179 179 179
179 179 179
179 179 179
179 179 179
179 179 179
179 179 179
179 179 179
179 179 179
179 179 179
179 179 179
179 179 179
179 179 179
179 179 179
179 179 179
179 179 179
179 179 179
179 179 179
179 179 179
179 179 179
179 179 179
179 179 179
179 179 179
179 179 179
179 179 179
179 179 179
179 179 179
179 179 179
179 179 179
179 179 179
179 179 179
179 179 179
179 179 179
179 179 179
179 179 179
179 179 179
179 179 179
179 179 179
179 179 179
179 179 179
179 179 179
179 179 179
179 179 179
179 179 179
179 179 179
179 179 179
179 179 179
179 179 179
179 179 179
179 179 179
179 179 179
179 179 179
179 179 179
179 179 179
179 179 179
179 179 179
179 179 179
179 179 179
179 179 179
179 179 179
179 179 179
179 179 179
179 179 179
179 179 179
179 179 179
179 179 179
179 179 179
179 179 179
179 179 179
179 179 179
179 179 179
179 179 179
179 179 179
179 179 179
179 179 179
179 179 179
179 179 179
179 179 179
179 179 179
179 179 179
179 179 179
179 179 179
179 179 179
179 179 179
179 179 179
179 179 179
179 179 179
179 179 179
179 179 179
179 179 179
179 179 179
179 179 179
179 179 179
179 179 179
179 179 179
179 179 179
179 179 179
179 179 179
179 179 179
179 179 179
179 179 179
179 179 179
179 179 179
179 179 179
179 179 179
179 179 179
179 179 179
179 179 179
179 179 179
179 179 179
179 179 179
179 179 179
179 179 179
179 179 179
179 179 179
179 179 179
179 179 179
179 179 179
179 179 179
179 179 179
179 179 179
179 179 179
179 179 179
179 179 179
179 179 179
179 179 179
179 179 179
179 179 179
179 179 179
179 179 179
179 179 179
179 179 179
179 179 179
179 179 179
179 179 179
179 179 179
179 179 179
179 179 179
179 179 179
179 179 179
179 179 179
179 179 179
179 179 179
179 179 179
179 179 179
179 179 179
179 179 179
179 179 179
179 179 179
179 179 179
179 179 179
179 179 179
179 179 179
179 179 179
179 179 179
179 179 179
179 179 179
179 179 179
179 179 179
179 179 179
179 179 179
179 179 179
179 179 179
179 179 179
179 179 179
179 179 179
179 179 179
179 179 179
179 179 179
179 179 179
179 179 179
179 179 179
179 179 179
179 179 179
179 179 179
0 0 0
0 0 0
0 0 0
0 0 0
0 0 0
0 0 0
0 0 0
0 0 0
0 0 0
0 0 0
0 0 0
0 0 0
0 0 0
0 0 0
0 0 0
0 0 0
0 0 0
0 0 0
0 0 0
0 0 0
0 0 0
0 0 0
0 0 0
0 0 0
0 0 0
0 0 0
0 0 0
0 0 0
0 0 0
0 0 0
0 0 0
0 0 0
0 0 0
0 0 0
0 0 0
0 0 0
0 0 0
0 0 0
0 0 0
0 0 0
0 0 0
0 0 0
0 0 0
0 0 0
0 0 0
0 0 0
0 0 0
0 0 0
0 0 0
0 0 0
0 0 0
0 0 0
0 0 0
0 0 0
0 0 0
0 0 0
0 0 0
0 0 0
0 0 0
0 0 0
0 0 0
0 0 0
0 0 0
0 0 0
0 0 0
0 0 0
0 0 0
0 0 0
0 0 0
0 0 0
0 0 0
0 0 0
0 0 0
0 0 0
0 0 0
0 0 0
0 0 0
0 0 0
0 0 0
0 0 0
0 0 0
0 0 0
0 0 0
0 0 0
0 0 0
0 0 0
0 0 0
0 0 0
0 0 0
0 0 0
0 0 0
0 0 0
0 0 0
0 0 0
0 0 0
0 0 0
0 0 0
0 0 0
0 0 0
0 0 0
0 0 0
0 0 0
0 0 0
0 0 0
0 0 0
0 0 0
0 0 0
0 0 0
0 0 0
0 0 0
0 0 0
0 0 0
0 0 0
0 0 0
0 0 0
0 0 0
0 0 0
0 0 0
0 0 0
0 0 0
0 0 0
0 0 0
0 0 0
0 0 0
0 0 0
0 0 0
0 0 0
0 0 0
0 0 0
0 0 0
0 0 0
0 0 0
0 0 0
0 0 0
0 0 0
0 0 0
0 0 0
0 0 0
0 0 0
0 0 0
0 0 0
0 0 0
0 0 0
0 0 0
0 0 0
0 0 0
0 0 0
0 0 0
0 0 0
0 0 0
0 0 0
0 0 0
0 0 0
0 0 0
0 0 0
0 0 0
0 0 0
0 0 0
0 0 0
0 0 0
0 0 0
0 0 0
0 0 0
0 0 0
0 0 0
0 0 0
0 0 0
0 0 0
0 0 0
0 0 0
0 0 0
0 0 0
0 0 0
0 0 0
0 0 0
0 0 0
0 0 0
0 0 0
0 0 0
0 0 0
0 0 0
0 0 0
0 0 0
0 0 0
0 0 0
0 0 0
0 0 0
0 0 0
0 0 0
0 0 0
0 0 0
0 0 0
0 0 0
0 0 0
0 0 0
0 0 0
0 0 0
0 0 0
0 0 0
0 0 0
0 0 0
0 0 0
0 0 0
0 0 0
0 0 0
0 0 0
0 0 0
0 0 0
0 0 0
0 0 0
0 0 0
0 0 0
179 179 179
179 179 179
179 179 179
179 179 179
179 179 179
179 179 179
179 179 179
179 179 179
179 179 179
179 179 179
179 179 179
179 179 179
179 179 179
179 179 179
179 179 179
179 179 179
179 179 179
179 179 179
179 179 179
179 179 179
179 179 179
179 179 179
179 179 179
179 179 179
179 179 179
179 179 179
179 179 179
179 179 179
179 179 179
179 179 179
179 179 179
179 179 179
179 179 179
179 179 179
179 179 179
179 179 179
179 179 179
179 179 179
179 179 179
179 179 179
179 179 179
179 179 179
179 179 179
179 179 179
179 179 179
179 179 179
179 179 179
179 179 179
179 179 179
179 179 179
179 179 179
179 179 179
179 179 179
179 179 179
179 179 179
179 179 179
179 179 179
179 179 179
179 179 179
179 179 179
179 179 179
179 179 179
179 179 179
179 179 179
179 179 179
179 179 179
179 179 179
179 179 179
179 179 179
179 179 179
179 179 179
179 179 179
179 179 179
179 179 179
179 179 179
179 179 179
179 179 179
179 179 179
179 179 179
179 179 179
179 179 179
179 179 179
179 179 179
179 179 179
179 179 179
179 179 179
179 179 179
179 179 179
179 179 179
179 179 179
179 179 179
179 179 179
179 179 179
179 179 179
179 179 179
179 179 179
179 179 179
179 179 179
179 179 179
179 179 179
179 179 179
179 179 179
179 179 179
179 179 179
179 179 179
179 179 179
179 179 179
179 179 179
179 179 179
179 179 179
179 179 179
179 179 179
179 179 179
179 179 179
179 179 179
179 179 179
179 179 179
179 179 179
179 179 179
179 179 179
179 179 179
179 179 179
179 179 179
179 179 179
179 179 179
179 179 179
179 179 179
179 179 179
179 179 179
179 179 179
179 179 179
179 179 179
179 179 179
179 179 179
179 179 179
179 179 179
179 179 179
179 179 179
179 179 179
179 179 179
179 179 179
179 179 179
179 179 179
179 179 179
179 179 179
179 179 179
179 179 179
179 179 179
179 179 179
179 179 179
179 179 179
179 179 179
179 179 179
179 179 179
179 179 179
179 179 179
179 179 179
179 179 179
179 179 179
179 179 179
179 179 179
179 179 179
179 179 179
179 179 179
179 179 179
179 179 179
179 179 179
179 179 179
179 179 179
179 179 179
179 179 179
179 179 179
179 179 179
179 179 179
179 179 179
179 179 179
179 179 179
179 179 179
179 179 179
179 179 179
179 179 179
179 179 179
179 179 179
179 179 179
179 179 179
179 179 179
179 179 179
179 179 179
0 0 0
0 0 0
0 0 0
0 0 0
0 0 0
0 0 0
0 0 0
0 0 0
0 0 0
0 0 0
0 0 0
0 0 0
0 0 0
0 0 0
0 0 0
0 0 0
0 0 0
0 0 0
0 0 0
0 0 0
0 0 0
0 0 0
0 0 0
0 0 0
0 0 0
0 0 0
0 0 0
0 0 0
0 0 0
0 0 0
0 0 0
0 0 0
0 0 0
0 0 0
0 0 0
0 0 0
0 0 0
0 0 0
0 0 0
0 0 0
0 0 0
0 0 0
0 0 0
0 0 0
0 0 0
0 0 0
0 0 0
0 0 0
0 0 0
0 0 0
0 0 0
0 0 0
0 0 0
0 0 0
0 0 0
0 0 0
0 0 0
0 0 0
0 0 0
0 0 0
0 0 0
0 0 0
0 0 0
0 0 0
0 0 0
0 0 0
0 0 0
0 0 0
0 0 0
0 0 0
0 0 0
0 0 0
0 0 0
0 0 0
0 0 0
0 0 0
0 0 0
0 0 0
0 0 0
0 0 0
0 0 0
0 0 0
0 0 0
0 0 0
0 0 0
0 0 0
0 0 0
0 0 0
0 0 0
0 0 0
0 0 0
0 0 0
0 0 0
0 0 0
0 0 0
0 0 0
0 0 0
0 0 0
0 0 0
0 0 0
0 0 0
0 0 0
0 0 0
0 0 0
0 0 0
0 0 0
0 0 0
0 0 0
0 0 0
0 0 0
0 0 0
0 0 0
0 0 0
0 0 0
0 0 0
0 0 0
0 0 0
0 0 0
0 0 0
0 0 0
0 0 0
0 0 0
0 0 0
0 0 0
0 0 0
0 0 0
0 0 0
0 0 0
0 0 0
0 0 0
0 0 0
0 0 0
0 0 0
0 0 0
0 0 0
0 0 0
0 0 0
0 0 0
0 0 0
0 0 0
0 0 0
0 0 0
0 0 0
0 0 0
0 0 0
0 0 0
0 0 0
0 0 0
0 0 0
0 0 0
0 0 0
0 0 0
0 0 0
0 0 0
0 0 0
0 0 0
0 0 0
0 0 0
0 0 0
0 0 0
0 0 0
0 0 0
0 0 0
0 0 0
0 0 0
0 0 0
0 0 0
0 0 0
0 0 0
0 0 0
0 0 0
0 0 0
0 0 0
0 0 0
0 0 0
0 0 0
0 0 0
0 0 0
0 0 0
0 0 0
0 0 0
0 0 0
0 0 0
0 0 0
0 0 0
0 0 0
0 0 0
0 0 0
0 0 0
0 0 0
0 0 0
0 0 0
0 0 0
0 0 0
0 0 0
0 0 0
0 0 0
0 0 0
0 0 0
0 0 0
0 0 0
0 0 0
0 0 0
0 0 0
0 0 0
0 0 0
0 0 0
0 0 0
0 0 0
0 0 0
0 0 0
0 0 0
179 179 179
179 179 179
179 179 179
179 179 179
179 179 179
179 179 179
179 179 179
179 179 179
179 179 179
179 179 179
179 179 179
179 179 179
179 179 179
179 179 179
179 179 179
179 179 179
179 179 179
179 179 179
179 179 179
179 179 179
179 179 179
179 179 179
179 179 179
179 179 179
179 179 179
179 179 179
179 179 179
179 179 179
179 179 179
179 179 179
179 179 179
179 179 179
179 179 179
179 179 179
179 179 179
179 179 179
179 179 179
179 179 179
179 179 179
179 179 179
179 179 179
179 179 179
179 179 179
179 179 179
179 179 179
179 179 179
179 179 179
179 179 179
179 179 179
179 179 179
179 179 179
179 179 179
179 179 179
179 179 179
179 179 179
179 179 179
179 179 179
179 179 179
179 179 179
179 179 179
179 179 179
179 179 179
179 179 179
179 179 179
179 179 179
179 179 179
179 179 179
179 179 179
179 179 179
179 179 179
179 179 179
179 179 179
179 179 179
179 179 179
179 179 179
179 179 179
179 179 179
179 179 179
179 179 179
179 179 179
179 179 179
179 179 179
179 179 179
179 179 179
179 179 179
179 179 179
179 179 179
179 179 179
179 179 179
179 179 179
179 179 179
179 179 179
179 179 179
179 179 179
179 179 179
179 179 179
179 179 179
179 179 179
179 179 179
179 179 179
179 179 179
179 179 179
179 179 179
179 179 179
179 179 179
179 179 179
179 179 179
179 179 179
179 179 179
179 179 179
179 179 179
179 179 179
179 179 179
179 179 179
179 179 179
179 179 179
179 179 179
179 179 179
179 179 179
179 179 179
179 179 179
179 179 179
179 179 179
179 179 179
179 179 179
179 179 179
179 179 179
179 179 179
179 179 179
179 179 179
179 179 179
179 179 179
179 179 179
179 179 179
179 179 179
179 179 179
179 179 179
179 179 179
179 179 179
179 179 179
179 179 179
179 179 179
179 179 179
179 179 179
179 179 179
179 179 179
179 179 179
179 179 179
179 179 179
179 179 179
179 179 179
179 179 179
179 179 179
179 179 179
179 179 179
179 179 179
179 179 179
179 179 179
179 179 179
179 179 179
179 179 179
179 179 179
179 179 179
179 179 179
179 179 179
179 179 179
179 179 179
179 179 179
179 179 179
179 179 179
179 179 179
179 179 179
179 179 179
179 179 179
179 179 179
179 179 179
179 179 179
179 179 179
179 179 179
179 179 179
179 179 179
179 179 179
179 179 179
179 179 179
179 179 179
179 179 179
179 179 179
179 179 179
0 0 0
0 0 0
0 0 0
0 0 0
0 0 0
0 0 0
0 0 0
0 0 0
0 0 0
0 0 0
0 0 0
0 0 0
0 0 0
0 0 0
0 0 0
0 0 0
0 0 0
0 0 0
0 0 0
0 0 0
0 0 0
0 0 0
0 0 0
0 0 0
0 0 0
0 0 0
0 0 0
0 0 0
0 0 0
0 0 0
0 0 0
0 0 0
0 0 0
0 0 0
0 0 0
0 0 0
0 0 0
0 0 0
0 0 0
0 0 0
0 0 0
0 0 0
0 0 0
0 0 0
0 0 0
0 0 0
0 0 0
0 0 0
0 0 0
0 0 0
0 0 0
0 0 0
0 0 0
0 0 0
0 0 0
0 0 0
0 0 0
0 0 0
0 0 0
0 0 0
0 0 0
0 0 0
0 0 0
0 0 0
0 0 0
0 0 0
0 0 0
0 0 0
0 0 0
0 0 0
0 0 0
0 0 0
0 0 0
0 0 0
0 0 0
0 0 0
0 0 0
0 0 0
0 0 0
0 0 0
0 0 0
0 0 0
0 0 0
0 0 0
0 0 0
0 0 0
0 0 0
0 0 0
0 0 0
0 0 0
0 0 0
0 0 0
0 0 0
0 0 0
0 0 0
0 0 0
0 0 0
0 0 0
0 0 0
0 0 0
0 0 0
0 0 0
0 0 0
0 0 0
0 0 0
0 0 0
0 0 0
0 0 0
0 0 0
0 0 0
0 0 0
0 0 0
0 0 0
0 0 0
0 0 0
0 0 0
0 0 0
0 0 0
0 0 0
0 0 0
0 0 0
0 0 0
0 0 0
0 0 0
0 0 0
0 0 0
0 0 0
0 0 0
0 0 0
0 0 0
0 0 0
0 0 0
0 0 0
0 0 0
0 0 0
0 0 0
0 0 0
0 0 0
0 0 0
0 0 0
0 0 0
0 0 0
0 0 0
0 0 0
0 0 0
0 0 0
0 0 0
0 0 0
0 0 0
0 0 0
0 0 0
0 0 0
0 0 0
0 0 0
0 0 0
0 0 0
0 0 0
0 0 0
0 0 0
0 0 0
0 0 0
0 0 0
0 0 0
0 0 0
0 0 0
0 0 0
0 0 0
0 0 0
0 0 0
0 0 0
0 0 0
0 0 0
0 0 0
0 0 0
0 0 0
0 0 0
0 0 0
0 0 0
0 0 0
0 0 0
0 0 0
0 0 0
0 0 0
0 0 0
0 0 0
0 0 0
0 0 0
0 0 0
0 0 0
0 0 0
0 0 0
0 0 0
0 0 0
0 0 0
0 0 0
0 0 0
0 0 0
0 0 0
0 0 0
0 0 0
0 0 0
0 0 0
0 0 0
0 0 0
0 0 0
0 0 0
0 0 0
0 0 0
0 0 0
0 0 0
0 0 0
0 0 0
179 179 179
179 179 179
179 179 179
179 179 179
179 179 179
179 179 179
179 179 179
179 179 179
179 179 179
179 179 179
179 179 179
179 179 179
179 179 179
179 179 179
179 179 179
179 179 179
179 179 179
179 179 179
179 179 179
179 179 179
179 179 179
179 179 179
179 179 179
179 179 179
179 179 179
179 179 179
179 179 179
179 179 179
179 179 179
179 179 179
179 179 179
179 179 179
179 179 179
179 179 179
179 179 179
179 179 179
179 179 179
179 179 179
179 179 179
179 179 179
179 179 179
179 179 179
179 179 179
179 179 179
179 179 179
179 179 179
179 179 179
179 179 179
179 179 179
179 179 179
179 179 179
179 179 179
179 179 179
179 179 179
179 179 179
179 179 179
179 179 179
179 179 179
179 179 179
179 179 179
179 179 179
179 179 179
179 179 179
179 179 179
179 179 179
179 179 179
179 179 179
179 179 179
179 179 179
179 179 179
179 179 179
179 179 179
179 179 179
179 179 179
179 179 179
179 179 179
179 179 179
179 179 179
179 179 179
179 179 179
179 179 179
179 179 179
179 179 179
179 179 179
179 179 179
179 179 179
179 179 179
179 179 179
179 179 179
179 179 179
179 179 179
179 179 179
179 179 179
179 179 179
179 179 179
179 179 179
179 179 179
179 179 179
179 179 179
179 179 179
179 179 179
179 179 179
179 179 179
179 179 179
179 179 179
179 179 179
179 179 179
179 179 179
179 179 179
179 179 179
179 179 179
179 179 179
179 179 179
179 179 179
179 179 179
179 179 179
179 179 179
179 179 179
179 179 179
179 179 179
179 179 179
179 179 179
179 179 179
179 179 179
179 179 179
179 179 179
179 179 179
179 179 179
179 179 179
179 179 179
179 179 179
179 179 179
179 179 179
179 179 179
179 179 179
179 179 179
179 179 179
179 179 179
179 179 179
179 179 179
179 179 179
179 179 179
179 179 179
179 179 179
179 179 179
179 179 179
179 179 179
179 179 179
179 179 179
179 179 179
179 179 179
179 179 179
179 179 179
179 179 179
179 179 179
179 179 179
179 179 179
179 179 179
179 179 179
179 179 179
179 179 179
179 179 179
179 179 179
179 179 179
179 179 179
179 179 179
179 179 179
179 179 179
179 179 179
179 179 179
179 179 179
179 179 179
179 179 179
179 179 179
179 179 179
179 179 179
179 179 179
179 179 179
179 179 179
179 179 179
179 179 179
179 179 179
179 179 179
179 179 179
179 179 179
179 179 179
179 179 179
179 179 179
0 0 0
0 0 0
0 0 0
0 0 0
0 0 0
0 0 0
0 0 0
0 0 0
0 0 0
0 0 0
0 0 0
0 0 0
0 0 0
0 0 0
0 0 0
0 0 0
0 0 0
0 0 0
0 0 0
0 0 0
0 0 0
0 0 0
0 0 0
0 0 0
0 0 0
0 0 0
0 0 0
0 0 0
0 0 0
0 0 0
0 0 0
0 0 0
0 0 0
0 0 0
0 0 0
0 0 0
0 0 0
0 0 0
0 0 0
0 0 0
0 0 0
0 0 0
0 0 0
0 0 0
0 0 0
0 0 0
0 0 0
0 0 0
0 0 0
0 0 0
0 0 0
0 0 0
0 0 0
0 0 0
0 0 0
0 0 0
0 0 0
0 0 0
0 0 0
0 0 0
0 0 0
0 0 0
0 0 0
0 0 0
0 0 0
0 0 0
0 0 0
0 0 0
0 0 0
0 0 0
0 0 0
0 0 0
0 0 0
0 0 0
0 0 0
0 0 0
0 0 0
0 0 0
0 0 0
0 0 0
0 0 0
0 0 0
0 0 0
0 0 0
0 0 0
0 0 0
0 0 0
0 0 0
0 0 0
0 0 0
0 0 0
0 0 0
0 0 0
0 0 0
0 0 0
0 0 0
0 0 0
0 0 0
0 0 0
0 0 0
0 0 0
0 0 0
0 0 0
0 0 0
0 0 0
0 0 0
0 0 0
0 0 0
0 0 0
0 0 0
0 0 0
0 0 0
0 0 0
0 0 0
0 0 0
0 0 0
0 0 0
0 0 0
0 0 0
0 0 0
0 0 0
0 0 0
0 0 0
0 0 0
0 0 0
0 0 0
0 0 0
0 0 0
0 0 0
0 0 0
0 0 0
0 0 0
0 0 0
0 0 0
0 0 0
0 0 0
0 0 0
0 0 0
0 0 0
0 0 0
0 0 0
0 0 0
0 0 0
0 0 0
0 0 0
0 0 0
0 0 0
0 0 0
0 0 0
0 0 0
0 0 0
0 0 0
0 0 0
0 0 0
0 0 0
0 0 0
0 0 0
0 0 0
0 0 0
0 0 0
0 0 0
0 0 0
0 0 0
0 0 0
0 0 0
0 0 0
0 0 0
0 0 0
0 0 0
0 0 0
0 0 0
0 0 0
0 0 0
0 0 0
0 0 0
0 0 0
0 0 0
0 0 0
0 0 0
0 0 0
0 0 0
0 0 0
0 0 0
0 0 0
0 0 0
0 0 0
0 0 0
0 0 0
0 0 0
0 0 0
0 0 0
0 0 0
0 0 0
0 0 0
0 0 0
0 0 0
0 0 0
0 0 0
0 0 0
0 0 0
0 0 0
0 0 0
0 0 0
0 0 0
0 0 0
0 0 0
0 0 0
0 0 0
0 0 0
0 0 0
0 0 0
0 0 0
179 179 179
179 179 179
179 179 179
179 179 179
179 179 179
179 179 179
179 179 179
179 179 179
179 179 179
179 179 179
179 179 179
179 179 179
179 179 179
179 179 179
179 179 179
179 179 179
179 179 179
179 179 179
179 179 179
179 179 179
179 179 179
179 179 179
179 179 179
179 179 179
179 179 179
179 179 179
179 179 179
179 179 179
179 179 179
179 179 179
179 179 179
179 179 179
179 179 179
179 179 179
179 179 179
179 179 179
179 179 179
179 179 179
179 179 179
179 179 179
179 179 179
179 179 179
179 179 179
179 179 179
179 179 179
179 179 179
179 179 179
179 179 179
179 179 179
179 179 179
179 179 179
179 179 179
179 179 179
179 179 179
179 179 179
179 179 179
179 179 179
179 179 179
179 179 179
179 179 179
179 179 179
179 179 179
179 179 179
179 179 179
179 179 179
179 179 179
179 179 179
179 179 179
179 179 179
179 179 179
179 179 179
179 179 179
179 179 179
179 179 179
179 179 179
179 179 179
179 179 179
179 179 179
179 179 179
179 179 179
179 179 179
179 179 179
179 179 179
179 179 179
179 179 179
179 179 179
179 179 179
179 179 179
179 179 179
179 179 179
179 179 179
179 179 179
179 179 179
179 179 179
179 179 179
179 179 179
179 179 179
179 179 179
179 179 179
179 179 179
179 179 179
179 179 179
179 179 179
179 179 179
179 179 179
179 179 179
179 179 179
179 179 179
179 179 179
179 179 179
179 179 179
179 179 179
179 179 179
179 179 179
179 179 179
179 179 179
179 179 179
179 179 179
179 179 179
179 179 179
179 179 179
179 179 179
179 179 179
179 179 179
179 179 179
179 179 179
179 179 179
179 179 179
179 179 179
179 179 179
179 179 179
179 179 179
179 179 179
179 179 179
179 179 179
179 179 179
179 179 179
179 179 179
179 179 179
179 179 179
179 179 179
179 179 179
179 179 179
179 179 179
179 179 179
179 179 179
179 179 179
179 179 179
179 179 179
179 179 179
179 179 179
179 179 179
179 179 179
179 179 179
179 179 179
179 179 179
179 179 179
179 179 179
179 179 179
179 179 179
179 179 179
179 179 179
179 179 179
179 179 179
179 179 179
179 179 179
179 179 179
179 179 179
179 179 179
179 179 179
179 179 179
179 179 179
179 179 179
179 179 179
179 179 179
179 179 179
179 179 179
179 179 179
179 179 179
179 179 179
179 179 179
179 179 179
179 179 179
179 179 179
179 179 179
179 179 179
179 179 179
179 179 179
0 0 0
0 0 0
0 0 0
0 0 0
0 0 0
0 0 0
0 0 0
0 0 0
0 0 0
0 0 0
0 0 0
0 0 0
0 0 0
0 0 0
0 0 0
0 0 0
0 0 0
0 0 0
0 0 0
0 0 0
0 0 0
0 0 0
0 0 0
0 0 0
0 0 0
0 0 0
0 0 0
0 0 0
0 0 0
0 0 0
0 0 0
0 0 0
0 0 0
0 0 0
0 0 0
0 0 0
0 0 0
0 0 0
0 0 0
0 0 0
0 0 0
0 0 0
0 0 0
0 0 0
0 0 0
0 0 0
0 0 0
0 0 0
0 0 0
0 0 0
0 0 0
0 0 0
0 0 0
0 0 0
0 0 0
0 0 0
0 0 0
0 0 0
0 0 0
0 0 0
0 0 0
0 0 0
0 0 0
0 0 0
0 0 0
0 0 0
0 0 0
0 0 0
0 0 0
0 0 0
0 0 0
0 0 0
0 0 0
0 0 0
0 0 0
0 0 0
0 0 0
0 0 0
0 0 0
0 0 0
0 0 0
0 0 0
0 0 0
0 0 0
0 0 0
0 0 0
0 0 0
0 0 0
0 0 0
0 0 0
0 0 0
0 0 0
0 0 0
0 0 0
0 0 0
0 0 0
0 0 0
0 0 0
0 0 0
0 0 0
0 0 0
0 0 0
0 0 0
0 0 0
0 0 0
0 0 0
0 0 0
0 0 0
0 0 0
0 0 0
0 0 0
0 0 0
0 0 0
0 0 0
0 0 0
0 0 0
0 0 0
0 0 0
0 0 0
0 0 0
0 0 0
0 0 0
0 0 0
0 0 0
0 0 0
0 0 0
0 0 0
0 0 0
0 0 0
0 0 0
0 0 0
0 0 0
0 0 0
0 0 0
0 0 0
0 0 0
0 0 0
0 0 0
0 0 0
0 0 0
0 0 0
0 0 0
0 0 0
0 0 0
0 0 0
0 0 0
0 0 0
0 0 0
0 0 0
0 0 0
0 0 0
0 0 0
0 0 0
0 0 0
0 0 0
0 0 0
0 0 0
0 0 0
0 0 0
0 0 0
0 0 0
0 0 0
0 0 0
0 0 0
0 0 0
0 0 0
0 0 0
0 0 0
0 0 0
0 0 0
0 0 0
0 0 0
0 0 0
0 0 0
0 0 0
0 0 0
0 0 0
0 0 0
0 0 0
0 0 0
0 0 0
0 0 0
0 0 0
0 0 0
0 0 0
0 0 0
0 0 0
0 0 0
0 0 0
0 0 0
0 0 0
0 0 0
0 0 0
0 0 0
0 0 0
0 0 0
0 0 0
0 0 0
0 0 0
0 0 0
0 0 0
0 0 0
0 0 0
0 0 0
0 0 0
0 0 0
0 0 0
0 0 0
0 0 0
0 0 0
0 0 0
0 0 0
179 179 179
179 179 179
179 179 179
179 179 179
179 179 179
179 179 179
179 179 179
179 179 179
179 179 179
179 179 179
179 179 179
179 179 179
179 179 179
179 179 179
179 179 179
179 179 179
179 179 179
179 179 179
179 179 179
179 179 179
179 179 179
179 179 179
179 179 179
179 179 179
179 179 179
179 179 179
179 179 179
179 179 179
179 179 179
179 179 179
179 179 179
179 179 179
179 179 179
179 179 179
179 179 179
179 179 179
179 179 179
179 179 179
179 179 179
179 179 179
179 179 179
179 179 179
179 179 179
179 179 179
179 179 179
179 179 179
179 179 179
179 179 179
179 179 179
179 179 179
179 179 179
179 179 179
179 179 179
179 179 179
179 179 179
179 179 179
179 179 179
179 179 179
179 179 179
179 179 179
179 179 179
179 179 179
179 179 179
179 179 179
179 179 179
179 179 179
179 179 179
179 179 179
179 179 179
179 179 179
179 179 179
179 179 179
179 179 179
179 179 179
179 179 179
179 179 179
179 179 179
179 179 179
179 179 179
179 179 179
179 179 179
179 179 179
179 179 179
179 179 179
179 179 179
179 179 179
179 179 179
179 179 179
179 179 179
179 179 179
179 179 179
179 179 179
179 179 179
179 179 179
179 179 179
179 179 179
179 179 179
179 179 179
179 179 179
179 179 179
179 179 179
179 179 179
179 179 179
179 179 179
179 179 179
179 179 179
179 179 179
179 179 179
179 179 179
179 179 179
179 179 179
179 179 179
179 179 179
179 179 179
179 179 179
179 179 179
179 179 179
179 179 179
179 179 179
179 179 179
179 179 179
179 179 179
179 179 179
179 179 179
179 179 179
179 179 179
179 179 179
179 179 179
179 179 179
179 179 179
179 179 179
179 179 179
179 179 179
179 179 179
179 179 179
179 179 179
179 179 179
179 179 179
179 179 179
179 179 179
179 179 179
179 179 179
179 179 179
179 179 179
179 179 179
179 179 179
179 179 179
179 179 179
179 179 179
179 179 179
179 179 179
179 179 179
179 179 179
179 179 179
179 179 179
179 179 179
179 179 179
179 179 179
179 179 179
179 179 179
179 179 179
179 179 179
179 179 179
179 179 179
179 179 179
179 179 179
179 179 179
179 179 179
179 179 179
179 179 179
179 179 179
179 179 179
179 179 179
179 179 179
179 179 179
179 179 179
179 179 179
179 179 179
179 179 179
179 179 179
179 179 179
179 179 179
179 179 179
179 179 179
179 179 179
179 179 179
179 179 179
179 179 179
0 0 0
0 0 0
0 0 0
0 0 0
0 0 0
0 0 0
0 0 0
0 0 0
0 0 0
0 0 0
0 0 0
0 0 0
0 0 0
0 0 0
0 0 0
0 0 0
0 0 0
0 0 0
0 0 0
0 0 0
0 0 0
0 0 0
0 0 0
0 0 0
0 0 0
0 0 0
0 0 0
0 0 0
0 0 0
0 0 0
0 0 0
0 0 0
0 0 0
0 0 0
0 0 0
0 0 0
0 0 0
0 0 0
0 0 0
0 0 0
0 0 0
0 0 0
0 0 0
0 0 0
0 0 0
0 0 0
0 0 0
0 0 0
0 0 0
0 0 0
0 0 0
0 0 0
0 0 0
0 0 0
0 0 0
0 0 0
0 0 0
0 0 0
0 0 0
0 0 0
0 0 0
0 0 0
0 0 0
0 0 0
0 0 0
0 0 0
0 0 0
0 0 0
0 0 0
0 0 0
0 0 0
0 0 0
0 0 0
0 0 0
0 0 0
0 0 0
0 0 0
0 0 0
0 0 0
0 0 0
0 0 0
0 0 0
0 0 0
0 0 0
0 0 0
0 0 0
0 0 0
0 0 0
0 0 0
0 0 0
0 0 0
0 0 0
0 0 0
0 0 0
0 0 0
0 0 0
0 0 0
0 0 0
0 0 0
0 0 0
0 0 0
0 0 0
0 0 0
0 0 0
0 0 0
0 0 0
0 0 0
0 0 0
0 0 0
0 0 0
0 0 0
0 0 0
0 0 0
0 0 0
0 0 0
0 0 0
0 0 0
0 0 0
0 0 0
0 0 0
0 0 0
0 0 0
0 0 0
0 0 0
0 0 0
0 0 0
0 0 0
0 0 0
0 0 0
0 0 0
0 0 0
0 0 0
0 0 0
0 0 0
0 0 0
0 0 0
0 0 0
0 0 0
0 0 0
0 0 0
0 0 0
0 0 0
0 0 0
0 0 0
0 0 0
0 0 0
0 0 0
0 0 0
0 0 0
0 0 0
0 0 0
0 0 0
0 0 0
0 0 0
0 0 0
0 0 0
0 0 0
0 0 0
0 0 0
0 0 0
0 0 0
0 0 0
0 0 0
0 0 0
0 0 0
0 0 0
0 0 0
0 0 0
0 0 0
0 0 0
0 0 0
0 0 0
0 0 0
0 0 0
0 0 0
0 0 0
0 0 0
0 0 0
0 0 0
0 0 0
0 0 0
0 0 0
0 0 0
0 0 0
0 0 0
0 0 0
0 0 0
0 0 0
0 0 0
0 0 0
0 0 0
0 0 0
0 0 0
0 0 0
0 0 0
0 0 0
0 0 0
0 0 0
0 0 0
0 0 0
0 0 0
0 0 0
0 0 0
0 0 0
0 0 0
0 0 0
0 0 0
0 0 0
0 0 0
0 0 0
0 0 0
0 0 0
179 179 179
179 179 179
179 179 179
179 179 179
179 179 179
179 179 179
179 179 179
179 179 179
179 179 179
179 179 179
179 179 179
179 179 179
179 179 179
179 179 179
179 179 179
179 179 179
179 179 179
179 179 179
179 179 179
179 179 179
179 179 179
179 179 179
179 179 179
179 179 179
179 179 179
179 179 179
179 179 179
179 179 179
179 179 179
179 179 179
179 179 179
179 179 179
179 179 179
179 179 179
179 179 179
179 179 179
179 179 179
179 179 179
179 179 179
179 179 179
179 179 179
179 179 179
179 179 179
179 179 179
179 179 179
179 179 179
179 179 179
179 179 179
179 179 179
179 179 179
179 179 179
179 179 179
179 179 179
179 179 179
179 179 179
179 179 179
179 179 179
179 179 179
179 179 179
179 179 179
179 179 179
179 179 179
179 179 179
179 179 179
179 179 179
179 179 179
179 179 179
179 179 179
179 179 179
179 179 179
179 179 179
179 179 179
179 179 179
179 179 179
179 179 179
179 179 179
179 179 179
179 179 179
179 179 179
179 179 179
179 179 179
179 179 179
179 179 179
179 179 179
179 179 179
179 179 179
179 179 179
179 179 179
179 179 179
179 179 179
179 179 179
179 179 179
179 179 179
179 179 179
179 179 179
179 179 179
179 179 179
179 179 179
179 179 179
179 179 179
179 179 179
179 179 179
179 179 179
179 179 179
179 179 179
179 179 179
179 179 179
179 179 179
179 179 179
179 179 179
179 179 179
179 179 179
179 179 179
179 179 179
179 179 179
179 179 179
179 179 179
179 179 179
179 179 179
179 179 179
179 179 179
179 179 179
179 179 179
179 179 179
179 179 179
179 179 179
179 179 179
179 179 179
179 179 179
179 179 179
179 179 179
179 179 179
179 179 179
179 179 179
179 179 179
179 179 179
179 179 179
179 179 179
179 179 179
179 179 179
179 179 179
179 179 179
179 179 179
179 179 179
179 179 179
179 179 179
179 179 179
179 179 179
179 179 179
179 179 179
179 179 179
179 179 179
179 179 179
179 179 179
179 179 179
179 179 179
179 179 179
179 179 179
179 179 179
179 179 179
179 179 179
179 179 179
179 179 179
179 179 179
179 179 179
179 179 179
179 179 179
179 179 179
179 179 179
179 179 179
179 179 179
179 179 179
179 179 179
179 179 179
179 179 179
179 179 179
179 179 179
179 179 179
179 179 179
179 179 179
179 179 179
179 179 179
179 179 179
179 179 179
179 179 179
179 179 179
179 179 179
179 179 179
0 0 0
0 0 0
0 0 0
0 0 0
0 0 0
0 0 0
0 0 0
0 0 0
0 0 0
0 0 0
0 0 0
0 0 0
0 0 0
0 0 0
0 0 0
0 0 0
0 0 0
0 0 0
0 0 0
0 0 0
0 0 0
0 0 0
0 0 0
0 0 0
0 0 0
0 0 0
0 0 0
0 0 0
0 0 0
0 0 0
0 0 0
0 0 0
0 0 0
0 0 0
0 0 0
0 0 0
0 0 0
0 0 0
0 0 0
0 0 0
0 0 0
0 0 0
0 0 0
0 0 0
0 0 0
0 0 0
0 0 0
0 0 0
0 0 0
0 0 0
0 0 0
0 0 0
0 0 0
0 0 0
0 0 0
0 0 0
0 0 0
0 0 0
0 0 0
0 0 0
0 0 0
0 0 0
0 0 0
0 0 0
0 0 0
0 0 0
0 0 0
0 0 0
0 0 0
0 0 0
0 0 0
0 0 0
0 0 0
0 0 0
0 0 0
0 0 0
0 0 0
0 0 0
0 0 0
0 0 0
0 0 0
0 0 0
0 0 0
0 0 0
0 0 0
0 0 0
0 0 0
0 0 0
0 0 0
0 0 0
0 0 0
0 0 0
0 0 0
0 0 0
0 0 0
0 0 0
0 0 0
0 0 0
0 0 0
0 0 0
0 0 0
0 0 0
0 0 0
0 0 0
0 0 0
0 0 0
0 0 0
0 0 0
0 0 0
0 0 0
0 0 0
0 0 0
0 0 0
0 0 0
0 0 0
0 0 0
0 0 0
0 0 0
0 0 0
0 0 0
0 0 0
0 0 0
0 0 0
0 0 0
0 0 0
0 0 0
0 0 0
0 0 0
0 0 0
0 0 0
0 0 0
0 0 0
0 0 0
0 0 0
0 0 0
0 0 0
0 0 0
0 0 0
0 0 0
0 0 0
0 0 0
0 0 0
0 0 0
0 0 0
0 0 0
0 0 0
0 0 0
0 0 0
0 0 0
0 0 0
0 0 0
0 0 0
0 0 0
0 0 0
0 0 0
0 0 0
0 0 0
0 0 0
0 0 0
0 0 0
0 0 0
0 0 0
0 0 0
0 0 0
0 0 0
0 0 0
0 0 0
0 0 0
0 0 0
0 0 0
0 0 0
0 0 0
0 0 0
0 0 0
0 0 0
0 0 0
0 0 0
0 0 0
0 0 0
0 0 0
0 0 0
0 0 0
0 0 0
0 0 0
0 0 0
0 0 0
0 0 0
0 0 0
0 0 0
0 0 0
0 0 0
0 0 0
0 0 0
0 0 0
0 0 0
0 0 0
0 0 0
0 0 0
0 0 0
0 0 0
0 0 0
0 0 0
0 0 0
0 0 0
0 0 0
0 0 0
0 0 0
0 0 0
0 0 0
0 0 0
0 0 0
0 0 0
179 179 179
179 179 179
179 179 179
179 179 179
179 179 179
179 179 179
179 179 179
179 179 179
179 179 179
179 179 179
179 179 179
179 179 179
179 179 179
179 179 179
179 179 179
179 179 179
179 179 179
179 179 179
179 179 179
179 179 179
179 179 179
179 179 179
179 179 179
179 179 179
179 179 179
179 179 179
179 179 179
179 179 179
179 179 179
179 179 179
179 179 179
179 179 179
179 179 179
179 179 179
179 179 179
179 179 179
179 179 179
179 179 179
179 179 179
179 179 179
179 179 179
179 179 179
179 179 179
179 179 179
179 179 179
179 179 179
179 179 179
179 179 179
179 179 179
179 179 179
179 179 179
179 179 179
179 179 179
179 179 179
179 179 179
179 179 179
179 179 179
179 179 179
179 179 179
179 179 179
179 179 179
179 179 179
179 179 179
179 179 179
179 179 179
179 179 179
179 179 179
179 179 179
179 179 179
179 179 179
179 179 179
179 179 179
179 179 179
179 179 179
179 179 179
179 179 179
179 179 179
179 179 179
179 179 179
179 179 179
179 179 179
179 179 179
179 179 179
179 179 179
179 179 179
179 179 179
179 179 179
179 179 179
179 179 179
179 179 179
179 179 179
179 179 179
179 179 179
179 179 179
179 179 179
179 179 179
179 179 179
179 179 179
179 179 179
179 179 179
179 179 179
179 179 179
179 179 179
179 179 179
179 179 179
179 179 179
179 179 179
179 179 179
179 179 179
179 179 179
179 179 179
179 179 179
179 179 179
179 179 179
179 179 179
179 179 179
179 179 179
179 179 179
179 179 179
179 179 179
179 179 179
179 179 179
179 179 179
179 179 179
179 179 179
179 179 179
179 179 179
179 179 179
179 179 179
179 179 179
179 179 179
179 179 179
179 179 179
179 179 179
179 179 179
179 179 179
179 179 179
179 179 179
179 179 179
179 179 179
179 179 179
179 179 179
179 179 179
179 179 179
179 179 179
179 179 179
179 179 179
179 179 179
179 179 179
179 179 179
179 179 179
179 179 179
179 179 179
179 179 179
179 179 179
179 179 179
179 179 179
179 179 179
179 179 179
179 179 179
179 179 179
179 179 179
179 179 179
179 179 179
179 179 179
179 179 179
179 179 179
179 179 179
179 179 179
179 179 179
179 179 179
179 179 179
179 179 179
179 179 179
179 179 179
179 179 179
179 179 179
179 179 179
179 179 179
179 179 179
179 179 179
179 179 179
179 179 179
179 179 179
179 179 179
179 179 179
179 179 179
179 179 179
0 0 0
0 0 0
0 0 0
0 0 0
0 0 0
0 0 0
0 0 0
0 0 0
0 0 0
0 0 0
0 0 0
0 0 0
0 0 0
0 0 0
0 0 0
0 0 0
0 0 0
0 0 0
0 0 0
0 0 0
0 0 0
0 0 0
0 0 0
0 0 0
0 0 0
0 0 0
0 0 0
0 0 0
0 0 0
0 0 0
0 0 0
0 0 0
0 0 0
0 0 0
0 0 0
0 0 0
0 0 0
0 0 0
0 0 0
0 0 0
0 0 0
0 0 0
0 0 0
0 0 0
0 0 0
0 0 0
0 0 0
0 0 0
0 0 0
0 0 0
0 0 0
0 0 0
0 0 0
0 0 0
0 0 0
0 0 0
0 0 0
0 0 0
0 0 0
0 0 0
0 0 0
0 0 0
0 0 0
0 0 0
0 0 0
0 0 0
0 0 0
0 0 0
0 0 0
0 0 0
0 0 0
0 0 0
0 0 0
0 0 0
0 0 0
0 0 0
0 0 0
0 0 0
0 0 0
0 0 0
0 0 0
0 0 0
0 0 0
0 0 0
0 0 0
0 0 0
0 0 0
0 0 0
0 0 0
0 0 0
0 0 0
0 0 0
0 0 0
0 0 0
0 0 0
0 0 0
0 0 0
0 0 0
0 0 0
0 0 0
0 0 0
0 0 0
0 0 0
0 0 0
0 0 0
0 0 0
0 0 0
0 0 0
0 0 0
0 0 0
0 0 0
0 0 0
0 0 0
0 0 0
0 0 0
0 0 0
0 0 0
0 0 0
0 0 0
0 0 0
0 0 0
0 0 0
0 0 0
0 0 0
0 0 0
0 0 0
0 0 0
0 0 0
0 0 0
0 0 0
0 0 0
0 0 0
0 0 0
0 0 0
0 0 0
0 0 0
0 0 0
0 0 0
0 0 0
0 0 0
0 0 0
0 0 0
0 0 0
0 0 0
0 0 0
0 0 0
0 0 0
0 0 0
0 0 0
0 0 0
0 0 0
0 0 0
0 0 0
0 0 0
0 0 0
0 0 0
0 0 0
0 0 0
0 0 0
0 0 0
0 0 0
0 0 0
0 0 0
0 0 0
0 0 0
0 0 0
0 0 0
0 0 0
0 0 0
0 0 0
0 0 0
0 0 0
0 0 0
0 0 0
0 0 0
0 0 0
0 0 0
0 0 0
0 0 0
0 0 0
0 0 0
0 0 0
0 0 0
0 0 0
0 0 0
0 0 0
0 0 0
0 0 0
0 0 0
0 0 0
0 0 0
0 0 0
0 0 0
0 0 0
0 0 0
0 0 0
0 0 0
0 0 0
0 0 0
0 0 0
0 0 0
0 0 0
0 0 0
0 0 0
0 0 0
0 0 0
0 0 0
0 0 0
0 0 0
0 0 0
0 0 0
0 0 0
179 179 179
179 179 179
179 179 179
179 179 179
179 179 179
179 179 179
179 179 179
179 179 179
179 179 179
179 179 179
179 179 179
179 179 179
179 179 179
179 179 179
179 179 179
179 179 179
179 179 179
179 179 179
179 179 179
179 179 179
179 179 179
179 179 179
179 179 179
179 179 179
179 179 179
179 179 179
179 179 179
179 179 179
179 179 179
179 179 179
179 179 179
179 179 179
179 179 179
179 179 179
179 179 179
179 179 179
179 179 179
179 179 179
179 179 179
179 179 179
179 179 179
179 179 179
179 179 179
179 179 179
179 179 179
179 179 179
179 179 179
179 179 179
179 179 179
179 179 179
179 179 179
179 179 179
179 179 179
179 179 179
179 179 179
179 179 179
179 179 179
179 179 179
179 179 179
179 179 179
179 179 179
179 179 179
179 179 179
179 179 179
179 179 179
179 179 179
179 179 179
179 179 179
179 179 179
179 179 179
179 179 179
179 179 179
179 179 179
179 179 179
179 179 179
179 179 179
179 179 179
179 179 179
179 179 179
179 179 179
179 179 179
179 179 179
179 179 179
179 179 179
179 179 179
179 179 179
179 179 179
179 179 179
179 179 179
179 179 179
179 179 179
179 179 179
179 179 179
179 179 179
179 179 179
179 179 179
179 179 179
179 179 179
179 179 179
179 179 179
179 179 179
179 179 179
179 179 179
179 179 179
179 179 179
179 179 179
179 179 179
179 179 179
179 179 179
179 179 179
179 179 179
179 179 179
179 179 179
179 179 179
179 179 179
179 179 179
179 179 179
179 179 179
179 179 179
179 179 179
179 179 179
179 179 179
179 179 179
179 179 179
179 179 179
179 179 179
179 179 179
179 179 179
179 179 179
179 179 179
179 179 179
179 179 179
179 179 179
179 179 179
179 179 179
179 179 179
179 179 179
179 179 179
179 179 179
179 179 179
179 179 179
179 179 179
179 179 179
179 179 179
179 179 179
179 179 179
179 179 179
179 179 179
179 179 179
179 179 179
179 179 179
179 179 179
179 179 179
179 179 179
179 179 179
179 179 179
179 179 179
179 179 179
179 179 179
179 179 179
179 179 179
179 179 179
179 179 179
179 179 179
179 179 179
179 179 179
179 179 179
179 179 179
179 179 179
179 179 179
179 179 179
179 179 179
179 179 179
179 179 179
179 179 179
179 179 179
179 179 179
179 179 179
179 179 179
179 179 179
179 179 179
179 179 179
179 179 179
179 179 179
179 179 179
179 179 179
179 179 179
179 179 179
0 0 0
0 0 0
0 0 0
0 0 0
0 0 0
0 0 0
0 0 0
0 0 0
0 0 0
0 0 0
0 0 0
0 0 0
0 0 0
0 0 0
0 0 0
0 0 0
0 0 0
0 0 0
0 0 0
0 0 0
0 0 0
0 0 0
0 0 0
0 0 0
0 0 0
0 0 0
0 0 0
0 0 0
0 0 0
0 0 0
0 0 0
0 0 0
0 0 0
0 0 0
0 0 0
0 0 0
0 0 0
0 0 0
0 0 0
0 0 0
0 0 0
0 0 0
0 0 0
0 0 0
0 0 0
0 0 0
0 0 0
0 0 0
0 0 0
0 0 0
0 0 0
0 0 0
0 0 0
0 0 0
0 0 0
0 0 0
0 0 0
0 0 0
0 0 0
0 0 0
0 0 0
0 0 0
0 0 0
0 0 0
0 0 0
0 0 0
0 0 0
0 0 0
0 0 0
0 0 0
0 0 0
0 0 0
0 0 0
0 0 0
0 0 0
0 0 0
0 0 0
0 0 0
0 0 0
0 0 0
0 0 0
0 0 0
0 0 0
0 0 0
0 0 0
0 0 0
0 0 0
0 0 0
0 0 0
0 0 0
0 0 0
0 0 0
0 0 0
0 0 0
0 0 0
0 0 0
0 0 0
0 0 0
0 0 0
0 0 0
0 0 0
0 0 0
0 0 0
0 0 0
0 0 0
0 0 0
0 0 0
0 0 0
0 0 0
0 0 0
0 0 0
0 0 0
0 0 0
0 0 0
0 0 0
0 0 0
0 0 0
0 0 0
0 0 0
0 0 0
0 0 0
0 0 0
0 0 0
0 0 0
0 0 0
0 0 0
0 0 0
0 0 0
0 0 0
0 0 0
0 0 0
0 0 0
0 0 0
0 0 0
0 0 0
0 0 0
0 0 0
0 0 0
0 0 0
0 0 0
0 0 0
0 0 0
0 0 0
0 0 0
0 0 0
0 0 0
0 0 0
0 0 0
0 0 0
0 0 0
0 0 0
0 0 0
0 0 0
0 0 0
0 0 0
0 0 0
0 0 0
0 0 0
0 0 0
0 0 0
0 0 0
0 0 0
0 0 0
0 0 0
0 0 0
0 0 0
0 0 0
0 0 0
0 0 0
0 0 0
0 0 0
0 0 0
0 0 0
0 0 0
0 0 0
0 0 0
0 0 0
0 0 0
0 0 0
0 0 0
0 0 0
0 0 0
0 0 0
0 0 0
0 0 0
0 0 0
0 0 0
0 0 0
0 0 0
0 0 0
0 0 0
0 0 0
0 0 0
0 0 0
0 0 0
0 0 0
0 0 0
0 0 0
0 0 0
0 0 0
0 0 0
0 0 0
0 0 0
0 0 0
0 0 0
0 0 0
0 0 0
0 0 0
0 0 0
0 0 0
0 0 0
0 0 0
179 179 179
179 179 179
179 179 179
179 179 179
179 179 179
179 179 179
179 179 179
179 179 179
179 179 179
179 179 179
179 179 179
179 179 179
179 179 179
179 179 179
179 179 179
179 179 179
179 179 179
179 179 179
179 179 179
179 179 179
179 179 179
179 179 179
179 179 179
179 179 179
179 179 179
179 179 179
179 179 179
179 179 179
179 179 179
179 179 179
179 179 179
179 179 179
179 179 179
179 179 179
179 179 179
179 179 179
179 179 179
179 179 179
179 179 179
179 179 179
179 179 179
179 179 179
179 179 179
179 179 179
179 179 179
179 179 179
179 179 179
179 179 179
179 179 179
179 179 179
179 179 179
179 179 179
179 179 179
179 179 179
179 179 179
179 179 179
179 179 179
179 179 179
179 179 179
179 179 179
179 179 179
179 179 179
179 179 179
179 179 179
179 179 179
179 179 179
179 179 179
179 179 179
179 179 179
179 179 179
179 179 179
179 179 179
179 179 179
179 179 179
179 179 179
179 179 179
179 179 179
179 179 179
179 179 179
179 179 179
179 179 179
179 179 179
179 179 179
179 179 179
179 179 179
179 179 179
179 179 179
179 179 179
179 179 179
179 179 179
179 179 179
179 179 179
179 179 179
179 179 179
179 179 179
179 179 179
179 179 179
179 179 179
179 179 179
179 179 179
179 179 179
179 179 179
179 179 179
179 179 179
179 179 179
179 179 179
179 179 179
179 179 179
179 179 179
179 179 179
179 179 179
179 179 179
179 179 179
179 179 179
179 179 179
179 179 179
179 179 179
179 179 179
179 179 179
179 179 179
179 179 179
179 179 179
179 179 179
179 179 179
179 179 179
179 179 179
179 179 179
179 179 179
179 179 179
179 179 179
179 179 179
179 179 179
179 179 179
179 179 179
179 179 179
179 179 179
179 179 179
179 179 179
179 179 179
179 179 179
179 179 179
179 179 179
179 179 179
179 179 179
179 179 179
179 179 179
179 179 179
179 179 179
179 179 179
179 179 179
179 179 179
179 179 179
179 179 179
179 179 179
179 179 179
179 179 179
179 179 179
179 179 179
179 179 179
179 179 179
179 179 179
179 179 179
179 179 179
179 179 179
179 179 179
179 179 179
179 179 179
179 179 179
179 179 179
179 179 179
179 179 179
179 179 179
179 179 179
179 179 179
179 179 179
179 179 179
179 179 179
179 179 179
179 179 179
179 179 179
179 179 179
179 179 179
179 179 179
179 179 179
179 179 179
179 179 179
179 179 179
179 179 179
179 179 179
0 0 0
0 0 0
0 0 0
0 0 0
0 0 0
0 0 0
0 0 0
0 0 0
0 0 0
0 0 0
0 0 0
0 0 0
0 0 0
0 0 0
0 0 0
0 0 0
0 0 0
0 0 0
0 0 0
0 0 0
0 0 0
0 0 0
0 0 0
0 0 0
0 0 0
0 0 0
0 0 0
0 0 0
0 0 0
0 0 0
0 0 0
0 0 0
0 0 0
0 0 0
0 0 0
0 0 0
0 0 0
0 0 0
0 0 0
0 0 0
0 0 0
0 0 0
0 0 0
0 0 0
0 0 0
0 0 0
0 0 0
0 0 0
0 0 0
0 0 0
0 0 0
0 0 0
0 0 0
0 0 0
0 0 0
0 0 0
0 0 0
0 0 0
0 0 0
0 0 0
0 0 0
0 0 0
0 0 0
0 0 0
0 0 0
0 0 0
0 0 0
0 0 0
0 0 0
0 0 0
0 0 0
0 0 0
0 0 0
0 0 0
0 0 0
0 0 0
0 0 0
0 0 0
0 0 0
0 0 0
0 0 0
0 0 0
0 0 0
0 0 0
0 0 0
0 0 0
0 0 0
0 0 0
0 0 0
0 0 0
0 0 0
0 0 0
0 0 0
0 0 0
0 0 0
0 0 0
0 0 0
0 0 0
0 0 0
0 0 0
0 0 0
0 0 0
0 0 0
0 0 0
0 0 0
0 0 0
0 0 0
0 0 0
0 0 0
0 0 0
0 0 0
0 0 0
0 0 0
0 0 0
0 0 0
0 0 0
0 0 0
0 0 0
0 0 0
0 0 0
0 0 0
0 0 0
0 0 0
0 0 0
0 0 0
0 0 0
0 0 0
0 0 0
0 0 0
0 0 0
0 0 0
0 0 0
0 0 0
0 0 0
0 0 0
0 0 0
0 0 0
0 0 0
0 0 0
0 0 0
0 0 0
0 0 0
0 0 0
0 0 0
0 0 0
0 0 0
0 0 0
0 0 0
0 0 0
0 0 0
0 0 0
0 0 0
0 0 0
0 0 0
0 0 0
0 0 0
0 0 0
0 0 0
0 0 0
0 0 0
0 0 0
0 0 0
0 0 0
0 0 0
0 0 0
0 0 0
0 0 0
0 0 0
0 0 0
0 0 0
0 0 0
0 0 0
0 0 0
0 0 0
0 0 0
0 0 0
0 0 0
0 0 0
0 0 0
0 0 0
0 0 0
0 0 0
0 0 0
0 0 0
0 0 0
0 0 0
0 0 0
0 0 0
0 0 0
0 0 0
0 0 0
0 0 0
0 0 0
0 0 0
0 0 0
0 0 0
0 0 0
0 0 0
0 0 0
0 0 0
0 0 0
0 0 0
0 0 0
0 0 0
0 0 0
0 0 0
0 0 0
0 0 0
0 0 0
0 0 0
179 179 179
179 179 179
179 179 179
179 179 179
179 179 179
179 179 179
179 179 179
179 179 179
179 179 179
179 179 179
179 179 179
179 179 179
179 179 179
179 179 179
179 179 179
179 179 179
179 179 179
179 179 179
179 179 179
179 179 179
179 179 179
179 179 179
179 179 179
179 179 179
179 179 179
179 179 179
179 179 179
179 179 179
179 179 179
179 179 179
179 179 179
179 179 179
179 179 179
179 179 179
179 179 179
179 179 179
179 179 179
179 179 179
179 179 179
179 179 179
179 179 179
179 179 179
179 179 179
179 179 179
179 179 179
179 179 179
179 179 179
179 179 179
179 179 179
179 179 179
179 179 179
179 179 179
179 179 179
179 179 179
179 179 179
179 179 179
179 179 179
179 179 179
179 179 179
179 179 179
179 179 179
179 179 179
179 179 179
179 179 179
179 179 179
179 179 179
179 179 179
179 179 179
179 179 179
179 179 179
179 179 179
179 179 179
179 179 179
179 179 179
179 179 179
179 179 179
179 179 179
179 179 179
179 179 179
179 179 179
179 179 179
179 179 179
179 179 179
179 179 179
179 179 179
179 179 179
179 179 179
179 179 179
179 179 179
179 179 179
179 179 179
179 179 179
179 179 179
179 179 179
179 179 179
179 179 179
179 179 179
179 179 179
179 179 179
179 179 179
179 179 179
179 179 179
179 179 179
179 179 179
179 179 179
179 179 179
179 179 179
179 179 179
179 179 179
179 179 179
179 179 179
179 179 179
179 179 179
179 179 179
179 179 179
179 179 179
179 179 179
179 179 179
179 179 179
179 179 179
179 179 179
179 179 179
179 179 179
179 179 179
179 179 179
179 179 179
179 179 179
179 179 179
179 179 179
179 179 179
179 179 179
179 179 179
179 179 179
179 179 179
179 179 179
179 179 179
179 179 179
179 179 179
179 179 179
179 179 179
179 179 179
179 179 179
179 179 179
179 179 179
179 179 179
179 179 179
179 179 179
179 179 179
179 179 179
179 179 179
179 179 179
179 179 179
179 179 179
179 179 179
179 179 179
179 179 179
179 179 179
179 179 179
179 179 179
179 179 179
179 179 179
179 179 179
179 179 179
179 179 179
179 179 179
179 179 179
179 179 179
179 179 179
179 179 179
179 179 179
179 179 179
179 179 179
179 179 179
179 179 179
179 179 179
179 179 179
179 179 179
179 179 179
179 179 179
179 179 179
179 179 179
179 179 179
179 179 179
179 179 179
179 179 179
179 179 179
179 179 179
179 179 179
179 179 179
179 179 179
0 0 0
0 0 0
0 0 0
0 0 0
0 0 0
0 0 0
0 0 0
0 0 0
0 0 0
0 0 0
0 0 0
0 0 0
0 0 0
0 0 0
0 0 0
0 0 0
0 0 0
0 0 0
0 0 0
0 0 0
0 0 0
0 0 0
0 0 0
0 0 0
0 0 0
0 0 0
0 0 0
0 0 0
0 0 0
0 0 0
0 0 0
0 0 0
0 0 0
0 0 0
0 0 0
0 0 0
0 0 0
0 0 0
0 0 0
0 0 0
0 0 0
0 0 0
0 0 0
0 0 0
0 0 0
0 0 0
0 0 0
0 0 0
0 0 0
0 0 0
0 0 0
0 0 0
0 0 0
0 0 0
0 0 0
0 0 0
0 0 0
0 0 0
0 0 0
0 0 0
0 0 0
0 0 0
0 0 0
0 0 0
0 0 0
0 0 0
0 0 0
0 0 0
0 0 0
0 0 0
0 0 0
0 0 0
0 0 0
0 0 0
0 0 0
0 0 0
0 0 0
0 0 0
0 0 0
0 0 0
0 0 0
0 0 0
0 0 0
0 0 0
0 0 0
0 0 0
0 0 0
0 0 0
0 0 0
0 0 0
0 0 0
0 0 0
0 0 0
0 0 0
0 0 0
0 0 0
0 0 0
0 0 0
0 0 0
0 0 0
0 0 0
0 0 0
0 0 0
0 0 0
0 0 0
0 0 0
0 0 0
0 0 0
0 0 0
0 0 0
0 0 0
0 0 0
0 0 0
0 0 0
0 0 0
0 0 0
0 0 0
0 0 0
0 0 0
0 0 0
0 0 0
0 0 0
0 0 0
0 0 0
0 0 0
0 0 0
0 0 0
0 0 0
0 0 0
0 0 0
0 0 0
0 0 0
0 0 0
0 0 0
0 0 0
0 0 0
0 0 0
0 0 0
0 0 0
0 0 0
0 0 0
0 0 0
0 0 0
0 0 0
0 0 0
0 0 0
0 0 0
0 0 0
0 0 0
0 0 0
0 0 0
0 0 0
0 0 0
0 0 0
0 0 0
0 0 0
0 0 0
0 0 0
0 0 0
0 0 0
0 0 0
0 0 0
0 0 0
0 0 0
0 0 0
0 0 0
0 0 0
0 0 0
0 0 0
0 0 0
0 0 0
0 0 0
0 0 0
0 0 0
0 0 0
0 0 0
0 0 0
0 0 0
0 0 0
0 0 0
0 0 0
0 0 0
0 0 0
0 0 0
0 0 0
0 0 0
0 0 0
0 0 0
0 0 0
0 0 0
0 0 0
0 0 0
0 0 0
0 0 0
0 0 0
0 0 0
0 0 0
0 0 0
0 0 0
0 0 0
0 0 0
0 0 0
0 0 0
0 0 0
0 0 0
0 0 0
0 0 0
0 0 0
0 0 0
0 0 0
179 179 179
179 179 179
179 179 179
179 179 179
179 179 179
179 179 179
179 179 179
179 179 179
179 179 179
179 179 179
179 179 179
179 179 179
179 179 179
179 179 179
179 179 179
179 179 179
179 179 179
179 179 179
179 179 179
179 179 179
179 179 179
179 179 179
179 179 179
179 179 179
179 179 179
179 179 179
179 179 179
179 179 179
179 179 179
179 179 179
179 179 179
179 179 179
179 179 179
179 179 179
179 179 179
179 179 179
179 179 179
179 179 179
179 179 179
179 179 179
179 179 179
179 179 179
179 179 179
179 179 179
179 179 179
179 179 179
179 179 179
179 179 179
179 179 179
179 179 179
179 179 179
179 179 179
179 179 179
179 179 179
179 179 179
179 179 179
179 179 179
179 179 179
179 179 179
179 179 179
179 179 179
179 179 179
179 179 179
179 179 179
179 179 179
179 179 179
179 179 179
179 179 179
179 179 179
179 179 179
179 179 179
179 179 179
179 179 179
179 179 179
179 179 179
179 179 179
179 179 179
179 179 179
179 179 179
179 179 179
179 179 179
179 179 179
179 179 179
179 179 179
179 179 179
179 179 179
179 179 179
179 179 179
179 179 179
179 179 179
179 179 179
179 179 179
179 179 179
179 179 179
179 179 179
179 179 179
179 179 179
179 179 179
179 179 179
179 179 179
179 179 179
179 179 179
179 179 179
179 179 179
179 179 179
179 179 179
179 179 179
179 179 179
179 179 179
179 179 179
179 179 179
179 179 179
179 179 179
179 179 179
179 179 179
179 179 179
179 179 179
179 179 179
179 179 179
179 179 179
179 179 179
179 179 179
179 179 179
179 179 179
179 179 179
179 179 179
179 179 179
179 179 179
179 179 179
179 179 179
179 179 179
179 179 179
179 179 179
179 179 179
179 179 179
179 179 179
179 179 179
179 179 179
179 179 179
179 179 179
179 179 179
179 179 179
179 179 179
179 179 179
179 179 179
179 179 179
179 179 179
179 179 179
179 179 179
179 179 179
179 179 179
179 179 179
179 179 179
179 179 179
179 179 179
179 179 179
179 179 179
179 179 179
179 179 179
179 179 179
179 179 179
179 179 179
179 179 179
179 179 179
179 179 179
179 179 179
179 179 179
179 179 179
179 179 179
179 179 179
179 179 179
179 179 179
179 179 179
179 179 179
179 179 179
179 179 179
179 179 179
179 179 179
179 179 179
179 179 179
179 179 179
179 179 179
179 179 179
179 179 179
179 179 179
179 179 179
179 179 179
179 179 179
179 179 179
179 179 179
0 0 0
0 0 0
0 0 0
0 0 0
0 0 0
0 0 0
0 0 0
0 0 0
0 0 0
0 0 0
0 0 0
0 0 0
0 0 0
0 0 0
0 0 0
0 0 0
0 0 0
0 0 0
0 0 0
0 0 0
0 0 0
0 0 0
0 0 0
0 0 0
0 0 0
0 0 0
0 0 0
0 0 0
0 0 0
0 0 0
0 0 0
0 0 0
0 0 0
0 0 0
0 0 0
0 0 0
0 0 0
0 0 0
0 0 0
0 0 0
0 0 0
0 0 0
0 0 0
0 0 0
0 0 0
0 0 0
0 0 0
0 0 0
0 0 0
0 0 0
0 0 0
0 0 0
0 0 0
0 0 0
0 0 0
0 0 0
0 0 0
0 0 0
0 0 0
0 0 0
0 0 0
0 0 0
0 0 0
0 0 0
0 0 0
0 0 0
0 0 0
0 0 0
0 0 0
0 0 0
0 0 0
0 0 0
0 0 0
0 0 0
0 0 0
0 0 0
0 0 0
0 0 0
0 0 0
0 0 0
0 0 0
0 0 0
0 0 0
0 0 0
0 0 0
0 0 0
0 0 0
0 0 0
0 0 0
0 0 0
0 0 0
0 0 0
0 0 0
0 0 0
0 0 0
0 0 0
0 0 0
0 0 0
0 0 0
0 0 0
0 0 0
0 0 0
0 0 0
0 0 0
0 0 0
0 0 0
0 0 0
0 0 0
0 0 0
0 0 0
0 0 0
0 0 0
0 0 0
0 0 0
0 0 0
0 0 0
0 0 0
0 0 0
0 0 0
0 0 0
0 0 0
0 0 0
0 0 0
0 0 0
0 0 0
0 0 0
0 0 0
0 0 0
0 0 0
0 0 0
0 0 0
0 0 0
0 0 0
0 0 0
0 0 0
0 0 0
0 0 0
0 0 0
0 0 0
0 0 0
0 0 0
0 0 0
0 0 0
0 0 0
0 0 0
0 0 0
0 0 0
0 0 0
0 0 0
0 0 0
0 0 0
0 0 0
0 0 0
0 0 0
0 0 0
0 0 0
0 0 0
0 0 0
0 0 0
0 0 0
0 0 0
0 0 0
0 0 0
0 0 0
0 0 0
0 0 0
0 0 0
0 0 0
0 0 0
0 0 0
0 0 0
0 0 0
0 0 0
0 0 0
0 0 0
0 0 0
0 0 0
0 0 0
0 0 0
0 0 0
0 0 0
0 0 0
0 0 0
0 0 0
0 0 0
0 0 0
0 0 0
0 0 0
0 0 0
0 0 0
0 0 0
0 0 0
0 0 0
0 0 0
0 0 0
0 0 0
0 0 0
0 0 0
0 0 0
0 0 0
0 0 0
0 0 0
0 0 0
0 0 0
0 0 0
0 0 0
0 0 0
0 0 0
0 0 0
0 0 0
179 179 179
179 179 179
179 179 179
179 179 179
179 179 179
179 179 179
179 179 179
179 179 179
179 179 179
179 179 179
179 179 179
179 179 179
179 179 179
179 179 179
179 179 179
179 179 179
179 179 179
179 179 179
179 179 179
179 179 179
179 179 179
179 179 179
179 179 179
179 179 179
179 179 179
179 179 179
179 179 179
179 179 179
179 179 179
179 179 179
179 179 179
179 179 179
179 179 179
179 179 179
179 179 179
179 179 179
179 179 179
179 179 179
179 179 179
179 179 179
179 179 179
179 179 179
179 179 179
179 179 179
179 179 179
179 179 179
179 179 179
179 179 179
179 179 179
179 179 179
179 179 179
179 179 179
179 179 179
179 179 179
179 179 179
179 179 179
179 179 179
179 179 179
179 179 179
179 179 179
179 179 179
179 179 179
179 179 179
179 179 179
179 179 179
179 179 179
179 179 179
179 179 179
179 179 179
179 179 179
179 179 179
179 179 179
179 179 179
179 179 179
179 179 179
179 179 179
179 179 179
179 179 179
179 179 179
179 179 179
179 179 179
179 179 179
179 179 179
179 179 179
179 179 179
179 179 179
179 179 179
179 179 179
179 179 179
179 179 179
179 179 179
179 179 179
179 179 179
179 179 179
179 179 179
179 179 179
179 179 179
179 179 179
179 179 179
179 179 179
179 179 179
179 179 179
179 179 179
179 179 179
179 179 179
179 179 179
179 179 179
179 179 179
179 179 179
179 179 179
179 179 179
179 179 179
179 179 179
179 179 179
179 179 179
179 179 179
179 179 179
179 179 179
179 179 179
179 179 179
179 179 179
179 179 179
179 179 179
179 179 179
179 179 179
179 179 179
179 179 179
179 179 179
179 179 179
179 179 179
179 179 179
179 179 179
179 179 179
179 179 179
179 179 179
179 179 179
179 179 179
179 179 179
179 179 179
179 179 179
179 179 179
179 179 179
179 179 179
179 179 179
179 179 179
179 179 179
179 179 179
179 179 179
179 179 179
179 179 179
179 179 179
179 179 179
179 179 179
179 179 179
179 179 179
179 179 179
179 179 179
179 179 179
179 179 179
179 179 179
179 179 179
179 179 179
179 179 179
179 179 179
179 179 179
179 179 179
179 179 179
179 179 179
179 179 179
179 179 179
179 179 179
179 179 179
179 179 179
179 179 179
179 179 179
179 179 179
179 179 179
179 179 179
179 179 179
179 179 179
179 179 179
179 179 179
179 179 179
179 179 179
179 179 179
179 179 179
179 179 179
179 179 179
179 179 179
179 179 179
0 0 0
0 0 0
0 0 0
0 0 0
0 0 0
0 0 0
0 0 0
0 0 0
0 0 0
0 0 0
0 0 0
0 0 0
0 0 0
0 0 0
0 0 0
0 0 0
0 0 0
0 0 0
0 0 0
0 0 0
0 0 0
0 0 0
0 0 0
0 0 0
0 0 0
0 0 0
0 0 0
0 0 0
0 0 0
0 0 0
0 0 0
0 0 0
0 0 0
0 0 0
0 0 0
0 0 0
0 0 0
0 0 0
0 0 0
0 0 0
0 0 0
0 0 0
0 0 0
0 0 0
0 0 0
0 0 0
0 0 0
0 0 0
0 0 0
0 0 0
0 0 0
0 0 0
0 0 0
0 0 0
0 0 0
0 0 0
0 0 0
0 0 0
0 0 0
0 0 0
0 0 0
0 0 0
0 0 0
0 0 0
0 0 0
0 0 0
0 0 0
0 0 0
0 0 0
0 0 0
0 0 0
0 0 0
0 0 0
0 0 0
0 0 0
0 0 0
0 0 0
0 0 0
0 0 0
0 0 0
0 0 0
0 0 0
0 0 0
0 0 0
0 0 0
0 0 0
0 0 0
0 0 0
0 0 0
0 0 0
0 0 0
0 0 0
0 0 0
0 0 0
0 0 0
0 0 0
0 0 0
0 0 0
0 0 0
0 0 0
0 0 0
0 0 0
0 0 0
0 0 0
0 0 0
0 0 0
0 0 0
0 0 0
0 0 0
0 0 0
0 0 0
0 0 0
0 0 0
0 0 0
0 0 0
0 0 0
0 0 0
0 0 0
0 0 0
0 0 0
0 0 0
0 0 0
0 0 0
0 0 0
0 0 0
0 0 0
0 0 0
0 0 0
0 0 0
0 0 0
0 0 0
0 0 0
0 0 0
0 0 0
0 0 0
0 0 0
0 0 0
0 0 0
0 0 0
0 0 0
0 0 0
0 0 0
0 0 0
0 0 0
0 0 0
0 0 0
0 0 0
0 0 0
0 0 0
0 0 0
0 0 0
0 0 0
0 0 0
0 0 0
0 0 0
0 0 0
0 0 0
0 0 0
0 0 0
0 0 0
0 0 0
0 0 0
0 0 0
0 0 0
0 0 0
0 0 0
0 0 0
0 0 0
0 0 0
0 0 0
0 0 0
0 0 0
0 0 0
0 0 0
0 0 0
0 0 0
0 0 0
0 0 0
0 0 0
0 0 0
0 0 0
0 0 0
0 0 0
0 0 0
0 0 0
0 0 0
0 0 0
0 0 0
0 0 0
0 0 0
0 0 0
0 0 0
0 0 0
0 0 0
0 0 0
0 0 0
0 0 0
0 0 0
0 0 0
0 0 0
0 0 0
0 0 0
0 0 0
0 0 0
0 0 0
0 0 0
0 0 0
0 0 0
0 0 0
0 0 0
179 179 179
179 179 179
179 179 179
179 179 179
179 179 179
179 179 179
179 179 179
179 179 179
179 179 179
179 179 179
179 179 179
179 179 179
179 179 179
179 179 179
179 179 179
179 179 179
179 179 179
179 179 179
179 179 179
179 179 179
179 179 179
179 179 179
179 179 179
179 179 179
179 179 179
179 179 179
179 179 179
179 179 179
179 179 179
179 179 179
179 179 179
179 179 179
179 179 179
179 179 179
179 179 179
179 179 179
179 179 179
179 179 179
179 179 179
179 179 179
179 179 179
179 179 179
179 179 179
179 179 179
179 179 179
179 179 179
179 179 179
179 179 179
179 179 179
179 179 179
179 179 179
179 179 179
179 179 179
179 179 179
179 179 179
179 179 179
179 179 179
179 179 179
179 179 179
179 179 179
179 179 179
179 179 179
179 179 179
179 179 179
179 179 179
179 179 179
179 179 179
179 179 179
179 179 179
179 179 179
179 179 179
179 179 179
179 179 179
179 179 179
179 179 179
179 179 179
179 179 179
179 179 179
179 179 179
179 179 179
179 179 179
179 179 179
179 179 179
179 179 179
179 179 179
179 179 179
179 179 179
179 179 179
179 179 179
179 179 179
179 179 179
179 179 179
179 179 179
179 179 179
179 179 179
179 179 179
179 179 179
179 179 179
179 179 179
179 179 179
179 179 179
179 179 179
179 179 179
179 179 179
179 179 179
179 179 179
179 179 179
179 179 179
179 179 179
179 179 179
179 179 179
179 179 179
179 179 179
179 179 179
179 179 179
179 179 179
179 179 179
179 179 179
179 179 179
179 179 179
179 179 179
179 179 179
179 179 179
179 179 179
179 179 179
179 179 179
179 179 179
179 179 179
179 179 179
179 179 179
179 179 179
179 179 179
179 179 179
179 179 179
179 179 179
179 179 179
179 179 179
179 179 179
179 179 179
179 179 179
179 179 179
179 179 179
179 179 179
179 179 179
179 179 179
179 179 179
179 179 179
179 179 179
179 179 179
179 179 179
179 179 179
179 179 179
179 179 179
179 179 179
179 179 179
179 179 179
179 179 179
179 179 179
179 179 179
179 179 179
179 179 179
179 179 179
179 179 179
179 179 179
179 179 179
179 179 179
179 179 179
179 179 179
179 179 179
179 179 179
179 179 179
179 179 179
179 179 179
179 179 179
179 179 179
179 179 179
179 179 179
179 179 179
179 179 179
179 179 179
179 179 179
179 179 179
179 179 179
179 179 179
179 179 179
179 179 179
179 179 179
179 179 179
179 179 179
179 179 179
0 0 0
0 0 0
0 0 0
0 0 0
0 0 0
0 0 0
0 0 0
0 0 0
0 0 0
0 0 0
0 0 0
0 0 0
0 0 0
0 0 0
0 0 0
0 0 0
0 0 0
0 0 0
0 0 0
0 0 0
0 0 0
0 0 0
0 0 0
0 0 0
0 0 0
0 0 0
0 0 0
0 0 0
0 0 0
0 0 0
0 0 0
0 0 0
0 0 0
0 0 0
0 0 0
0 0 0
0 0 0
0 0 0
0 0 0
0 0 0
0 0 0
0 0 0
0 0 0
0 0 0
0 0 0
0 0 0
0 0 0
0 0 0
0 0 0
0 0 0
0 0 0
0 0 0
0 0 0
0 0 0
0 0 0
0 0 0
0 0 0
0 0 0
0 0 0
0 0 0
0 0 0
0 0 0
0 0 0
0 0 0
0 0 0
0 0 0
0 0 0
0 0 0
0 0 0
0 0 0
0 0 0
0 0 0
0 0 0
0 0 0
0 0 0
0 0 0
0 0 0
0 0 0
0 0 0
0 0 0
0 0 0
0 0 0
0 0 0
0 0 0
0 0 0
0 0 0
0 0 0
0 0 0
0 0 0
0 0 0
0 0 0
0 0 0
0 0 0
0 0 0
0 0 0
0 0 0
0 0 0
0 0 0
0 0 0
0 0 0
0 0 0
0 0 0
0 0 0
0 0 0
0 0 0
0 0 0
0 0 0
0 0 0
0 0 0
0 0 0
0 0 0
0 0 0
0 0 0
0 0 0
0 0 0
0 0 0
0 0 0
0 0 0
0 0 0
0 0 0
0 0 0
0 0 0
0 0 0
0 0 0
0 0 0
0 0 0
0 0 0
0 0 0
0 0 0
0 0 0
0 0 0
0 0 0
0 0 0
0 0 0
0 0 0
0 0 0
0 0 0
0 0 0
0 0 0
0 0 0
0 0 0
0 0 0
0 0 0
0 0 0
0 0 0
0 0 0
0 0 0
0 0 0
0 0 0
0 0 0
0 0 0
0 0 0
0 0 0
0 0 0
0 0 0
0 0 0
0 0 0
0 0 0
0 0 0
0 0 0
0 0 0
0 0 0
0 0 0
0 0 0
0 0 0
0 0 0
0 0 0
0 0 0
0 0 0
0 0 0
0 0 0
0 0 0
0 0 0
0 0 0
0 0 0
0 0 0
0 0 0
0 0 0
0 0 0
0 0 0
0 0 0
0 0 0
0 0 0
0 0 0
0 0 0
0 0 0
0 0 0
0 0 0
0 0 0
0 0 0
0 0 0
0 0 0
0 0 0
0 0 0
0 0 0
0 0 0
0 0 0
0 0 0
0 0 0
0 0 0
0 0 0
0 0 0
0 0 0
0 0 0
0 0 0
0 0 0
0 0 0
0 0 0
0 0 0
0 0 0
179 179 179
179 179 179
179 179 179
179 179 179
179 179 179
179 179 179
179 179 179
179 179 179
179 179 179
179 179 179
179 179 179
179 179 179
179 179 179
179 179 179
179 179 179
179 179 179
179 179 179
179 179 179
179 179 179
179 179 179
179 179 179
179 179 179
179 179 179
179 179 179
179 179 179
179 179 179
179 179 179
179 179 179
179 179 179
179 179 179
179 179 179
179 179 179
179 179 179
179 179 179
179 179 179
179 179 179
179 179 179
179 179 179
179 179 179
179 179 179
179 179 179
179 179 179
179 179 179
179 179 179
179 179 179
179 179 179
179 179 179
179 179 179
179 179 179
179 179 179
179 179 179
179 179 179
179 179 179
179 179 179
179 179 179
179 179 179
179 179 179
179 179 179
179 179 179
179 179 179
179 179 179
179 179 179
179 179 179
179 179 179
179 179 179
179 179 179
179 179 179
179 179 179
179 179 179
179 179 179
179 179 179
179 179 179
179 179 179
179 179 179
179 179 179
179 179 179
179 179 179
179 179 179
179 179 179
179 179 179
179 179 179
179 179 179
179 179 179
179 179 179
179 179 179
179 179 179
179 179 179
179 179 179
179 179 179
179 179 179
179 179 179
179 179 179
179 179 179
179 179 179
179 179 179
179 179 179
179 179 179
179 179 179
179 179 179
179 179 179
179 179 179
179 179 179
179 179 179
179 179 179
179 179 179
179 179 179
179 179 179
179 179 179
179 179 179
179 179 179
179 179 179
179 179 179
179 179 179
179 179 179
179 179 179
179 179 179
179 179 179
179 179 179
179 179 179
179 179 179
179 179 179
179 179 179
179 179 179
179 179 179
179 179 179
179 179 179
179 179 179
179 179 179
179 179 179
179 179 179
179 179 179
179 179 179
179 179 179
179 179 179
179 179 179
179 179 179
179 179 179
179 179 179
179 179 179
179 179 179
179 179 179
179 179 179
179 179 179
179 179 179
179 179 179
179 179 179
179 179 179
179 179 179
179 179 179
179 179 179
179 179 179
179 179 179
179 179 179
179 179 179
179 179 179
179 179 179
179 179 179
179 179 179
179 179 179
179 179 179
179 179 179
179 179 179
179 179 179
179 179 179
179 179 179
179 179 179
179 179 179
179 179 179
179 179 179
179 179 179
179 179 179
179 179 179
179 179 179
179 179 179
179 179 179
179 179 179
179 179 179
179 179 179
179 179 179
179 179 179
179 179 179
179 179 179
179 179 179
179 179 179
179 179 179
179 179 179
179 179 179
179 179 179
179 179 179
179 179 179
179 179 179
0 0 0
0 0 0
0 0 0
0 0 0
0 0 0
0 0 0
0 0 0
0 0 0
0 0 0
0 0 0
0 0 0
0 0 0
0 0 0
0 0 0
0 0 0
0 0 0
0 0 0
0 0 0
0 0 0
0 0 0
0 0 0
0 0 0
0 0 0
0 0 0
0 0 0
0 0 0
0 0 0
0 0 0
0 0 0
0 0 0
0 0 0
0 0 0
0 0 0
0 0 0
0 0 0
0 0 0
0 0 0
0 0 0
0 0 0
0 0 0
0 0 0
0 0 0
0 0 0
0 0 0
0 0 0
0 0 0
0 0 0
0 0 0
0 0 0
0 0 0
0 0 0
0 0 0
0 0 0
0 0 0
0 0 0
0 0 0
0 0 0
0 0 0
0 0 0
0 0 0
0 0 0
0 0 0
0 0 0
0 0 0
0 0 0
0 0 0
0 0 0
0 0 0
0 0 0
0 0 0
0 0 0
0 0 0
0 0 0
0 0 0
0 0 0
0 0 0
0 0 0
0 0 0
0 0 0
0 0 0
0 0 0
0 0 0
0 0 0
0 0 0
0 0 0
0 0 0
0 0 0
0 0 0
0 0 0
0 0 0
0 0 0
0 0 0
0 0 0
0 0 0
0 0 0
0 0 0
0 0 0
0 0 0
0 0 0
0 0 0
0 0 0
0 0 0
0 0 0
0 0 0
0 0 0
0 0 0
0 0 0
0 0 0
0 0 0
0 0 0
0 0 0
0 0 0
0 0 0
0 0 0
0 0 0
0 0 0
0 0 0
0 0 0
0 0 0
0 0 0
0 0 0
0 0 0
0 0 0
0 0 0
0 0 0
0 0 0
0 0 0
0 0 0
0 0 0
0 0 0
0 0 0
0 0 0
0 0 0
0 0 0
0 0 0
0 0 0
0 0 0
0 0 0
0 0 0
0 0 0
0 0 0
0 0 0
0 0 0
0 0 0
0 0 0
0 0 0
0 0 0
0 0 0
0 0 0
0 0 0
0 0 0
0 0 0
0 0 0
0 0 0
0 0 0
0 0 0
0 0 0
0 0 0
0 0 0
0 0 0
0 0 0
0 0 0
0 0 0
0 0 0
0 0 0
0 0 0
0 0 0
0 0 0
0 0 0
0 0 0
0 0 0
0 0 0
0 0 0
0 0 0
0 0 0
0 0 0
0 0 0
0 0 0
0 0 0
0 0 0
0 0 0
0 0 0
0 0 0
0 0 0
0 0 0
0 0 0
0 0 0
0 0 0
0 0 0
0 0 0
0 0 0
0 0 0
0 0 0
0 0 0
0 0 0
0 0 0
0 0 0
0 0 0
0 0 0
0 0 0
0 0 0
0 0 0
0 0 0
0 0 0
0 0 0
0 0 0
0 0 0
0 0 0
179 179 179
179 179 179
179 179 179
179 179 179
179 179 179
179 179 179
179 179 179
179 179 179
179 179 179
179 179 179
179 179 179
179 179 179
179 179 179
179 179 179
179 179 179
179 179 179
179 179 179
179 179 179
179 179 179
179 179 179
179 179 179
179 179 179
179 179 179
179 179 179
179 179 179
179 179 179
179 179 179
179 179 179
179 179 179
179 179 179
179 179 179
179 179 179
179 179 179
179 179 179
179 179 179
179 179 179
179 179 179
179 179 179
179 179 179
179 179 179
179 179 179
179 179 179
179 179 179
179 179 179
179 179 179
179 179 179
179 179 179
179 179 179
179 179 179
179 179 179
179 179 179
179 179 179
179 179 179
179 179 179
179 179 179
179 179 179
179 179 179
179 179 179
179 179 179
179 179 179
179 179 179
179 179 179
179 179 179
179 179 179
179 179 179
179 179 179
179 179 179
179 179 179
179 179 179
179 179 179
179 179 179
179 179 179
179 179 179
179 179 179
179 179 179
179 179 179
179 179 179
179 179 179
179 179 179
179 179 179
179 179 179
179 179 179
179 179 179
179 179 179
179 179 179
179 179 179
179 179 179
179 179 179
179 179 179
179 179 179
179 179 179
179 179 179
179 179 179
179 179 179
179 179 179
179 179 179
179 179 179
179 179 179
179 179 179
179 179 179
179 179 179
179 179 179
179 179 179
179 179 179
179 179 179
179 179 179
179 179 179
179 179 179
179 179 179
179 179 179
179 179 179
179 179 179
179 179 179
179 179 179
179 179 179
179 179 179
179 179 179
179 179 179
179 179 179
179 179 179
179 179 179
179 179 179
179 179 179
179 179 179
179 179 179
179 179 179
179 179 179
179 179 179
179 179 179
179 179 179
179 179 179
179 179 179
179 179 179
179 179 179
179 179 179
179 179 179
179 179 179
179 179 179
179 179 179
179 179 179
179 179 179
179 179 179
179 179 179
179 179 179
179 179 179
179 179 179
179 179 179
179 179 179
179 179 179
179 179 179
179 179 179
179 179 179
179 179 179
179 179 179
179 179 179
179 179 179
179 179 179
179 179 179
179 179 179
179 179 179
179 179 179
179 179 179
179 179 179
179 179 179
179 179 179
179 179 179
179 179 179
179 179 179
179 179 179
179 179 179
179 179 179
179 179 179
179 179 179
179 179 179
179 179 179
179 179 179
179 179 179
179 179 179
179 179 179
179 179 179
179 179 179
179 179 179
179 179 179
179 179 179
179 179 179
179 179 179
179 179 179
179 179 179
179 179 179
179 179 179
179 179 179
179 179 179
0 0 0
0 0 0
0 0 0
0 0 0
0 0 0
0 0 0
0 0 0
0 0 0
0 0 0
0 0 0
0 0 0
0 0 0
0 0 0
0 0 0
0 0 0
0 0 0
0 0 0
0 0 0
0 0 0
0 0 0
0 0 0
0 0 0
0 0 0
0 0 0
0 0 0
0 0 0
0 0 0
0 0 0
0 0 0
0 0 0
0 0 0
0 0 0
0 0 0
0 0 0
0 0 0
0 0 0
0 0 0
0 0 0
0 0 0
0 0 0
0 0 0
0 0 0
0 0 0
0 0 0
0 0 0
0 0 0
0 0 0
0 0 0
0 0 0
0 0 0
0 0 0
0 0 0
0 0 0
0 0 0
0 0 0
0 0 0
0 0 0
0 0 0
0 0 0
0 0 0
0 0 0
0 0 0
0 0 0
0 0 0
0 0 0
0 0 0
0 0 0
0 0 0
0 0 0
0 0 0
0 0 0
0 0 0
0 0 0
0 0 0
0 0 0
0 0 0
0 0 0
0 0 0
0 0 0
0 0 0
0 0 0
0 0 0
0 0 0
0 0 0
0 0 0
0 0 0
0 0 0
0 0 0
0 0 0
0 0 0
0 0 0
0 0 0
0 0 0
0 0 0
0 0 0
0 0 0
0 0 0
0 0 0
0 0 0
0 0 0
0 0 0
0 0 0
0 0 0
0 0 0
0 0 0
0 0 0
0 0 0
0 0 0
0 0 0
0 0 0
0 0 0
0 0 0
0 0 0
0 0 0
0 0 0
0 0 0
0 0 0
0 0 0
0 0 0
0 0 0
0 0 0
0 0 0
0 0 0
0 0 0
0 0 0
0 0 0
0 0 0
0 0 0
0 0 0
0 0 0
0 0 0
0 0 0
0 0 0
0 0 0
0 0 0
0 0 0
0 0 0
0 0 0
0 0 0
0 0 0
0 0 0
0 0 0
0 0 0
0 0 0
0 0 0
0 0 0
0 0 0
0 0 0
0 0 0
0 0 0
0 0 0
0 0 0
0 0 0
0 0 0
0 0 0
0 0 0
0 0 0
0 0 0
0 0 0
0 0 0
0 0 0
0 0 0
0 0 0
0 0 0
0 0 0
0 0 0
0 0 0
0 0 0
0 0 0
0 0 0
0 0 0
0 0 0
0 0 0
0 0 0
0 0 0
0 0 0
0 0 0
0 0 0
0 0 0
0 0 0
0 0 0
0 0 0
0 0 0
0 0 0
0 0 0
0 0 0
0 0 0
0 0 0
0 0 0
0 0 0
0 0 0
0 0 0
0 0 0
0 0 0
0 0 0
0 0 0
0 0 0
0 0 0
0 0 0
0 0 0
0 0 0
0 0 0
0 0 0
0 0 0
0 0 0
0 0 0
0 0 0
0 0 0
179 179 179
179 179 179
179 179 179
179 179 179
179 179 179
179 179 179
179 179 179
179 179 179
179 179 179
179 179 179
179 179 179
179 179 179
179 179 179
179 179 179
179 179 179
179 179 179
179 179 179
179 179 179
179 179 179
179 179 179
179 179 179
179 179 179
179 179 179
179 179 179
179 179 179
179 179 179
179 179 179
179 179 179
179 179 179
179 179 179
179 179 179
179 179 179
179 179 179
179 179 179
179 179 179
179 179 179
179 179 179
179 179 179
179 179 179
179 179 179
179 179 179
179 179 179
179 179 179
179 179 179
179 179 179
179 179 179
179 179 179
179 179 179
179 179 179
179 179 179
179 179 179
179 179 179
179 179 179
179 179 179
179 179 179
179 179 179
179 179 179
179 179 179
179 179 179
179 179 179
179 179 179
179 179 179
179 179 179
179 179 179
179 179 179
179 179 179
179 179 179
179 179 179
179 179 179
179 179 179
179 179 179
179 179 179
179 179 179
179 179 179
179 179 179
179 179 179
179 179 179
179 179 179
179 179 179
179 179 179
179 179 179
179 179 179
179 179 179
179 179 179
179 179 179
179 179 179
179 179 179
179 179 179
179 179 179
179 179 179
179 179 179
179 179 179
179 179 179
179 179 179
179 179 179
179 179 179
179 179 179
179 179 179
179 179 179
179 179 179
179 179 179
179 179 179
179 179 179
179 179 179
179 179 179
179 179 179
179 179 179
179 179 179
179 179 179
179 179 179
179 179 179
179 179 179
179 179 179
179 179 179
179 179 179
179 179 179
179 179 179
179 179 179
179 179 179
179 179 179
179 179 179
179 179 179
179 179 179
179 179 179
179 179 179
179 179 179
179 179 179
179 179 179
179 179 179
179 179 179
179 179 179
179 179 179
179 179 179
179 179 179
179 179 179
179 179 179
179 179 179
179 179 179
179 179 179
179 179 179
179 179 179
179 179 179
179 179 179
179 179 179
179 179 179
179 179 179
179 179 179
179 179 179
179 179 179
179 179 179
179 179 179
179 179 179
179 179 179
179 179 179
179 179 179
179 179 179
179 179 179
179 179 179
179 179 179
179 179 179
179 179 179
179 179 179
179 179 179
179 179 179
179 179 179
179 179 179
179 179 179
179 179 179
179 179 179
179 179 179
179 179 179
179 179 179
179 179 179
179 179 179
179 179 179
179 179 179
179 179 179
179 179 179
179 179 179
179 179 179
179 179 179
179 179 179
179 179 179
179 179 179
179 179 179
179 179 179
179 179 179
179 179 179
179 179 179
179 179 179
179 179 179
179 179 179
0 0 0
0 0 0
0 0 0
0 0 0
0 0 0
0 0 0
0 0 0
0 0 0
0 0 0
0 0 0
0 0 0
0 0 0
0 0 0
0 0 0
0 0 0
0 0 0
0 0 0
0 0 0
0 0 0
0 0 0
0 0 0
0 0 0
0 0 0
0 0 0
0 0 0
0 0 0
0 0 0
0 0 0
0 0 0
0 0 0
0 0 0
0 0 0
0 0 0
0 0 0
0 0 0
0 0 0
0 0 0
0 0 0
0 0 0
0 0 0
0 0 0
0 0 0
0 0 0
0 0 0
0 0 0
0 0 0
0 0 0
0 0 0
0 0 0
0 0 0
0 0 0
0 0 0
0 0 0
0 0 0
0 0 0
0 0 0
0 0 0
0 0 0
0 0 0
0 0 0
0 0 0
0 0 0
0 0 0
0 0 0
0 0 0
0 0 0
0 0 0
0 0 0
0 0 0
0 0 0
0 0 0
0 0 0
0 0 0
0 0 0
0 0 0
0 0 0
0 0 0
0 0 0
0 0 0
0 0 0
0 0 0
0 0 0
0 0 0
0 0 0
0 0 0
0 0 0
0 0 0
0 0 0
0 0 0
0 0 0
0 0 0
0 0 0
0 0 0
0 0 0
0 0 0
0 0 0
0 0 0
0 0 0
0 0 0
0 0 0
0 0 0
0 0 0
0 0 0
0 0 0
0 0 0
0 0 0
0 0 0
0 0 0
0 0 0
0 0 0
0 0 0
0 0 0
0 0 0
0 0 0
0 0 0
0 0 0
0 0 0
0 0 0
0 0 0
0 0 0
0 0 0
0 0 0
0 0 0
0 0 0
0 0 0
0 0 0
0 0 0
0 0 0
0 0 0
0 0 0
0 0 0
0 0 0
0 0 0
0 0 0
0 0 0
0 0 0
0 0 0
0 0 0
0 0 0
0 0 0
0 0 0
0 0 0
0 0 0
0 0 0
0 0 0
0 0 0
0 0 0
0 0 0
0 0 0
0 0 0
0 0 0
0 0 0
0 0 0
0 0 0
0 0 0
0 0 0
0 0 0
0 0 0
0 0 0
0 0 0
0 0 0
0 0 0
0 0 0
0 0 0
0 0 0
0 0 0
0 0 0
0 0 0
0 0 0
0 0 0
0 0 0
0 0 0
0 0 0
0 0 0
0 0 0
0 0 0
0 0 0
0 0 0
0 0 0
0 0 0
0 0 0
0 0 0
0 0 0
0 0 0
0 0 0
0 0 0
0 0 0
0 0 0
0 0 0
0 0 0
0 0 0
0 0 0
0 0 0
0 0 0
0 0 0
0 0 0
0 0 0
0 0 0
0 0 0
0 0 0
0 0 0
0 0 0
0 0 0
0 0 0
0 0 0
0 0 0
0 0 0
0 0 0
179 179 179
179 179 179
179 179 179
179 179 179
179 179 179
179 179 179
179 179 179
179 179 179
179 179 179
179 179 179
179 179 179
179 179 179
179 179 179
179 179 179
179 179 179
179 179 179
179 179 179
179 179 179
179 179 179
179 179 179
179 179 179
179 179 179
179 179 179
179 179 179
179 179 179
179 179 179
179 179 179
179 179 179
179 179 179
179 179 179
179 179 179
179 179 179
179 179 179
179 179 179
179 179 179
179 179 179
179 179 179
179 179 179
179 179 179
179 179 179
179 179 179
179 179 179
179 179 179
179 179 179
179 179 179
179 179 179
179 179 179
179 179 179
179 179 179
179 179 179
179 179 179
179 179 179
179 179 179
179 179 179
179 179 179
179 179 179
179 179 179
179 179 179
179 179 179
179 179 179
179 179 179
179 179 179
179 179 179
179 179 179
179 179 179
179 179 179
179 179 179
179 179 179
179 179 179
179 179 179
179 179 179
179 179 179
179 179 179
179 179 179
179 179 179
179 179 179
179 179 179
179 179 179
179 179 179
179 179 179
179 179 179
179 179 179
179 179 179
179 179 179
179 179 179
179 179 179
179 179 179
179 179 179
179 179 179
179 179 179
179 179 179
179 179 179
179 179 179
179 179 179
179 179 179
179 179 179
179 179 179
179 179 179
179 179 179
179 179 179
179 179 179
179 179 179
179 179 179
179 179 179
179 179 179
179 179 179
179 179 179
179 179 179
179 179 179
179 179 179
179 179 179
179 179 179
179 179 179
179 179 179
179 179 179
179 179 179
179 179 179
179 179 179
179 179 179
179 179 179
179 179 179
179 179 179
179 179 179
179 179 179
179 179 179
179 179 179
179 179 179
179 179 179
179 179 179
179 179 179
179 179 179
179 179 179
179 179 179
179 179 179
179 179 179
179 179 179
179 179 179
179 179 179
179 179 179
179 179 179
179 179 179
179 179 179
179 179 179
179 179 179
179 179 179
179 179 179
179 179 179
179 179 179
179 179 179
179 179 179
179 179 179
179 179 179
179 179 179
179 179 179
179 179 179
179 179 179
179 179 179
179 179 179
179 179 179
179 179 179
179 179 179
179 179 179
179 179 179
179 179 179
179 179 179
179 179 179
179 179 179
179 179 179
179 179 179
179 179 179
179 179 179
179 179 179
179 179 179
179 179 179
179 179 179
179 179 179
179 179 179
179 179 179
179 179 179
179 179 179
179 179 179
179 179 179
179 179 179
179 179 179
179 179 179
179 179 179
179 179 179
179 179 179
179 179 179
179 179 179
179 179 179
179 179 179
0 0 0
0 0 0
0 0 0
0 0 0
0 0 0
0 0 0
0 0 0
0 0 0
0 0 0
0 0 0
0 0 0
0 0 0
0 0 0
0 0 0
0 0 0
0 0 0
0 0 0
0 0 0
0 0 0
0 0 0
0 0 0
0 0 0
0 0 0
0 0 0
0 0 0
0 0 0
0 0 0
0 0 0
0 0 0
0 0 0
0 0 0
0 0 0
0 0 0
0 0 0
0 0 0
0 0 0
0 0 0
0 0 0
0 0 0
0 0 0
0 0 0
0 0 0
0 0 0
0 0 0
0 0 0
0 0 0
0 0 0
0 0 0
0 0 0
0 0 0
0 0 0
0 0 0
0 0 0
0 0 0
0 0 0
0 0 0
0 0 0
0 0 0
0 0 0
0 0 0
0 0 0
0 0 0
0 0 0
0 0 0
0 0 0
0 0 0
0 0 0
0 0 0
0 0 0
0 0 0
0 0 0
0 0 0
0 0 0
0 0 0
0 0 0
0 0 0
0 0 0
0 0 0
0 0 0
0 0 0
0 0 0
0 0 0
0 0 0
0 0 0
0 0 0
0 0 0
0 0 0
0 0 0
0 0 0
0 0 0
0 0 0
0 0 0
0 0 0
0 0 0
0 0 0
0 0 0
0 0 0
0 0 0
0 0 0
0 0 0
0 0 0
0 0 0
0 0 0
0 0 0
0 0 0
0 0 0
0 0 0
0 0 0
0 0 0
0 0 0
0 0 0
0 0 0
0 0 0
0 0 0
0 0 0
0 0 0
0 0 0
0 0 0
0 0 0
0 0 0
0 0 0
0 0 0
0 0 0
0 0 0
0 0 0
0 0 0
0 0 0
0 0 0
0 0 0
0 0 0
0 0 0
0 0 0
0 0 0
0 0 0
0 0 0
0 0 0
0 0 0
0 0 0
0 0 0
0 0 0
0 0 0
0 0 0
0 0 0
0 0 0
0 0 0
0 0 0
0 0 0
0 0 0
0 0 0
0 0 0
0 0 0
0 0 0
0 0 0
0 0 0
0 0 0
0 0 0
0 0 0
0 0 0
0 0 0
0 0 0
0 0 0
0 0 0
0 0 0
0 0 0
0 0 0
0 0 0
0 0 0
0 0 0
0 0 0
0 0 0
0 0 0
0 0 0
0 0 0
0 0 0
0 0 0
0 0 0
0 0 0
0 0 0
0 0 0
0 0 0
0 0 0
0 0 0
0 0 0
0 0 0
0 0 0
0 0 0
0 0 0
0 0 0
0 0 0
0 0 0
0 0 0
0 0 0
0 0 0
0 0 0
0 0 0
0 0 0
0 0 0
0 0 0
0 0 0
0 0 0
0 0 0
0 0 0
0 0 0
0 0 0
0 0 0
0 0 0
0 0 0
0 0 0
179 179 179
179 179 179
179 179 179
179 179 179
179 179 179
179 179 179
179 179 179
179 179 179
179 179 179
179 179 179
179 179 179
179 179 179
179 179 179
179 179 179
179 179 179
179 179 179
179 179 179
179 179 179
179 179 179
179 179 179
179 179 179
179 179 179
179 179 179
179 179 179
179 179 179
179 179 179
179 179 179
179 179 179
179 179 179
179 179 179
179 179 179
179 179 179
179 179 179
179 179 179
179 179 179
179 179 179
179 179 179
179 179 179
179 179 179
179 179 179
179 179 179
179 179 179
179 179 179
179 179 179
179 179 179
179 179 179
179 179 179
179 179 179
179 179 179
179 179 179
179 179 179
179 179 179
179 179 179
179 179 179
179 179 179
179 179 179
179 179 179
179 179 179
179 179 179
179 179 179
179 179 179
179 179 179
179 179 179
179 179 179
179 179 179
179 179 179
179 179 179
179 179 179
179 179 179
179 179 179
179 179 179
179 179 179
179 179 179
179 179 179
179 179 179
179 179 179
179 179 179
179 179 179
179 179 179
179 179 179
179 179 179
179 179 179
179 179 179
179 179 179
179 179 179
179 179 179
179 179 179
179 179 179
179 179 179
179 179 179
179 179 179
179 179 179
179 179 179
179 179 179
179 179 179
179 179 179
179 179 179
179 179 179
179 179 179
179 179 179
179 179 179
179 179 179
179 179 179
179 179 179
179 179 179
179 179 179
179 179 179
179 179 179
179 179 179
179 179 179
179 179 179
179 179 179
179 179 179
179 179 179
179 179 179
179 179 179
179 179 179
179 179 179
179 179 179
179 179 179
179 179 179
179 179 179
179 179 179
179 179 179
179 179 179
179 179 179
179 179 179
179 179 179
179 179 179
179 179 179
179 179 179
179 179 179
179 179 179
179 179 179
179 179 179
179 179 179
179 179 179
179 179 179
179 179 179
179 179 179
179 179 179
179 179 179
179 179 179
179 179 179
179 179 179
179 179 179
179 179 179
179 179 179
179 179 179
179 179 179
179 179 179
179 179 179
179 179 179
179 179 179
179 179 179
179 179 179
179 179 179
179 179 179
179 179 179
179 179 179
179 179 179
179 179 179
179 179 179
179 179 179
179 179 179
179 179 179
179 179 179
179 179 179
179 179 179
179 179 179
179 179 179
179 179 179
179 179 179
179 179 179
179 179 179
179 179 179
179 179 179
179 179 179
179 179 179
179 179 179
179 179 179
179 179 179
179 179 179
179 179 179
179 179 179
179 179 179
179 179 179
179 179 179
179 179 179
179 179 179
179 179 179
179 179 179
0 0 0
0 0 0
0 0 0
0 0 0
0 0 0
0 0 0
0 0 0
0 0 0
0 0 0
0 0 0
0 0 0
0 0 0
0 0 0
0 0 0
0 0 0
0 0 0
0 0 0
0 0 0
0 0 0
0 0 0
0 0 0
0 0 0
0 0 0
0 0 0
0 0 0
0 0 0
0 0 0
0 0 0
0 0 0
0 0 0
0 0 0
0 0 0
0 0 0
0 0 0
0 0 0
0 0 0
0 0 0
0 0 0
0 0 0
0 0 0
0 0 0
0 0 0
0 0 0
0 0 0
0 0 0
0 0 0
0 0 0
0 0 0
0 0 0
0 0 0
0 0 0
0 0 0
0 0 0
0 0 0
0 0 0
0 0 0
0 0 0
0 0 0
0 0 0
0 0 0
0 0 0
0 0 0
0 0 0
0 0 0
0 0 0
0 0 0
0 0 0
0 0 0
0 0 0
0 0 0
0 0 0
0 0 0
0 0 0
0 0 0
0 0 0
0 0 0
0 0 0
0 0 0
0 0 0
0 0 0
0 0 0
0 0 0
0 0 0
0 0 0
0 0 0
0 0 0
0 0 0
0 0 0
0 0 0
0 0 0
0 0 0
0 0 0
0 0 0
0 0 0
0 0 0
0 0 0
0 0 0
0 0 0
0 0 0
0 0 0
0 0 0
0 0 0
0 0 0
0 0 0
0 0 0
0 0 0
0 0 0
0 0 0
0 0 0
0 0 0
0 0 0
0 0 0
0 0 0
0 0 0
0 0 0
0 0 0
0 0 0
0 0 0
0 0 0
0 0 0
0 0 0
0 0 0
0 0 0
0 0 0
0 0 0
0 0 0
0 0 0
0 0 0
0 0 0
0 0 0
0 0 0
0 0 0
0 0 0
0 0 0
0 0 0
0 0 0
0 0 0
0 0 0
0 0 0
0 0 0
0 0 0
0 0 0
0 0 0
0 0 0
0 0 0
0 0 0
0 0 0
0 0 0
0 0 0
0 0 0
0 0 0
0 0 0
0 0 0
0 0 0
0 0 0
0 0 0
0 0 0
0 0 0
0 0 0
0 0 0
0 0 0
0 0 0
0 0 0
0 0 0
0 0 0
0 0 0
0 0 0
0 0 0
0 0 0
0 0 0
0 0 0
0 0 0
0 0 0
0 0 0
0 0 0
0 0 0
0 0 0
0 0 0
0 0 0
0 0 0
0 0 0
0 0 0
0 0 0
0 0 0
0 0 0
0 0 0
0 0 0
0 0 0
0 0 0
0 0 0
0 0 0
0 0 0
0 0 0
0 0 0
0 0 0
0 0 0
0 0 0
0 0 0
0 0 0
0 0 0
0 0 0
0 0 0
0 0 0
0 0 0
0 0 0
0 0 0
0 0 0
0 0 0
179 179 179
179 179 179
179 179 179
179 179 179
179 179 179
179 179 179
179 179 179
179 179 179
179 179 179
179 179 179
179 179 179
179 179 179
179 179 179
179 179 179
179 179 179
179 179 179
179 179 179
179 179 179
179 179 179
179 179 179
179 179 179
179 179 179
179 179 179
179 179 179
179 179 179
179 179 179
179 179 179
179 179 179
179 179 179
179 179 179
179 179 179
179 179 179
179 179 179
179 179 179
179 179 179
179 179 179
179 179 179
179 179 179
179 179 179
179 179 179
179 179 179
179 179 179
179 179 179
179 179 179
179 179 179
179 179 179
179 179 179
179 179 179
179 179 179
179 179 179
179 179 179
179 179 179
179 179 179
179 179 179
179 179 179
179 179 179
179 179 179
179 179 179
179 179 179
179 179 179
179 179 179
179 179 179
179 179 179
179 179 179
179 179 179
179 179 179
179 179 179
179 179 179
179 179 179
179 179 179
179 179 179
179 179 179
179 179 179
179 179 179
179 179 179
179 179 179
179 179 179
179 179 179
179 179 179
179 179 179
179 179 179
179 179 179
179 179 179
179 179 179
179 179 179
179 179 179
179 179 179
179 179 179
179 179 179
179 179 179
179 179 179
179 179 179
179 179 179
179 179 179
179 179 179
179 179 179
179 179 179
179 179 179
179 179 179
179 179 179
179 179 179
179 179 179
179 179 179
179 179 179
179 179 179
179 179 179
179 179 179
179 179 179
179 179 179
179 179 179
179 179 179
179 179 179
179 179 179
179 179 179
179 179 179
179 179 179
179 179 179
179 179 179
179 179 179
179 179 179
179 179 179
179 179 179
179 179 179
179 179 179
179 179 179
179 179 179
179 179 179
179 179 179
179 179 179
179 179 179
179 179 179
179 179 179
179 179 179
179 179 179
179 179 179
179 179 179
179 179 179
179 179 179
179 179 179
179 179 179
179 179 179
179 179 179
179 179 179
179 179 179
179 179 179
179 179 179
179 179 179
179 179 179
179 179 179
179 179 179
179 179 179
179 179 179
179 179 179
179 179 179
179 179 179
179 179 179
179 179 179
179 179 179
179 179 179
179 179 179
179 179 179
179 179 179
179 179 179
179 179 179
179 179 179
179 179 179
179 179 179
179 179 179
179 179 179
179 179 179
179 179 179
179 179 179
179 179 179
179 179 179
179 179 179
179 179 179
179 179 179
179 179 179
179 179 179
179 179 179
179 179 179
179 179 179
179 179 179
179 179 179
179 179 179
179 179 179
179 179 179
179 179 179
179 179 179
179 179 179
179 179 179
179 179 179
179 179 179
0 0 0
0 0 0
0 0 0
0 0 0
0 0 0
0 0 0
0 0 0
0 0 0
0 0 0
0 0 0
0 0 0
0 0 0
0 0 0
0 0 0
0 0 0
0 0 0
0 0 0
0 0 0
0 0 0
0 0 0
0 0 0
0 0 0
0 0 0
0 0 0
0 0 0
0 0 0
0 0 0
0 0 0
0 0 0
0 0 0
0 0 0
0 0 0
0 0 0
0 0 0
0 0 0
0 0 0
0 0 0
0 0 0
0 0 0
0 0 0
0 0 0
0 0 0
0 0 0
0 0 0
0 0 0
0 0 0
0 0 0
0 0 0
0 0 0
0 0 0
0 0 0
0 0 0
0 0 0
0 0 0
0 0 0
0 0 0
0 0 0
0 0 0
0 0 0
0 0 0
0 0 0
0 0 0
0 0 0
0 0 0
0 0 0
0 0 0
0 0 0
0 0 0
0 0 0
0 0 0
0 0 0
0 0 0
0 0 0
0 0 0
0 0 0
0 0 0
0 0 0
0 0 0
0 0 0
0 0 0
0 0 0
0 0 0
0 0 0
0 0 0
0 0 0
0 0 0
0 0 0
0 0 0
0 0 0
0 0 0
0 0 0
0 0 0
0 0 0
0 0 0
0 0 0
0 0 0
0 0 0
0 0 0
0 0 0
0 0 0
0 0 0
0 0 0
0 0 0
0 0 0
0 0 0
0 0 0
0 0 0
0 0 0
0 0 0
0 0 0
0 0 0
0 0 0
0 0 0
0 0 0
0 0 0
0 0 0
0 0 0
0 0 0
0 0 0
0 0 0
0 0 0
0 0 0
0 0 0
0 0 0
0 0 0
0 0 0
0 0 0
0 0 0
0 0 0
0 0 0
0 0 0
0 0 0
0 0 0
0 0 0
0 0 0
0 0 0
0 0 0
0 0 0
0 0 0
0 0 0
0 0 0
0 0 0
0 0 0
0 0 0
0 0 0
0 0 0
0 0 0
0 0 0
0 0 0
0 0 0
0 0 0
0 0 0
0 0 0
0 0 0
0 0 0
0 0 0
0 0 0
0 0 0
0 0 0
0 0 0
0 0 0
0 0 0
0 0 0
0 0 0
0 0 0
0 0 0
0 0 0
0 0 0
0 0 0
0 0 0
0 0 0
0 0 0
0 0 0
0 0 0
0 0 0
0 0 0
0 0 0
0 0 0
0 0 0
0 0 0
0 0 0
0 0 0
0 0 0
0 0 0
0 0 0
0 0 0
0 0 0
0 0 0
0 0 0
0 0 0
0 0 0
0 0 0
0 0 0
0 0 0
0 0 0
0 0 0
0 0 0
0 0 0
0 0 0
0 0 0
0 0 0
0 0 0
0 0 0
0 0 0
0 0 0
0 0 0
179 179 179
179 179 179
179 179 179
179 179 179
179 179 179
179 179 179
179 179 179
179 179 179
179 179 179
179 179 179
179 179 179
179 179 179
179 179 179
179 179 179
179 179 179
179 179 179
179 179 179
179 179 179
179 179 179
179 179 179
179 179 179
179 179 179
179 179 179
179 179 179
179 179 179
179 179 179
179 179 179
179 179 179
179 179 179
179 179 179
179 179 179
179 179 179
179 179 179
179 179 179
179 179 179
179 179 179
179 179 179
179 179 179
179 179 179
179 179 179
179 179 179
179 179 179
179 179 179
179 179 179
179 179 179
179 179 179
179 179 179
179 179 179
179 179 179
179 179 179
179 179 179
179 179 179
179 179 179
179 179 179
179 179 179
179 179 179
179 179 179
179 179 179
179 179 179
179 179 179
179 179 179
179 179 179
179 179 179
179 179 179
179 179 179
179 179 179
179 179 179
179 179 179
179 179 179
179 179 179
179 179 179
179 179 179
179 179 179
179 179 179
179 179 179
179 179 179
179 179 179
179 179 179
179 179 179
179 179 179
179 179 179
179 179 179
179 179 179
179 179 179
179 179 179
179 179 179
179 179 179
179 179 179
179 179 179
179 179 179
179 179 179
179 179 179
179 179 179
179 179 179
179 179 179
179 179 179
179 179 179
179 179 179
179 179 179
179 179 179
179 179 179
179 179 179
179 179 179
179 179 179
179 179 179
179 179 179
179 179 179
179 179 179
179 179 179
179 179 179
179 179 179
179 179 179
179 179 179
179 179 179
179 179 179
179 179 179
179 179 179
179 179 179
179 179 179
179 179 179
179 179 179
179 179 179
179 179 179
179 179 179
179 179 179
179 179 179
179 179 179
179 179 179
179 179 179
179 179 179
179 179 179
179 179 179
179 179 179
179 179 179
179 179 179
179 179 179
179 179 179
179 179 179
179 179 179
179 179 179
179 179 179
179 179 179
179 179 179
179 179 179
179 179 179
179 179 179
179 179 179
179 179 179
179 179 179
179 179 179
179 179 179
179 179 179
179 179 179
179 179 179
179 179 179
179 179 179
179 179 179
179 179 179
179 179 179
179 179 179
179 179 179
179 179 179
179 179 179
179 179 179
179 179 179
179 179 179
179 179 179
179 179 179
179 179 179
179 179 179
179 179 179
179 179 179
179 179 179
179 179 179
179 179 179
179 179 179
179 179 179
179 179 179
179 179 179
179 179 179
179 179 179
179 179 179
179 179 179
179 179 179
179 179 179
179 179 179
179 179 179
179 179 179
179 179 179
179 179 179
179 179 179
179 179 179
179 179 179
179 179 179
0 0 0
0 0 0
0 0 0
0 0 0
0 0 0
0 0 0
0 0 0
0 0 0
0 0 0
0 0 0
0 0 0
0 0 0
0 0 0
0 0 0
0 0 0
0 0 0
0 0 0
0 0 0
0 0 0
0 0 0
0 0 0
0 0 0
0 0 0
0 0 0
0 0 0
0 0 0
0 0 0
0 0 0
0 0 0
0 0 0
0 0 0
0 0 0
0 0 0
0 0 0
0 0 0
0 0 0
0 0 0
0 0 0
0 0 0
0 0 0
0 0 0
0 0 0
0 0 0
0 0 0
0 0 0
0 0 0
0 0 0
0 0 0
0 0 0
0 0 0
0 0 0
0 0 0
0 0 0
0 0 0
0 0 0
0 0 0
0 0 0
0 0 0
0 0 0
0 0 0
0 0 0
0 0 0
0 0 0
0 0 0
0 0 0
0 0 0
0 0 0
0 0 0
0 0 0
0 0 0
0 0 0
0 0 0
0 0 0
0 0 0
0 0 0
0 0 0
0 0 0
0 0 0
0 0 0
0 0 0
0 0 0
0 0 0
0 0 0
0 0 0
0 0 0
0 0 0
0 0 0
0 0 0
0 0 0
0 0 0
0 0 0
0 0 0
0 0 0
0 0 0
0 0 0
0 0 0
0 0 0
0 0 0
0 0 0
0 0 0
0 0 0
0 0 0
0 0 0
0 0 0
0 0 0
0 0 0
0 0 0
0 0 0
0 0 0
0 0 0
0 0 0
0 0 0
0 0 0
0 0 0
0 0 0
0 0 0
0 0 0
0 0 0
0 0 0
0 0 0
0 0 0
0 0 0
0 0 0
0 0 0
0 0 0
0 0 0
0 0 0
0 0 0
0 0 0
0 0 0
0 0 0
0 0 0
0 0 0
0 0 0
0 0 0
0 0 0
0 0 0
0 0 0
0 0 0
0 0 0
0 0 0
0 0 0
0 0 0
0 0 0
0 0 0
0 0 0
0 0 0
0 0 0
0 0 0
0 0 0
0 0 0
0 0 0
0 0 0
0 0 0
0 0 0
0 0 0
0 0 0
0 0 0
0 0 0
0 0 0
0 0 0
0 0 0
0 0 0
0 0 0
0 0 0
0 0 0
0 0 0
0 0 0
0 0 0
0 0 0
0 0 0
0 0 0
0 0 0
0 0 0
0 0 0
0 0 0
0 0 0
0 0 0
0 0 0
0 0 0
0 0 0
0 0 0
0 0 0
0 0 0
0 0 0
0 0 0
0 0 0
0 0 0
0 0 0
0 0 0
0 0 0
0 0 0
0 0 0
0 0 0
0 0 0
0 0 0
0 0 0
0 0 0
0 0 0
0 0 0
0 0 0
0 0 0
0 0 0
0 0 0
0 0 0
0 0 0
179 179 179
179 179 179
179 179 179
179 179 179
179 179 179
179 179 179
179 179 179
179 179 179
179 179 179
179 179 179
179 179 179
179 179 179
179 179 179
179 179 179
179 179 179
179 179 179
179 179 179
179 179 179
179 179 179
179 179 179
179 179 179
179 179 179
179 179 179
179 179 179
179 179 179
179 179 179
179 179 179
179 179 179
179 179 179
179 179 179
179 179 179
179 179 179
179 179 179
179 179 179
179 179 179
179 179 179
179 179 179
179 179 179
179 179 179
179 179 179
179 179 179
179 179 179
179 179 179
179 179 179
179 179 179
179 179 179
179 179 179
179 179 179
179 179 179
179 179 179
179 179 179
179 179 179
179 179 179
179 179 179
179 179 179
179 179 179
179 179 179
179 179 179
179 179 179
179 179 179
179 179 179
179 179 179
179 179 179
179 179 179
179 179 179
179 179 179
179 179 179
179 179 179
179 179 179
179 179 179
179 179 179
179 179 179
179 179 179
179 179 179
179 179 179
179 179 179
179 179 179
179 179 179
179 179 179
179 179 179
179 179 179
179 179 179
179 179 179
179 179 179
179 179 179
179 179 179
179 179 179
179 179 179
179 179 179
179 179 179
179 179 179
179 179 179
179 179 179
179 179 179
179 179 179
179 179 179
179 179 179
179 179 179
179 179 179
179 179 179
179 179 179
179 179 179
179 179 179
179 179 179
179 179 179
179 179 179
179 179 179
179 179 179
179 179 179
179 179 179
179 179 179
179 179 179
179 179 179
179 179 179
179 179 179
179 179 179
179 179 179
179 179 179
179 179 179
179 179 179
179 179 179
179 179 179
179 179 179
179 179 179
179 179 179
179 179 179
179 179 179
179 179 179
179 179 179
179 179 179
179 179 179
179 179 179
179 179 179
179 179 179
179 179 179
179 179 179
179 179 179
179 179 179
179 179 179
179 179 179
179 179 179
179 179 179
179 179 179
179 179 179
179 179 179
179 179 179
179 179 179
179 179 179
179 179 179
179 179 179
179 179 179
179 179 179
179 179 179
179 179 179
179 179 179
179 179 179
179 179 179
179 179 179
179 179 179
179 179 179
179 179 179
179 179 179
179 179 179
179 179 179
179 179 179
179 179 179
179 179 179
179 179 179
179 179 179
179 179 179
179 179 179
179 179 179
179 179 179
179 179 179
179 179 179
179 179 179
179 179 179
179 179 179
179 179 179
179 179 179
179 179 179
179 179 179
179 179 179
179 179 179
179 179 179
179 179 179
179 179 179
179 179 179
179 179 179
179 179 179
179 179 179
179 179 179
179 179 179
179 179 179
0 0 0
0 0 0
0 0 0
0 0 0
0 0 0
0 0 0
0 0 0
0 0 0
0 0 0
0 0 0
0 0 0
0 0 0
0 0 0
0 0 0
0 0 0
0 0 0
0 0 0
0 0 0
0 0 0
0 0 0
0 0 0
0 0 0
0 0 0
0 0 0
0 0 0
0 0 0
0 0 0
0 0 0
0 0 0
0 0 0
0 0 0
0 0 0
0 0 0
0 0 0
0 0 0
0 0 0
0 0 0
0 0 0
0 0 0
0 0 0
0 0 0
0 0 0
0 0 0
0 0 0
0 0 0
0 0 0
0 0 0
0 0 0
0 0 0
0 0 0
0 0 0
0 0 0
0 0 0
0 0 0
0 0 0
0 0 0
0 0 0
0 0 0
0 0 0
0 0 0
0 0 0
0 0 0
0 0 0
0 0 0
0 0 0
0 0 0
0 0 0
0 0 0
0 0 0
0 0 0
0 0 0
0 0 0
0 0 0
0 0 0
0 0 0
0 0 0
0 0 0
0 0 0
0 0 0
0 0 0
0 0 0
0 0 0
0 0 0
0 0 0
0 0 0
0 0 0
0 0 0
0 0 0
0 0 0
0 0 0
0 0 0
0 0 0
0 0 0
0 0 0
0 0 0
0 0 0
0 0 0
0 0 0
0 0 0
0 0 0
0 0 0
0 0 0
0 0 0
0 0 0
0 0 0
0 0 0
0 0 0
0 0 0
0 0 0
0 0 0
0 0 0
0 0 0
0 0 0
0 0 0
0 0 0
0 0 0
0 0 0
0 0 0
0 0 0
0 0 0
0 0 0
0 0 0
0 0 0
0 0 0
0 0 0
0 0 0
0 0 0
0 0 0
0 0 0
0 0 0
0 0 0
0 0 0
0 0 0
0 0 0
0 0 0
0 0 0
0 0 0
0 0 0
0 0 0
0 0 0
0 0 0
0 0 0
0 0 0
0 0 0
0 0 0
0 0 0
0 0 0
0 0 0
0 0 0
0 0 0
0 0 0
0 0 0
0 0 0
0 0 0
0 0 0
0 0 0
0 0 0
0 0 0
0 0 0
0 0 0
0 0 0
0 0 0
0 0 0
0 0 0
0 0 0
0 0 0
0 0 0
0 0 0
0 0 0
0 0 0
0 0 0
0 0 0
0 0 0
0 0 0
0 0 0
0 0 0
0 0 0
0 0 0
0 0 0
0 0 0
0 0 0
0 0 0
0 0 0
0 0 0
0 0 0
0 0 0
0 0 0
0 0 0
0 0 0
0 0 0
0 0 0
0 0 0
0 0 0
0 0 0
0 0 0
0 0 0
0 0 0
0 0 0
0 0 0
0 0 0
0 0 0
0 0 0
0 0 0
0 0 0
0 0 0
0 0 0
179 179 179
179 179 179
179 179 179
179 179 179
179 179 179
179 179 179
179 179 179
179 179 179
179 179 179
179 179 179
179 179 179
179 179 179
179 179 179
179 179 179
179 179 179
179 179 179
179 179 179
179 179 179
179 179 179
179 179 179
179 179 179
179 179 179
179 179 179
179 179 179
179 179 179
179 179 179
179 179 179
179 179 179
179 179 179
179 179 179
179 179 179
179 179 179
179 179 179
179 179 179
179 179 179
179 179 179
179 179 179
179 179 179
179 179 179
179 179 179
179 179 179
179 179 179
179 179 179
179 179 179
179 179 179
179 179 179
179 179 179
179 179 179
179 179 179
179 179 179
179 179 179
179 179 179
179 179 179
179 179 179
179 179 179
179 179 179
179 179 179
179 179 179
179 179 179
179 179 179
179 179 179
179 179 179
179 179 179
179 179 179
179 179 179
179 179 179
179 179 179
179 179 179
179 179 179
179 179 179
179 179 179
179 179 179
179 179 179
179 179 179
179 179 179
179 179 179
179 179 179
179 179 179
179 179 179
179 179 179
179 179 179
179 179 179
179 179 179
179 179 179
179 179 179
179 179 179
179 179 179
179 179 179
179 179 179
179 179 179
179 179 179
179 179 179
179 179 179
179 179 179
179 179 179
179 179 179
179 179 179
179 179 179
179 179 179
179 179 179
179 179 179
179 179 179
179 179 179
179 179 179
179 179 179
179 179 179
179 179 179
179 179 179
179 179 179
179 179 179
179 179 179
179 179 179
179 179 179
179 179 179
179 179 179
179 179 179
179 179 179
179 179 179
179 179 179
179 179 179
179 179 179
179 179 179
179 179 179
179 179 179
179 179 179
179 179 179
179 179 179
179 179 179
179 179 179
179 179 179
179 179 179
179 179 179
179 179 179
179 179 179
179 179 179
179 179 179
179 179 179
179 179 179
179 179 179
179 179 179
179 179 179
179 179 179
179 179 179
179 179 179
179 179 179
179 179 179
179 179 179
179 179 179
179 179 179
179 179 179
179 179 179
179 179 179
179 179 179
179 179 179
179 179 179
179 179 179
179 179 179
179 179 179
179 179 179
179 179 179
179 179 179
179 179 179
179 179 179
179 179 179
179 179 179
179 179 179
179 179 179
179 179 179
179 179 179
179 179 179
179 179 179
179 179 179
179 179 179
179 179 179
179 179 179
179 179 179
179 179 179
179 179 179
179 179 179
179 179 179
179 179 179
179 179 179
179 179 179
179 179 179
179 179 179
179 179 179
179 179 179
179 179 179
179 179 179
179 179 179
179 179 179
179 179 179
179 179 179
179 179 179
179 179 179
0 0 0
0 0 0
0 0 0
0 0 0
0 0 0
0 0 0
0 0 0
0 0 0
0 0 0
0 0 0
0 0 0
0 0 0
0 0 0
0 0 0
0 0 0
0 0 0
0 0 0
0 0 0
0 0 0
0 0 0
0 0 0
0 0 0
0 0 0
0 0 0
0 0 0
0 0 0
0 0 0
0 0 0
0 0 0
0 0 0
0 0 0
0 0 0
0 0 0
0 0 0
0 0 0
0 0 0
0 0 0
0 0 0
0 0 0
0 0 0
0 0 0
0 0 0
0 0 0
0 0 0
0 0 0
0 0 0
0 0 0
0 0 0
0 0 0
0 0 0
0 0 0
0 0 0
0 0 0
0 0 0
0 0 0
0 0 0
0 0 0
0 0 0
0 0 0
0 0 0
0 0 0
0 0 0
0 0 0
0 0 0
0 0 0
0 0 0
0 0 0
0 0 0
0 0 0
0 0 0
0 0 0
0 0 0
0 0 0
0 0 0
0 0 0
0 0 0
0 0 0
0 0 0
0 0 0
0 0 0
0 0 0
0 0 0
0 0 0
0 0 0
0 0 0
0 0 0
0 0 0
0 0 0
0 0 0
0 0 0
0 0 0
0 0 0
0 0 0
0 0 0
0 0 0
0 0 0
0 0 0
0 0 0
0 0 0
0 0 0
0 0 0
0 0 0
0 0 0
0 0 0
0 0 0
0 0 0
0 0 0
0 0 0
0 0 0
0 0 0
0 0 0
0 0 0
0 0 0
0 0 0
0 0 0
0 0 0
0 0 0
0 0 0
0 0 0
0 0 0
0 0 0
0 0 0
0 0 0
0 0 0
0 0 0
0 0 0
0 0 0
0 0 0
0 0 0
0 0 0
0 0 0
0 0 0
0 0 0
0 0 0
0 0 0
0 0 0
0 0 0
0 0 0
0 0 0
0 0 0
0 0 0
0 0 0
0 0 0
0 0 0
0 0 0
0 0 0
0 0 0
0 0 0
0 0 0
0 0 0
0 0 0
0 0 0
0 0 0
0 0 0
0 0 0
0 0 0
0 0 0
0 0 0
0 0 0
0 0 0
0 0 0
0 0 0
0 0 0
0 0 0
0 0 0
0 0 0
0 0 0
0 0 0
0 0 0
0 0 0
0 0 0
0 0 0
0 0 0
0 0 0
0 0 0
0 0 0
0 0 0
0 0 0
0 0 0
0 0 0
0 0 0
0 0 0
0 0 0
0 0 0
0 0 0
0 0 0
0 0 0
0 0 0
0 0 0
0 0 0
0 0 0
0 0 0
0 0 0
0 0 0
0 0 0
0 0 0
0 0 0
0 0 0
0 0 0
0 0 0
0 0 0
0 0 0
0 0 0
0 0 0
179 179 179
179 179 179
179 179 179
179 179 179
179 179 179
179 179 179
179 179 179
179 179 179
179 179 179
179 179 179
179 179 179
179 179 179
179 179 179
179 179 179
179 179 179
179 179 179
179 179 179
179 179 179
179 179 179
179 179 179
179 179 179
179 179 179
179 179 179
179 179 179
179 179 179
179 179 179
179 179 179
179 179 179
179 179 179
179 179 179
179 179 179
179 179 179
179 179 179
179 179 179
179 179 179
179 179 179
179 179 179
179 179 179
179 179 179
179 179 179
179 179 179
179 179 179
179 179 179
179 179 179
179 179 179
179 179 179
179 179 179
179 179 179
179 179 179
179 179 179
179 179 179
179 179 179
179 179 179
179 179 179
179 179 179
179 179 179
179 179 179
179 179 179
179 179 179
179 179 179
179 179 179
179 179 179
179 179 179
179 179 179
179 179 179
179 179 179
179 179 179
179 179 179
179 179 179
179 179 179
179 179 179
179 179 179
179 179 179
179 179 179
179 179 179
179 179 179
179 179 179
179 179 179
179 179 179
179 179 179
179 179 179
179 179 179
179 179 179
179 179 179
179 179 179
179 179 179
179 179 179
179 179 179
179 179 179
179 179 179
179 179 179
179 179 179
179 179 179
179 179 179
179 179 179
179 179 179
179 179 179
179 179 179
179 179 179
179 179 179
179 179 179
179 179 179
179 179 179
179 179 179
179 179 179
179 179 179
179 179 179
179 179 179
179 179 179
179 179 179
179 179 179
179 179 179
179 179 179
179 179 179
179 179 179
179 179 179
179 179 179
179 179 179
179 179 179
179 179 179
179 179 179
179 179 179
179 179 179
179 179 179
179 179 179
179 179 179
179 179 179
179 179 179
179 179 179
179 179 179
179 179 179
179 179 179
179 179 179
179 179 179
179 179 179
179 179 179
179 179 179
179 179 179
179 179 179
179 179 179
179 179 179
179 179 179
179 179 179
179 179 179
179 179 179
179 179 179
179 179 179
179 179 179
179 179 179
179 179 179
179 179 179
179 179 179
179 179 179
179 179 179
179 179 179
179 179 179
179 179 179
179 179 179
179 179 179
179 179 179
179 179 179
179 179 179
179 179 179
179 179 179
179 179 179
179 179 179
179 179 179
179 179 179
179 179 179
179 179 179
179 179 179
179 179 179
179 179 179
179 179 179
179 179 179
179 179 179
179 179 179
179 179 179
179 179 179
179 179 179
179 179 179
179 179 179
179 179 179
179 179 179
179 179 179
179 179 179
179 179 179
179 179 179
179 179 179
179 179 179
179 179 179
179 179 179
179 179 179
179 179 179
179 179 179
179 179 179
0 0 0
0 0 0
0 0 0
0 0 0
0 0 0
0 0 0
0 0 0
0 0 0
0 0 0
0 0 0
0 0 0
0 0 0
0 0 0
0 0 0
0 0 0
0 0 0
0 0 0
0 0 0
0 0 0
0 0 0
0 0 0
0 0 0
0 0 0
0 0 0
0 0 0
0 0 0
0 0 0
0 0 0
0 0 0
0 0 0
0 0 0
0 0 0
0 0 0
0 0 0
0 0 0
0 0 0
0 0 0
0 0 0
0 0 0
0 0 0
0 0 0
0 0 0
0 0 0
0 0 0
0 0 0
0 0 0
0 0 0
0 0 0
0 0 0
0 0 0
0 0 0
0 0 0
0 0 0
0 0 0
0 0 0
0 0 0
0 0 0
0 0 0
0 0 0
0 0 0
0 0 0
0 0 0
0 0 0
0 0 0
0 0 0
0 0 0
0 0 0
0 0 0
0 0 0
0 0 0
0 0 0
0 0 0
0 0 0
0 0 0
0 0 0
0 0 0
0 0 0
0 0 0
0 0 0
0 0 0
0 0 0
0 0 0
0 0 0
0 0 0
0 0 0
0 0 0
0 0 0
0 0 0
0 0 0
0 0 0
0 0 0
0 0 0
0 0 0
0 0 0
0 0 0
0 0 0
0 0 0
0 0 0
0 0 0
0 0 0
0 0 0
0 0 0
0 0 0
0 0 0
0 0 0
0 0 0
0 0 0
0 0 0
0 0 0
0 0 0
0 0 0
0 0 0
0 0 0
0 0 0
0 0 0
0 0 0
0 0 0
0 0 0
0 0 0
0 0 0
0 0 0
0 0 0
0 0 0
0 0 0
0 0 0
0 0 0
0 0 0
0 0 0
0 0 0
0 0 0
0 0 0
0 0 0
0 0 0
0 0 0
0 0 0
0 0 0
0 0 0
0 0 0
0 0 0
0 0 0
0 0 0
0 0 0
0 0 0
0 0 0
0 0 0
0 0 0
0 0 0
0 0 0
0 0 0
0 0 0
0 0 0
0 0 0
0 0 0
0 0 0
0 0 0
0 0 0
0 0 0
0 0 0
0 0 0
0 0 0
0 0 0
0 0 0
0 0 0
0 0 0
0 0 0
0 0 0
0 0 0
0 0 0
0 0 0
0 0 0
0 0 0
0 0 0
0 0 0
0 0 0
0 0 0
0 0 0
0 0 0
0 0 0
0 0 0
0 0 0
0 0 0
0 0 0
0 0 0
0 0 0
0 0 0
0 0 0
0 0 0
0 0 0
0 0 0
0 0 0
0 0 0
0 0 0
0 0 0
0 0 0
0 0 0
0 0 0
0 0 0
0 0 0
0 0 0
0 0 0
0 0 0
0 0 0
0 0 0
0 0 0
179 179 179
179 179 179
179 179 179
179 179 179
179 179 179
179 179 179
179 179 179
179 179 179
179 179 179
179 179 179
179 179 179
179 179 179
179 179 179
179 179 179
179 179 179
179 179 179
179 179 179
179 179 179
179 179 179
179 179 179
179 179 179
179 179 179
179 179 179
179 179 179
179 179 179
179 179 179
179 179 179
179 179 179
179 179 179
179 179 179
179 179 179
179 179 179
179 179 179
179 179 179
179 179 179
179 179 179
179 179 179
179 179 179
179 179 179
179 179 179
179 179 179
179 179 179
179 179 179
179 179 179
179 179 179
179 179 179
179 179 179
179 179 179
179 179 179
179 179 179
179 179 179
179 179 179
179 179 179
179 179 179
179 179 179
179 179 179
179 179 179
179 179 179
179 179 179
179 179 179
179 179 179
179 179 179
179 179 179
179 179 179
179 179 179
179 179 179
179 179 179
179 179 179
179 179 179
179 179 179
179 179 179
179 179 179
179 179 179
179 179 179
179 179 179
179 179 179
179 179 179
179 179 179
179 179 179
179 179 179
179 179 179
179 179 179
179 179 179
179 179 179
179 179 179
179 179 179
179 179 179
179 179 179
179 179 179
179 179 179
179 179 179
179 179 179
179 179 179
179 179 179
179 179 179
179 179 179
179 179 179
179 179 179
179 179 179
179 179 179
179 179 179
179 179 179
179 179 179
179 179 179
179 179 179
179 179 179
179 179 179
179 179 179
179 179 179
179 179 179
179 179 179
179 179 179
179 179 179
179 179 179
179 179 179
179 179 179
179 179 179
179 179 179
179 179 179
179 179 179
179 179 179
179 179 179
179 179 179
179 179 179
179 179 179
179 179 179
179 179 179
179 179 179
179 179 179
179 179 179
179 179 179
179 179 179
179 179 179
179 179 179
179 179 179
179 179 179
179 179 179
179 179 179
179 179 179
179 179 179
179 179 179
179 179 179
179 179 179
179 179 179
179 179 179
179 179 179
179 179 179
179 179 179
179 179 179
179 179 179
179 179 179
179 179 179
179 179 179
179 179 179
179 179 179
179 179 179
179 179 179
179 179 179
179 179 179
179 179 179
179 179 179
179 179 179
179 179 179
179 179 179
179 179 179
179 179 179
179 179 179
179 179 179
179 179 179
179 179 179
179 179 179
179 179 179
179 179 179
179 179 179
179 179 179
179 179 179
179 179 179
179 179 179
179 179 179
179 179 179
179 179 179
179 179 179
179 179 179
179 179 179
179 179 179
179 179 179
179 179 179
179 179 179
179 179 179
179 179 179
179 179 179
179 179 179
179 179 179
179 179 179
179 179 179
179 179 179
0 0 0
0 0 0
0 0 0
0 0 0
0 0 0
0 0 0
0 0 0
0 0 0
0 0 0
0 0 0
0 0 0
0 0 0
0 0 0
0 0 0
0 0 0
0 0 0
0 0 0
0 0 0
0 0 0
0 0 0
0 0 0
0 0 0
0 0 0
0 0 0
0 0 0
0 0 0
0 0 0
0 0 0
0 0 0
0 0 0
0 0 0
0 0 0
0 0 0
0 0 0
0 0 0
0 0 0
0 0 0
0 0 0
0 0 0
0 0 0
0 0 0
0 0 0
0 0 0
0 0 0
0 0 0
0 0 0
0 0 0
0 0 0
0 0 0
0 0 0
0 0 0
0 0 0
0 0 0
0 0 0
0 0 0
0 0 0
0 0 0
0 0 0
0 0 0
0 0 0
0 0 0
0 0 0
0 0 0
0 0 0
0 0 0
0 0 0
0 0 0
0 0 0
0 0 0
0 0 0
0 0 0
0 0 0
0 0 0
0 0 0
0 0 0
0 0 0
0 0 0
0 0 0
0 0 0
0 0 0
0 0 0
0 0 0
0 0 0
0 0 0
0 0 0
0 0 0
0 0 0
0 0 0
0 0 0
0 0 0
0 0 0
0 0 0
0 0 0
0 0 0
0 0 0
0 0 0
0 0 0
0 0 0
0 0 0
0 0 0
0 0 0
0 0 0
0 0 0
0 0 0
0 0 0
0 0 0
0 0 0
0 0 0
0 0 0
0 0 0
0 0 0
0 0 0
0 0 0
0 0 0
0 0 0
0 0 0
0 0 0
0 0 0
0 0 0
0 0 0
0 0 0
0 0 0
0 0 0
0 0 0
0 0 0
0 0 0
0 0 0
0 0 0
0 0 0
0 0 0
0 0 0
0 0 0
0 0 0
0 0 0
0 0 0
0 0 0
0 0 0
0 0 0
0 0 0
0 0 0
0 0 0
0 0 0
0 0 0
0 0 0
0 0 0
0 0 0
0 0 0
0 0 0
0 0 0
0 0 0
0 0 0
0 0 0
0 0 0
0 0 0
0 0 0
0 0 0
0 0 0
0 0 0
0 0 0
0 0 0
0 0 0
0 0 0
0 0 0
0 0 0
0 0 0
0 0 0
0 0 0
0 0 0
0 0 0
0 0 0
0 0 0
0 0 0
0 0 0
0 0 0
0 0 0
0 0 0
0 0 0
0 0 0
0 0 0
0 0 0
0 0 0
0 0 0
0 0 0
0 0 0
0 0 0
0 0 0
0 0 0
0 0 0
0 0 0
0 0 0
0 0 0
0 0 0
0 0 0
0 0 0
0 0 0
0 0 0
0 0 0
0 0 0
0 0 0
0 0 0
0 0 0
0 0 0
0 0 0
0 0 0
179 179 179
179 179 179
179 179 179
179 179 179
179 179 179
179 179 179
179 179 179
179 179 179
179 179 179
179 179 179
179 179 179
179 179 179
179 179 179
179 179 179
179 179 179
179 179 179
179 179 179
179 179 179
179 179 179
179 179 179
179 179 179
179 179 179
179 179 179
179 179 179
179 179 179
179 179 179
179 179 179
179 179 179
179 179 179
179 179 179
179 179 179
179 179 179
179 179 179
179 179 179
179 179 179
179 179 179
179 179 179
179 179 179
179 179 179
179 179 179
179 179 179
179 179 179
179 179 179
179 179 179
179 179 179
179 179 179
179 179 179
179 179 179
179 179 179
179 179 179
179 179 179
179 179 179
179 179 179
179 179 179
179 179 179
179 179 179
179 179 179
179 179 179
179 179 179
179 179 179
179 179 179
179 179 179
179 179 179
179 179 179
179 179 179
179 179 179
179 179 179
179 179 179
179 179 179
179 179 179
179 179 179
179 179 179
179 179 179
179 179 179
179 179 179
179 179 179
179 179 179
179 179 179
179 179 179
179 179 179
179 179 179
179 179 179
179 179 179
179 179 179
179 179 179
179 179 179
179 179 179
179 179 179
179 179 179
179 179 179
179 179 179
179 179 179
179 179 179
179 179 179
179 179 179
179 179 179
179 179 179
179 179 179
179 179 179
179 179 179
179 179 179
179 179 179
179 179 179
179 179 179
179 179 179
179 179 179
179 179 179
179 179 179
179 179 179
179 179 179
179 179 179
179 179 179
179 179 179
179 179 179
179 179 179
179 179 179
179 179 179
179 179 179
179 179 179
179 179 179
179 179 179
179 179 179
179 179 179
179 179 179
179 179 179
179 179 179
179 179 179
179 179 179
179 179 179
179 179 179
179 179 179
179 179 179
179 179 179
179 179 179
179 179 179
179 179 179
179 179 179
179 179 179
179 179 179
179 179 179
179 179 179
179 179 179
179 179 179
179 179 179
179 179 179
179 179 179
179 179 179
179 179 179
179 179 179
179 179 179
179 179 179
179 179 179
179 179 179
179 179 179
179 179 179
179 179 179
179 179 179
179 179 179
179 179 179
179 179 179
179 179 179
179 179 179
179 179 179
179 179 179
179 179 179
179 179 179
179 179 179
179 179 179
179 179 179
179 179 179
179 179 179
179 179 179
179 179 179
179 179 179
179 179 179
179 179 179
179 179 179
179 179 179
179 179 179
179 179 179
179 179 179
179 179 179
179 179 179
179 179 179
179 179 179
179 179 179
179 179 179
179 179 179
179 179 179
179 179 179
179 179 179
179 179 179
179 179 179
179 179 179
179 179 179
179 179 179
0 0 0
0 0 0
0 0 0
0 0 0
0 0 0
0 0 0
0 0 0
0 0 0
0 0 0
0 0 0
0 0 0
0 0 0
0 0 0
0 0 0
0 0 0
0 0 0
0 0 0
0 0 0
0 0 0
0 0 0
0 0 0
0 0 0
0 0 0
0 0 0
0 0 0
0 0 0
0 0 0
0 0 0
0 0 0
0 0 0
0 0 0
0 0 0
0 0 0
0 0 0
0 0 0
0 0 0
0 0 0
0 0 0
0 0 0
0 0 0
0 0 0
0 0 0
0 0 0
0 0 0
0 0 0
0 0 0
0 0 0
0 0 0
0 0 0
0 0 0
0 0 0
0 0 0
0 0 0
0 0 0
0 0 0
0 0 0
0 0 0
0 0 0
0 0 0
0 0 0
0 0 0
0 0 0
0 0 0
0 0 0
0 0 0
0 0 0
0 0 0
0 0 0
0 0 0
0 0 0
0 0 0
0 0 0
0 0 0
0 0 0
0 0 0
0 0 0
0 0 0
0 0 0
0 0 0
0 0 0
0 0 0
0 0 0
0 0 0
0 0 0
0 0 0
0 0 0
0 0 0
0 0 0
0 0 0
0 0 0
0 0 0
0 0 0
0 0 0
0 0 0
0 0 0
0 0 0
0 0 0
0 0 0
0 0 0
0 0 0
0 0 0
0 0 0
0 0 0
0 0 0
0 0 0
0 0 0
0 0 0
0 0 0
0 0 0
0 0 0
0 0 0
0 0 0
0 0 0
0 0 0
0 0 0
0 0 0
0 0 0
0 0 0
0 0 0
0 0 0
0 0 0
0 0 0
0 0 0
0 0 0
0 0 0
0 0 0
0 0 0
0 0 0
0 0 0
0 0 0
0 0 0
0 0 0
0 0 0
0 0 0
0 0 0
0 0 0
0 0 0
0 0 0
0 0 0
0 0 0
0 0 0
0 0 0
0 0 0
0 0 0
0 0 0
0 0 0
0 0 0
0 0 0
0 0 0
0 0 0
0 0 0
0 0 0
0 0 0
0 0 0
0 0 0
0 0 0
0 0 0
0 0 0
0 0 0
0 0 0
0 0 0
0 0 0
0 0 0
0 0 0
0 0 0
0 0 0
0 0 0
0 0 0
0 0 0
0 0 0
0 0 0
0 0 0
0 0 0
0 0 0
0 0 0
0 0 0
0 0 0
0 0 0
0 0 0
0 0 0
0 0 0
0 0 0
0 0 0
0 0 0
0 0 0
0 0 0
0 0 0
0 0 0
0 0 0
0 0 0
0 0 0
0 0 0
0 0 0
0 0 0
0 0 0
0 0 0
0 0 0
0 0 0
0 0 0
0 0 0
0 0 0
0 0 0
0 0 0
0 0 0
179 179 179
179 179 179
179 179 179
179 179 179
179 179 179
179 179 179
179 179 179
179 179 179
179 179 179
179 179 179
179 179 179
179 179 179
179 179 179
179 179 179
179 179 179
179 179 179
179 179 179
179 179 179
179 179 179
179 179 179
179 179 179
179 179 179
179 179 179
179 179 179
179 179 179
179 179 179
179 179 179
179 179 179
179 179 179
179 179 179
179 179 179
179 179 179
179 179 179
179 179 179
179 179 179
179 179 179
179 179 179
179 179 179
179 179 179
179 179 179
179 179 179
179 179 179
179 179 179
179 179 179
179 179 179
179 179 179
179 179 179
179 179 179
179 179 179
179 179 179
179 179 179
179 179 179
179 179 179
179 179 179
179 179 179
179 179 179
179 179 179
179 179 179
179 179 179
179 179 179
179 179 179
179 179 179
179 179 179
179 179 179
179 179 179
179 179 179
179 179 179
179 179 179
179 179 179
179 179 179
179 179 179
179 179 179
179 179 179
179 179 179
179 179 179
179 179 179
179 179 179
179 179 179
179 179 179
179 179 179
179 179 179
179 179 179
179 179 179
179 179 179
179 179 179
179 179 179
179 179 179
179 179 179
179 179 179
179 179 179
179 179 179
179 179 179
179 179 179
179 179 179
179 179 179
179 179 179
179 179 179
179 179 179
179 179 179
179 179 179
179 179 179
179 179 179
179 179 179
179 179 179
179 179 179
179 179 179
179 179 179
179 179 179
179 179 179
179 179 179
179 179 179
179 179 179
179 179 179
179 179 179
179 179 179
179 179 179
179 179 179
179 179 179
179 179 179
179 179 179
179 179 179
179 179 179
179 179 179
179 179 179
179 179 179
179 179 179
179 179 179
179 179 179
179 179 179
179 179 179
179 179 179
179 179 179
179 179 179
179 179 179
179 179 179
179 179 179
179 179 179
179 179 179
179 179 179
179 179 179
179 179 179
179 179 179
179 179 179
179 179 179
179 179 179
179 179 179
179 179 179
179 179 179
179 179 179
179 179 179
179 179 179
179 179 179
179 179 179
179 179 179
179 179 179
179 179 179
179 179 179
179 179 179
179 179 179
179 179 179
179 179 179
179 179 179
179 179 179
179 179 179
179 179 179
179 179 179
179 179 179
179 179 179
179 179 179
179 179 179
179 179 179
179 179 179
179 179 179
179 179 179
179 179 179
179 179 179
179 179 179
179 179 179
179 179 179
179 179 179
179 179 179
179 179 179
179 179 179
179 179 179
179 179 179
179 179 179
179 179 179
179 179 179
179 179 179
179 179 179
179 179 179
179 179 179
179 179 179
179 179 179
179 179 179
179 179 179
179 179 179
0 0 0
0 0 0
0 0 0
0 0 0
0 0 0
0 0 0
0 0 0
0 0 0
0 0 0
0 0 0
0 0 0
0 0 0
0 0 0
0 0 0
0 0 0
0 0 0
0 0 0
0 0 0
0 0 0
0 0 0
0 0 0
0 0 0
0 0 0
0 0 0
0 0 0
0 0 0
0 0 0
0 0 0
0 0 0
0 0 0
0 0 0
0 0 0
0 0 0
0 0 0
0 0 0
0 0 0
0 0 0
0 0 0
0 0 0
0 0 0
0 0 0
0 0 0
0 0 0
0 0 0
0 0 0
0 0 0
0 0 0
0 0 0
0 0 0
0 0 0
0 0 0
0 0 0
0 0 0
0 0 0
0 0 0
0 0 0
0 0 0
0 0 0
0 0 0
0 0 0
0 0 0
0 0 0
0 0 0
0 0 0
0 0 0
0 0 0
0 0 0
0 0 0
0 0 0
0 0 0
0 0 0
0 0 0
0 0 0
0 0 0
0 0 0
0 0 0
0 0 0
0 0 0
0 0 0
0 0 0
0 0 0
0 0 0
0 0 0
0 0 0
0 0 0
0 0 0
0 0 0
0 0 0
0 0 0
0 0 0
0 0 0
0 0 0
0 0 0
0 0 0
0 0 0
0 0 0
0 0 0
0 0 0
0 0 0
0 0 0
0 0 0
0 0 0
0 0 0
0 0 0
0 0 0
0 0 0
0 0 0
0 0 0
0 0 0
0 0 0
0 0 0
0 0 0
0 0 0
0 0 0
0 0 0
0 0 0
0 0 0
0 0 0
0 0 0
0 0 0
0 0 0
0 0 0
0 0 0
0 0 0
0 0 0
0 0 0
0 0 0
0 0 0
0 0 0
0 0 0
0 0 0
0 0 0
0 0 0
0 0 0
0 0 0
0 0 0
0 0 0
0 0 0
0 0 0
0 0 0
0 0 0
0 0 0
0 0 0
0 0 0
0 0 0
0 0 0
0 0 0
0 0 0
0 0 0
0 0 0
0 0 0
0 0 0
0 0 0
0 0 0
0 0 0
0 0 0
0 0 0
0 0 0
0 0 0
0 0 0
0 0 0
0 0 0
0 0 0
0 0 0
0 0 0
0 0 0
0 0 0
0 0 0
0 0 0
0 0 0
0 0 0
0 0 0
0 0 0
0 0 0
0 0 0
0 0 0
0 0 0
0 0 0
0 0 0
0 0 0
0 0 0
0 0 0
0 0 0
0 0 0
0 0 0
0 0 0
0 0 0
0 0 0
0 0 0
0 0 0
0 0 0
0 0 0
0 0 0
0 0 0
0 0 0
0 0 0
0 0 0
0 0 0
0 0 0
0 0 0
0 0 0
0 0 0
179 179 179
179 179 179
179 179 179
179 179 179
179 179 179
179 179 179
179 179 179
179 179 179
179 179 179
179 179 179
179 179 179
179 179 179
179 179 179
179 179 179
179 179 179
179 179 179
179 179 179
179 179 179
179 179 179
179 179 179
179 179 179
179 179 179
179 179 179
179 179 179
179 179 179
179 179 179
179 179 179
179 179 179
179 179 179
179 179 179
179 179 179
179 179 179
179 179 179
179 179 179
179 179 179
179 179 179
179 179 179
179 179 179
179 179 179
179 179 179
179 179 179
179 179 179
179 179 179
179 179 179
179 179 179
179 179 179
179 179 179
179 179 179
179 179 179
179 179 179
179 179 179
179 179 179
179 179 179
179 179 179
179 179 179
179 179 179
179 179 179
179 179 179
179 179 179
179 179 179
179 179 179
179 179 179
179 179 179
179 179 179
179 179 179
179 179 179
179 179 179
179 179 179
179 179 179
179 179 179
179 179 179
179 179 179
179 179 179
179 179 179
179 179 179
179 179 179
179 179 179
179 179 179
179 179 179
179 179 179
179 179 179
179 179 179
179 179 179
179 179 179
179 179 179
179 179 179
179 179 179
179 179 179
179 179 179
179 179 179
179 179 179
179 179 179
179 179 179
179 179 179
179 179 179
179 179 179
179 179 179
179 179 179
179 179 179
179 179 179
179 179 179
179 179 179
179 179 179
179 179 179
179 179 179
179 179 179
179 179 179
179 179 179
179 179 179
179 179 179
179 179 179
179 179 179
179 179 179
179 179 179
179 179 179
179 179 179
179 179 179
179 179 179
179 179 179
179 179 179
179 179 179
179 179 179
179 179 179
179 179 179
179 179 179
179 179 179
179 179 179
179 179 179
179 179 179
179 179 179
179 179 179
179 179 179
179 179 179
179 179 179
179 179 179
179 179 179
179 179 179
179 179 179
179 179 179
179 179 179
179 179 179
179 179 179
179 179 179
179 179 179
179 179 179
179 179 179
179 179 179
179 179 179
179 179 179
179 179 179
179 179 179
179 179 179
179 179 179
179 179 179
179 179 179
179 179 179
179 179 179
179 179 179
179 179 179
179 179 179
179 179 179
179 179 179
179 179 179
179 179 179
179 179 179
179 179 179
179 179 179
179 179 179
179 179 179
179 179 179
179 179 179
179 179 179
179 179 179
179 179 179
179 179 179
179 179 179
179 179 179
179 179 179
179 179 179
179 179 179
179 179 179
179 179 179
179 179 179
179 179 179
179 179 179
179 179 179
179 179 179
179 179 179
179 179 179
179 179 179
179 179 179
179 179 179
179 179 179
179 179 179
179 179 179
179 179 179
179 179 179
179 179 179
0 0 0
0 0 0
0 0 0
0 0 0
0 0 0
0 0 0
0 0 0
0 0 0
0 0 0
0 0 0
0 0 0
0 0 0
0 0 0
0 0 0
0 0 0
0 0 0
0 0 0
0 0 0
0 0 0
0 0 0
0 0 0
0 0 0
0 0 0
0 0 0
0 0 0
0 0 0
0 0 0
0 0 0
0 0 0
0 0 0
0 0 0
0 0 0
0 0 0
0 0 0
0 0 0
0 0 0
0 0 0
0 0 0
0 0 0
0 0 0
0 0 0
0 0 0
0 0 0
0 0 0
0 0 0
0 0 0
0 0 0
0 0 0
0 0 0
0 0 0
0 0 0
0 0 0
0 0 0
0 0 0
0 0 0
0 0 0
0 0 0
0 0 0
0 0 0
0 0 0
0 0 0
0 0 0
0 0 0
0 0 0
0 0 0
0 0 0
0 0 0
0 0 0
0 0 0
0 0 0
0 0 0
0 0 0
0 0 0
0 0 0
0 0 0
0 0 0
0 0 0
0 0 0
0 0 0
0 0 0
0 0 0
0 0 0
0 0 0
0 0 0
0 0 0
0 0 0
0 0 0
0 0 0
0 0 0
0 0 0
0 0 0
0 0 0
0 0 0
0 0 0
0 0 0
0 0 0
0 0 0
0 0 0
0 0 0
0 0 0
0 0 0
0 0 0
0 0 0
0 0 0
0 0 0
0 0 0
0 0 0
0 0 0
0 0 0
0 0 0
0 0 0
0 0 0
0 0 0
0 0 0
0 0 0
0 0 0
0 0 0
0 0 0
0 0 0
0 0 0
0 0 0
0 0 0
0 0 0
0 0 0
0 0 0
0 0 0
0 0 0
0 0 0
0 0 0
0 0 0
0 0 0
0 0 0
0 0 0
0 0 0
0 0 0
0 0 0
0 0 0
0 0 0
0 0 0
0 0 0
0 0 0
0 0 0
0 0 0
0 0 0
0 0 0
0 0 0
0 0 0
0 0 0
0 0 0
0 0 0
0 0 0
0 0 0
0 0 0
0 0 0
0 0 0
0 0 0
0 0 0
0 0 0
0 0 0
0 0 0
0 0 0
0 0 0
0 0 0
0 0 0
0 0 0
0 0 0
0 0 0
0 0 0
0 0 0
0 0 0
0 0 0
0 0 0
0 0 0
0 0 0
0 0 0
0 0 0
0 0 0
0 0 0
0 0 0
0 0 0
0 0 0
0 0 0
0 0 0
0 0 0
0 0 0
0 0 0
0 0 0
0 0 0
0 0 0
0 0 0
0 0 0
0 0 0
0 0 0
0 0 0
0 0 0
0 0 0
0 0 0
0 0 0
0 0 0
0 0 0
0 0 0
0 0 0
179 179 179
179 179 179
179 179 179
179 179 179
179 179 179
179 179 179
179 179 179
179 179 179
179 179 179
179 179 179
179 179 179
179 179 179
179 179 179
179 179 179
179 179 179
179 179 179
179 179 179
179 179 179
179 179 179
179 179 179
179 179 179
179 179 179
179 179 179
179 179 179
179 179 179
179 179 179
179 179 179
179 179 179
179 179 179
179 179 179
179 179 179
179 179 179
179 179 179
179 179 179
179 179 179
179 179 179
179 179 179
179 179 179
179 179 179
179 179 179
179 179 179
179 179 179
179 179 179
179 179 179
179 179 179
179 179 179
179 179 179
179 179 179
179 179 179
179 179 179
179 179 179
179 179 179
179 179 179
179 179 179
179 179 179
179 179 179
179 179 179
179 179 179
179 179 179
179 179 179
179 179 179
179 179 179
179 179 179
179 179 179
179 179 179
179 179 179
179 179 179
179 179 179
179 179 179
179 179 179
179 179 179
179 179 179
179 179 179
179 179 179
179 179 179
179 179 179
179 179 179
179 179 179
179 179 179
179 179 179
179 179 179
179 179 179
179 179 179
179 179 179
179 179 179
179 179 179
179 179 179
179 179 179
179 179 179
179 179 179
179 179 179
179 179 179
179 179 179
179 179 179
179 179 179
179 179 179
179 179 179
179 179 179
179 179 179
179 179 179
179 179 179
179 179 179
179 179 179
179 179 179
179 179 179
179 179 179
179 179 179
179 179 179
179 179 179
179 179 179
179 179 179
179 179 179
179 179 179
179 179 179
179 179 179
179 179 179
179 179 179
179 179 179
179 179 179
179 179 179
179 179 179
179 179 179
179 179 179
179 179 179
179 179 179
179 179 179
179 179 179
179 179 179
179 179 179
179 179 179
179 179 179
179 179 179
179 179 179
179 179 179
179 179 179
179 179 179
179 179 179
179 179 179
179 179 179
179 179 179
179 179 179
179 179 179
179 179 179
179 179 179
179 179 179
179 179 179
179 179 179
179 179 179
179 179 179
179 179 179
179 179 179
179 179 179
179 179 179
179 179 179
179 179 179
179 179 179
179 179 179
179 179 179
179 179 179
179 179 179
179 179 179
179 179 179
179 179 179
179 179 179
179 179 179
179 179 179
179 179 179
179 179 179
179 179 179
179 179 179
179 179 179
179 179 179
179 179 179
179 179 179
179 179 179
179 179 179
179 179 179
179 179 179
179 179 179
179 179 179
179 179 179
179 179 179
179 179 179
179 179 179
179 179 179
179 179 179
179 179 179
179 179 179
179 179 179
179 179 179
179 179 179
179 179 179
179 179 179
179 179 179
179 179 179
179 179 179
179 179 179
179 179 179
0 0 0
0 0 0
0 0 0
0 0 0
0 0 0
0 0 0
0 0 0
0 0 0
0 0 0
0 0 0
0 0 0
0 0 0
0 0 0
0 0 0
0 0 0
0 0 0
0 0 0
0 0 0
0 0 0
0 0 0
0 0 0
0 0 0
0 0 0
0 0 0
0 0 0
0 0 0
0 0 0
0 0 0
0 0 0
0 0 0
0 0 0
0 0 0
0 0 0
0 0 0
0 0 0
0 0 0
0 0 0
0 0 0
0 0 0
0 0 0
0 0 0
0 0 0
0 0 0
0 0 0
0 0 0
0 0 0
0 0 0
0 0 0
0 0 0
0 0 0
0 0 0
0 0 0
0 0 0
0 0 0
0 0 0
0 0 0
0 0 0
0 0 0
0 0 0
0 0 0
0 0 0
0 0 0
0 0 0
0 0 0
0 0 0
0 0 0
0 0 0
0 0 0
0 0 0
0 0 0
0 0 0
0 0 0
0 0 0
0 0 0
0 0 0
0 0 0
0 0 0
0 0 0
0 0 0
0 0 0
0 0 0
0 0 0
0 0 0
0 0 0
0 0 0
0 0 0
0 0 0
0 0 0
0 0 0
0 0 0
0 0 0
0 0 0
0 0 0
0 0 0
0 0 0
0 0 0
0 0 0
0 0 0
0 0 0
0 0 0
0 0 0
0 0 0
0 0 0
0 0 0
0 0 0
0 0 0
0 0 0
0 0 0
0 0 0
0 0 0
0 0 0
0 0 0
0 0 0
0 0 0
0 0 0
0 0 0
0 0 0
0 0 0
0 0 0
0 0 0
0 0 0
0 0 0
0 0 0
0 0 0
0 0 0
0 0 0
0 0 0
0 0 0
0 0 0
0 0 0
0 0 0
0 0 0
0 0 0
0 0 0
0 0 0
0 0 0
0 0 0
0 0 0
0 0 0
0 0 0
0 0 0
0 0 0
0 0 0
0 0 0
0 0 0
0 0 0
0 0 0
0 0 0
0 0 0
0 0 0
0 0 0
0 0 0
0 0 0
0 0 0
0 0 0
0 0 0
0 0 0
0 0 0
0 0 0
0 0 0
0 0 0
0 0 0
0 0 0
0 0 0
0 0 0
0 0 0
0 0 0
0 0 0
0 0 0
0 0 0
0 0 0
0 0 0
0 0 0
0 0 0
0 0 0
0 0 0
0 0 0
0 0 0
0 0 0
0 0 0
0 0 0
0 0 0
0 0 0
0 0 0
0 0 0
0 0 0
0 0 0
0 0 0
0 0 0
0 0 0
0 0 0
0 0 0
0 0 0
0 0 0
0 0 0
0 0 0
0 0 0
0 0 0
0 0 0
0 0 0
0 0 0
0 0 0
179 179 179
179 179 179
179 179 179
179 179 179
179 179 179
179 179 179
179 179 179
179 179 179
179 179 179
179 179 179
179 179 179
179 179 179
179 179 179
179 179 179
179 179 179
179 179 179
179 179 179
179 179 179
179 179 179
179 179 179
179 179 179
179 179 179
179 179 179
179 179 179
179 179 179
179 179 179
179 179 179
179 179 179
179 179 179
179 179 179
179 179 179
179 179 179
179 179 179
179 179 179
179 179 179
179 179 179
179 179 179
179 179 179
179 179 179
179 179 179
179 179 179
179 179 179
179 179 179
179 179 179
179 179 179
179 179 179
179 179 179
179 179 179
179 179 179
179 179 179
179 179 179
179 179 179
179 179 179
179 179 179
179 179 179
179 179 179
179 179 179
179 179 179
179 179 179
179 179 179
179 179 179
179 179 179
179 179 179
179 179 179
179 179 179
179 179 179
179 179 179
179 179 179
179 179 179
179 179 179
179 179 179
179 179 179
179 179 179
179 179 179
179 179 179
179 179 179
179 179 179
179 179 179
179 179 179
179 179 179
179 179 179
179 179 179
179 179 179
179 179 179
179 179 179
179 179 179
179 179 179
179 179 179
179 179 179
179 179 179
179 179 179
179 179 179
179 179 179
179 179 179
179 179 179
179 179 179
179 179 179
179 179 179
179 179 179
179 179 179
179 179 179
179 179 179
179 179 179
179 179 179
179 179 179
179 179 179
179 179 179
179 179 179
179 179 179
179 179 179
179 179 179
179 179 179
179 179 179
179 179 179
179 179 179
179 179 179
179 179 179
179 179 179
179 179 179
179 179 179
179 179 179
179 179 179
179 179 179
179 179 179
179 179 179
179 179 179
179 179 179
179 179 179
179 179 179
179 179 179
179 179 179
179 179 179
179 179 179
179 179 179
179 179 179
179 179 179
179 179 179
179 179 179
179 179 179
179 179 179
179 179 179
179 179 179
179 179 179
179 179 179
179 179 179
179 179 179
179 179 179
179 179 179
179 179 179
179 179 179
179 179 179
179 179 179
179 179 179
179 179 179
179 179 179
179 179 179
179 179 179
179 179 179
179 179 179
179 179 179
179 179 179
179 179 179
179 179 179
179 179 179
179 179 179
179 179 179
179 179 179
179 179 179
179 179 179
179 179 179
179 179 179
179 179 179
179 179 179
179 179 179
179 179 179
179 179 179
179 179 179
179 179 179
179 179 179
179 179 179
179 179 179
179 179 179
179 179 179
179 179 179
179 179 179
179 179 179
179 179 179
179 179 179
179 179 179
179 179 179
179 179 179
179 179 179
179 179 179
179 179 179
179 179 179
179 179 179
179 179 179
179 179 179
179 179 179
0 0 0
0 0 0
0 0 0
0 0 0
0 0 0
0 0 0
0 0 0
0 0 0
0 0 0
0 0 0
0 0 0
0 0 0
0 0 0
0 0 0
0 0 0
0 0 0
0 0 0
0 0 0
0 0 0
0 0 0
0 0 0
0 0 0
0 0 0
0 0 0
0 0 0
0 0 0
0 0 0
0 0 0
0 0 0
0 0 0
0 0 0
0 0 0
0 0 0
0 0 0
0 0 0
0 0 0
0 0 0
0 0 0
0 0 0
0 0 0
0 0 0
0 0 0
0 0 0
0 0 0
0 0 0
0 0 0
0 0 0
0 0 0
0 0 0
0 0 0
0 0 0
0 0 0
0 0 0
0 0 0
0 0 0
0 0 0
0 0 0
0 0 0
0 0 0
0 0 0
0 0 0
0 0 0
0 0 0
0 0 0
0 0 0
0 0 0
0 0 0
0 0 0
0 0 0
0 0 0
0 0 0
0 0 0
0 0 0
0 0 0
0 0 0
0 0 0
0 0 0
0 0 0
0 0 0
0 0 0
0 0 0
0 0 0
0 0 0
0 0 0
0 0 0
0 0 0
0 0 0
0 0 0
0 0 0
0 0 0
0 0 0
0 0 0
0 0 0
0 0 0
0 0 0
0 0 0
0 0 0
0 0 0
0 0 0
0 0 0
0 0 0
0 0 0
0 0 0
0 0 0
0 0 0
0 0 0
0 0 0
0 0 0
0 0 0
0 0 0
0 0 0
0 0 0
0 0 0
0 0 0
0 0 0
0 0 0
0 0 0
0 0 0
0 0 0
0 0 0
0 0 0
0 0 0
0 0 0
0 0 0
0 0 0
0 0 0
0 0 0
0 0 0
0 0 0
0 0 0
0 0 0
0 0 0
0 0 0
0 0 0
0 0 0
0 0 0
0 0 0
0 0 0
0 0 0
0 0 0
0 0 0
0 0 0
0 0 0
0 0 0
0 0 0
0 0 0
0 0 0
0 0 0
0 0 0
0 0 0
0 0 0
0 0 0
0 0 0
0 0 0
0 0 0
0 0 0
0 0 0
0 0 0
0 0 0
0 0 0
0 0 0
0 0 0
0 0 0
0 0 0
0 0 0
0 0 0
0 0 0
0 0 0
0 0 0
0 0 0
0 0 0
0 0 0
0 0 0
0 0 0
0 0 0
0 0 0
0 0 0
0 0 0
0 0 0
0 0 0
0 0 0
0 0 0
0 0 0
0 0 0
0 0 0
0 0 0
0 0 0
0 0 0
0 0 0
0 0 0
0 0 0
0 0 0
0 0 0
0 0 0
0 0 0
0 0 0
0 0 0
0 0 0
0 0 0
0 0 0
179 179 179
179 179 179
179 179 179
179 179 179
179 179 179
179 179 179
179 179 179
179 179 179
179 179 179
179 179 179
179 179 179
179 179 179
179 179 179
179 179 179
179 179 179
179 179 179
179 179 179
179 179 179
179 179 179
179 179 179
179 179 179
179 179 179
179 179 179
179 179 179
179 179 179
179 179 179
179 179 179
179 179 179
179 179 179
179 179 179
179 179 179
179 179 179
179 179 179
179 179 179
179 179 179
179 179 179
179 179 179
179 179 179
179 179 179
179 179 179
179 179 179
179 179 179
179 179 179
179 179 179
179 179 179
179 179 179
179 179 179
179 179 179
179 179 179
179 179 179
179 179 179
179 179 179
179 179 179
179 179 179
179 179 179
179 179 179
179 179 179
179 179 179
179 179 179
179 179 179
179 179 179
179 179 179
179 179 179
179 179 179
179 179 179
179 179 179
179 179 179
179 179 179
179 179 179
179 179 179
179 179 179
179 179 179
179 179 179
179 179 179
179 179 179
179 179 179
179 179 179
179 179 179
179 179 179
179 179 179
179 179 179
179 179 179
179 179 179
179 179 179
179 179 179
179 179 179
179 179 179
179 179 179
179 179 179
179 179 179
179 179 179
179 179 179
179 179 179
179 179 179
179 179 179
179 179 179
97 3 134
103 2 135
108 1 132
179 179 179
179 179 179
179 179 179
179 179 179
179 179 179
179 179 179
179 179 179
179 179 179
179 179 179
179 179 179
179 179 179
179 179 179
179 179 179
179 179 179
179 179 179
179 179 179
179 179 179
179 179 179
179 179 179
179 179 179
179 179 179
179 179 179
179 179 179
179 179 179
179 179 179
179 179 179
179 179 179
179 179 179
179 179 179
179 179 179
179 179 179
179 179 179
179 179 179
179 179 179
179 179 179
179 179 179
179 179 179
179 179 179
179 179 179
179 179 179
179 179 179
179 179 179
179 179 179
179 179 179
179 179 179
179 179 179
179 179 179
179 179 179
179 179 179
179 179 179
179 179 179
179 179 179
179 179 179
179 179 179
179 179 179
179 179 179
179 179 179
179 179 179
179 179 179
179 179 179
179 179 179
179 179 179
179 179 179
179 179 179
179 179 179
179 179 179
179 179 179
179 179 179
179 179 179
179 179 179
179 179 179
179 179 179
179 179 179
179 179 179
179 179 179
179 179 179
179 179 179
179 179 179
179 179 179
179 179 179
179 179 179
179 179 179
179 179 179
179 179 179
179 179 179
179 179 179
179 179 179
179 179 179
179 179 179
179 179 179
179 179 179
179 179 179
179 179 179
179 179 179
179 179 179
179 179 179
179 179 179
179 179 179
179 179 179
179 179 179
179 179 179
0 0 0
0 0 0
0 0 0
0 0 0
0 0 0
0 0 0
0 0 0
0 0 0
0 0 0
0 0 0
0 0 0
0 0 0
0 0 0
0 0 0
0 0 0
0 0 0
0 0 0
0 0 0
0 0 0
0 0 0
0 0 0
0 0 0
0 0 0
0 0 0
0 0 0
0 0 0
0 0 0
0 0 0
0 0 0
0 0 0
0 0 0
0 0 0
0 0 0
0 0 0
0 0 0
0 0 0
0 0 0
0 0 0
0 0 0
0 0 0
0 0 0
0 0 0
0 0 0
0 0 0
0 0 0
0 0 0
0 0 0
0 0 0
0 0 0
0 0 0
0 0 0
0 0 0
0 0 0
0 0 0
0 0 0
0 0 0
0 0 0
0 0 0
0 0 0
0 0 0
0 0 0
0 0 0
0 0 0
0 0 0
0 0 0
0 0 0
0 0 0
0 0 0
0 0 0
0 0 0
0 0 0
0 0 0
0 0 0
0 0 0
0 0 0
0 0 0
0 0 0
0 0 0
0 0 0
0 0 0
0 0 0
0 0 0
0 0 0
0 0 0
0 0 0
0 0 0
0 0 0
0 0 0
0 0 0
0 0 0
0 0 0
0 0 0
0 0 0
0 0 0
0 0 0
0 0 0
0 0 0
0 0 0
0 0 0
0 0 0
0 0 0
0 0 0
0 0 0
0 0 0
0 0 0
0 0 0
0 0 0
0 0 0
0 0 0
0 0 0
0 0 0
0 0 0
0 0 0
0 0 0
0 0 0
0 0 0
0 0 0
0 0 0
0 0 0
0 0 0
0 0 0
0 0 0
0 0 0
0 0 0
0 0 0
0 0 0
0 0 0
0 0 0
0 0 0
0 0 0
0 0 0
0 0 0
0 0 0
0 0 0
0 0 0
0 0 0
0 0 0
0 0 0
0 0 0
0 0 0
0 0 0
0 0 0
0 0 0
0 0 0
0 0 0
0 0 0
0 0 0
0 0 0
0 0 0
0 0 0
0 0 0
0 0 0
0 0 0
0 0 0
0 0 0
0 0 0
0 0 0
0 0 0
0 0 0
0 0 0
0 0 0
0 0 0
0 0 0
0 0 0
0 0 0
0 0 0
0 0 0
0 0 0
0 0 0
0 0 0
0 0 0
0 0 0
0 0 0
0 0 0
0 0 0
0 0 0
0 0 0
0 0 0
0 0 0
0 0 0
0 0 0
0 0 0
0 0 0
0 0 0
0 0 0
0 0 0
0 0 0
0 0 0
0 0 0
0 0 0
0 0 0
0 0 0
0 0 0
0 0 0
0 0 0
0 0 0
0 0 0
0 0 0
0 0 0
0 0 0
179 179 179
179 179 179
179 179 179
179 179 179
179 179 179
179 179 179
179 179 179
179 179 179
179 179 179
179 179 179
179 179 179
179 179 179
179 179 179
179 179 179
179 179 179
179 179 179
179 179 179
179 179 179
179 179 179
179 179 179
179 179 179
179 179 179
179 179 179
179 179 179
179 179 179
179 179 179
179 179 179
179 179 179
179 179 179
179 179 179
179 179 179
179 179 179
179 179 179
179 179 179
179 179 179
179 179 179
179 179 179
179 179 179
179 179 179
179 179 179
179 179 179
179 179 179
179 179 179
179 179 179
179 179 179
179 179 179
179 179 179
179 179 179
179 179 179
179 179 179
179 179 179
179 179 179
179 179 179
179 179 179
179 179 179
179 179 179
179 179 179
179 179 179
179 179 179
179 179 179
179 179 179
179 179 179
179 179 179
179 179 179
179 179 179
179 179 179
179 179 179
179 179 179
179 179 179
179 179 179
179 179 179
179 179 179
179 179 179
179 179 179
179 179 179
179 179 179
179 179 179
179 179 179
179 179 179
179 179 179
179 179 179
179 179 179
179 179 179
179 179 179
179 179 179
179 179 179
179 179 179
179 179 179
179 179 179
179 179 179
179 179 179
179 179 179
179 179 179
179 179 179
179 179 179
93 5 138
99 3 140
105 2 140
110 1 138
115 0 128
179 179 179
179 179 179
179 179 179
179 179 179
179 179 179
179 179 179
179 179 179
179 179 179
179 179 179
179 179 179
179 179 179
179 179 179
179 179 179
179 179 179
179 179 179
179 179 179
179 179 179
179 179 179
179 179 179
179 179 179
179 179 179
179 179 179
179 179 179
179 179 179
179 179 179
179 179 179
179 179 179
179 179 179
179 179 179
179 179 179
179 179 179
179 179 179
179 179 179
179 179 179
179 179 179
179 179 179
179 179 179
179 179 179
179 179 179
179 179 179
179 179 179
179 179 179
179 179 179
179 179 179
179 179 179
179 179 179
179 179 179
179 179 179
179 179 179
179 179 179
179 179 179
179 179 179
179 179 179
179 179 179
179 179 179
179 179 179
179 179 179
179 179 179
179 179 179
179 179 179
179 179 179
179 179 179
179 179 179
179 179 179
179 179 179
179 179 179
179 179 179
179 179 179
179 179 179
179 179 179
179 179 179
179 179 179
179 179 179
179 179 179
179 179 179
179 179 179
179 179 179
179 179 179
179 179 179
179 179 179
179 179 179
179 179 179
179 179 179
179 179 179
179 179 179
179 179 179
179 179 179
179 179 179
179 179 179
179 179 179
179 179 179
179 179 179
179 179 179
179 179 179
179 179 179
179 179 179
179 179 179
179 179 179
179 179 179
179 179 179
179 179 179
0 0 0
0 0 0
0 0 0
0 0 0
0 0 0
0 0 0
0 0 0
0 0 0
0 0 0
0 0 0
0 0 0
0 0 0
0 0 0
0 0 0
0 0 0
0 0 0
0 0 0
0 0 0
0 0 0
0 0 0
0 0 0
0 0 0
0 0 0
0 0 0
0 0 0
0 0 0
0 0 0
0 0 0
0 0 0
0 0 0
0 0 0
0 0 0
0 0 0
0 0 0
0 0 0
0 0 0
0 0 0
0 0 0
0 0 0
0 0 0
0 0 0
0 0 0
0 0 0
0 0 0
0 0 0
0 0 0
0 0 0
0 0 0
0 0 0
0 0 0
0 0 0
0 0 0
0 0 0
0 0 0
0 0 0
0 0 0
0 0 0
0 0 0
0 0 0
0 0 0
0 0 0
0 0 0
0 0 0
0 0 0
0 0 0
0 0 0
0 0 0
0 0 0
0 0 0
0 0 0
0 0 0
0 0 0
0 0 0
0 0 0
0 0 0
0 0 0
0 0 0
0 0 0
0 0 0
0 0 0
0 0 0
0 0 0
0 0 0
0 0 0
0 0 0
0 0 0
0 0 0
0 0 0
0 0 0
0 0 0
0 0 0
0 0 0
0 0 0
0 0 0
0 0 0
0 0 0
0 0 0
0 0 0
0 0 0
0 0 0
0 0 0
0 0 0
0 0 0
0 0 0
0 0 0
0 0 0
0 0 0
0 0 0
0 0 0
0 0 0
0 0 0
0 0 0
0 0 0
0 0 0
0 0 0
0 0 0
0 0 0
0 0 0
0 0 0
0 0 0
0 0 0
0 0 0
0 0 0
0 0 0
0 0 0
0 0 0
0 0 0
0 0 0
0 0 0
0 0 0
0 0 0
0 0 0
0 0 0
0 0 0
0 0 0
0 0 0
0 0 0
0 0 0
0 0 0
0 0 0
0 0 0
0 0 0
0 0 0
0 0 0
0 0 0
0 0 0
0 0 0
0 0 0
0 0 0
0 0 0
0 0 0
0 0 0
0 0 0
0 0 0
0 0 0
0 0 0
0 0 0
0 0 0
0 0 0
0 0 0
0 0 0
0 0 0
0 0 0
0 0 0
0 0 0
0 0 0
0 0 0
0 0 0
0 0 0
0 0 0
0 0 0
0 0 0
0 0 0
0 0 0
0 0 0
0 0 0
0 0 0
0 0 0
0 0 0
0 0 0
0 0 0
0 0 0
0 0 0
0 0 0
0 0 0
0 0 0
0 0 0
0 0 0
0 0 0
0 0 0
0 0 0
0 0 0
0 0 0
0 0 0
0 0 0
0 0 0
0 0 0
0 0 0
179 179 179
179 179 179
179 179 179
179 179 179
179 179 179
179 179 179
179 179 179
179 179 179
179 179 179
179 179 179
179 179 179
179 179 179
179 179 179
179 179 179
179 179 179
179 179 179
179 179 179
179 179 179
179 179 179
179 179 179
179 179 179
179 179 179
179 179 179
179 179 179
179 179 179
179 179 179
179 179 179
179 179 179
179 179 179
179 179 179
179 179 179
179 179 179
179 179 179
179 179 179
179 179 179
179 179 179
179 179 179
179 179 179
179 179 179
179 179 179
179 179 179
179 179 179
179 179 179
179 179 179
179 179 179
179 179 179
179 179 179
179 179 179
179 179 179
179 179 179
179 179 179
179 179 179
179 179 179
179 179 179
179 179 179
179 179 179
179 179 179
179 179 179
179 179 179
179 179 179
179 179 179
179 179 179
179 179 179
179 179 179
179 179 179
179 179 179
179 179 179
179 179 179
179 179 179
179 179 179
179 179 179
179 179 179
179 179 179
179 179 179
179 179 179
179 179 179
179 179 179
179 179 179
179 179 179
179 179 179
179 179 179
179 179 179
179 179 179
179 179 179
179 179 179
179 179 179
179 179 179
179 179 179
179 179 179
179 179 179
179 179 179
179 179 179
179 179 179
179 179 179
179 179 179
89 6 139
95 5 143
100 4 144
106 2 144
111 1 141
116 0 134
179 179 179
179 179 179
179 179 179
179 179 179
179 179 179
179 179 179
179 179 179
179 179 179
179 179 179
179 179 179
179 179 179
179 179 179
179 179 179
179 179 179
179 179 179
179 179 179
179 179 179
179 179 179
179 179 179
179 179 179
179 179 179
179 179 179
179 179 179
179 179 179
179 179 179
179 179 179
179 179 179
179 179 179
179 179 179
179 179 179
179 179 179
179 179 179
179 179 179
179 179 179
179 179 179
179 179 179
179 179 179
179 179 179
179 179 179
179 179 179
179 179 179
179 179 179
179 179 179
179 179 179
179 179 179
179 179 179
179 179 179
179 179 179
179 179 179
179 179 179
179 179 179
179 179 179
179 179 179
179 179 179
179 179 179
179 179 179
179 179 179
179 179 179
179 179 179
179 179 179
179 179 179
179 179 179
179 179 179
179 179 179
179 179 179
179 179 179
179 179 179
179 179 179
179 179 179
179 179 179
179 179 179
179 179 179
179 179 179
179 179 179
179 179 179
179 179 179
179 179 179
179 179 179
179 179 179
179 179 179
179 179 179
179 179 179
179 179 179
179 179 179
179 179 179
179 179 179
179 179 179
179 179 179
179 179 179
179 179 179
179 179 179
179 179 179
179 179 179
179 179 179
179 179 179
179 179 179
179 179 179
179 179 179
179 179 179
179 179 179
179 179 179
0 0 0
0 0 0
0 0 0
0 0 0
0 0 0
0 0 0
0 0 0
0 0 0
0 0 0
0 0 0
0 0 0
0 0 0
0 0 0
0 0 0
0 0 0
0 0 0
0 0 0
0 0 0
0 0 0
0 0 0
0 0 0
0 0 0
0 0 0
0 0 0
0 0 0
0 0 0
0 0 0
0 0 0
0 0 0
0 0 0
0 0 0
0 0 0
0 0 0
0 0 0
0 0 0
0 0 0
0 0 0
0 0 0
0 0 0
0 0 0
0 0 0
0 0 0
0 0 0
0 0 0
0 0 0
0 0 0
0 0 0
0 0 0
0 0 0
0 0 0
0 0 0
0 0 0
0 0 0
0 0 0
0 0 0
0 0 0
0 0 0
0 0 0
0 0 0
0 0 0
0 0 0
0 0 0
0 0 0
0 0 0
0 0 0
0 0 0
0 0 0
0 0 0
0 0 0
0 0 0
0 0 0
0 0 0
0 0 0
0 0 0
0 0 0
0 0 0
0 0 0
0 0 0
0 0 0
0 0 0
0 0 0
0 0 0
0 0 0
0 0 0
0 0 0
0 0 0
0 0 0
0 0 0
0 0 0
0 0 0
0 0 0
0 0 0
0 0 0
0 0 0
0 0 0
0 0 0
0 0 0
0 0 0
0 0 0
0 0 0
0 0 0
0 0 0
0 0 0
0 0 0
0 0 0
0 0 0
0 0 0
0 0 0
0 0 0
0 0 0
0 0 0
0 0 0
0 0 0
0 0 0
0 0 0
0 0 0
0 0 0
0 0 0
0 0 0
0 0 0
0 0 0
0 0 0
0 0 0
0 0 0
0 0 0
0 0 0
0 0 0
0 0 0
0 0 0
0 0 0
0 0 0
0 0 0
0 0 0
0 0 0
0 0 0
0 0 0
0 0 0
0 0 0
0 0 0
0 0 0
0 0 0
0 0 0
0 0 0
0 0 0
0 0 0
0 0 0
0 0 0
0 0 0
0 0 0
0 0 0
0 0 0
0 0 0
0 0 0
0 0 0
0 0 0
0 0 0
0 0 0
0 0 0
0 0 0
0 0 0
0 0 0
0 0 0
0 0 0
0 0 0
0 0 0
0 0 0
0 0 0
0 0 0
0 0 0
0 0 0
0 0 0
0 0 0
0 0 0
0 0 0
0 0 0
0 0 0
0 0 0
0 0 0
0 0 0
0 0 0
0 0 0
0 0 0
0 0 0
0 0 0
0 0 0
0 0 0
0 0 0
0 0 0
0 0 0
0 0 0
0 0 0
0 0 0
0 0 0
0 0 0
0 0 0
0 0 0
0 0 0
0 0 0
179 179 179
179 179 179
179 179 179
179 179 179
179 179 179
179 179 179
179 179 179
179 179 179
179 179 179
179 179 179
179 179 179
179 179 179
179 179 179
179 179 179
179 179 179
179 179 179
179 179 179
179 179 179
179 179 179
179 179 179
179 179 179
179 179 179
179 179 179
179 179 179
179 179 179
179 179 179
179 179 179
179 179 179
179 179 179
179 179 179
179 179 179
179 179 179
179 179 179
179 179 179
179 179 179
179 179 179
179 179 179
179 179 179
179 179 179
179 179 179
179 179 179
179 179 179
179 179 179
179 179 179
179 179 179
179 179 179
179 179 179
179 179 179
179 179 179
179 179 179
179 179 179
179 179 179
179 179 179
179 179 179
179 179 179
179 179 179
179 179 179
179 179 179
179 179 179
179 179 179
179 179 179
179 179 179
179 179 179
179 179 179
179 179 179
179 179 179
179 179 179
179 179 179
179 179 179
179 179 179
179 179 179
179 179 179
179 179 179
179 179 179
179 179 179
179 179 179
179 179 179
179 179 179
179 179 179
179 179 179
179 179 179
179 179 179
179 179 179
179 179 179
179 179 179
179 179 179
179 179 179
179 179 179
179 179 179
179 179 179
179 179 179
179 179 179
179 179 179
179 179 179
84 8 139
91 6 145
96 5 147
102 4 147
107 2 146
113 1 143
118 0 137
179 179 179
179 179 179
179 179 179
179 179 179
179 179 179
179 179 179
179 179 179
179 179 179
179 179 179
179 179 179
179 179 179
179 179 179
179 179 179
179 179 179
179 179 179
179 179 179
179 179 179
179 179 179
179 179 179
179 179 179
179 179 179
179 179 179
179 179 179
179 179 179
179 179 179
179 179 179
179 179 179
179 179 179
179 179 179
179 179 179
179 179 179
179 179 179
179 179 179
179 179 179
179 179 179
179 179 179
179 179 179
179 179 179
179 179 179
179 179 179
179 179 179
179 179 179
179 179 179
179 179 179
179 179 179
179 179 179
179 179 179
179 179 179
179 179 179
179 179 179
179 179 179
179 179 179
179 179 179
179 179 179
179 179 179
179 179 179
179 179 179
179 179 179
179 179 179
179 179 179
179 179 179
179 179 179
179 179 179
179 179 179
179 179 179
179 179 179
179 179 179
179 179 179
179 179 179
179 179 179
179 179 179
179 179 179
179 179 179
179 179 179
179 179 179
179 179 179
179 179 179
179 179 179
179 179 179
179 179 179
179 179 179
179 179 179
179 179 179
179 179 179
179 179 179
179 179 179
179 179 179
179 179 179
179 179 179
179 179 179
179 179 179
179 179 179
179 179 179
179 179 179
179 179 179
179 179 179
179 179 179
179 179 179
179 179 179
179 179 179
179 179 179
0 0 0
0 0 0
0 0 0
0 0 0
0 0 0
0 0 0
0 0 0
0 0 0
0 0 0
0 0 0
0 0 0
0 0 0
0 0 0
0 0 0
0 0 0
0 0 0
0 0 0
0 0 0
0 0 0
0 0 0
0 0 0
0 0 0
0 0 0
0 0 0
0 0 0
0 0 0
0 0 0
0 0 0
0 0 0
0 0 0
0 0 0
0 0 0
0 0 0
0 0 0
0 0 0
0 0 0
0 0 0
0 0 0
0 0 0
0 0 0
0 0 0
0 0 0
0 0 0
0 0 0
0 0 0
0 0 0
0 0 0
0 0 0
0 0 0
0 0 0
0 0 0
0 0 0
0 0 0
0 0 0
0 0 0
0 0 0
0 0 0
0 0 0
0 0 0
0 0 0
0 0 0
0 0 0
0 0 0
0 0 0
0 0 0
0 0 0
0 0 0
0 0 0
0 0 0
0 0 0
0 0 0
0 0 0
0 0 0
0 0 0
0 0 0
0 0 0
0 0 0
0 0 0
0 0 0
0 0 0
0 0 0
0 0 0
0 0 0
0 0 0
0 0 0
0 0 0
0 0 0
0 0 0
0 0 0
0 0 0
0 0 0
0 0 0
0 0 0
0 0 0
0 0 0
0 0 0
0 0 0
0 0 0
0 0 0
0 0 0
0 0 0
0 0 0
0 0 0
0 0 0
0 0 0
0 0 0
0 0 0
0 0 0
0 0 0
0 0 0
0 0 0
0 0 0
0 0 0
0 0 0
0 0 0
0 0 0
0 0 0
0 0 0
0 0 0
0 0 0
0 0 0
0 0 0
0 0 0
0 0 0
0 0 0
0 0 0
0 0 0
0 0 0
0 0 0
0 0 0
0 0 0
0 0 0
0 0 0
0 0 0
0 0 0
0 0 0
0 0 0
0 0 0
0 0 0
0 0 0
0 0 0
0 0 0
0 0 0
0 0 0
0 0 0
0 0 0
0 0 0
0 0 0
0 0 0
0 0 0
0 0 0
0 0 0
0 0 0
0 0 0
0 0 0
0 0 0
0 0 0
0 0 0
0 0 0
0 0 0
0 0 0
0 0 0
0 0 0
0 0 0
0 0 0
0 0 0
0 0 0
0 0 0
0 0 0
0 0 0
0 0 0
0 0 0
0 0 0
0 0 0
0 0 0
0 0 0
0 0 0
0 0 0
0 0 0
0 0 0
0 0 0
0 0 0
0 0 0
0 0 0
0 0 0
0 0 0
0 0 0
0 0 0
0 0 0
0 0 0
0 0 0
0 0 0
0 0 0
0 0 0
0 0 0
0 0 0
0 0 0
0 0 0
179 179 179
179 179 179
179 179 179
179 179 179
179 179 179
179 179 179
179 179 179
179 179 179
179 179 179
179 179 179
179 179 179
179 179 179
179 179 179
179 179 179
179 179 179
179 179 179
179 179 179
179 179 179
179 179 179
179 179 179
179 179 179
179 179 179
179 179 179
179 179 179
179 179 179
179 179 179
179 179 179
179 179 179
179 179 179
179 179 179
179 179 179
179 179 179
179 179 179
179 179 179
179 179 179
179 179 179
179 179 179
179 179 179
179 179 179
179 179 179
179 179 179
179 179 179
179 179 179
179 179 179
179 179 179
179 179 179
179 179 179
179 179 179
179 179 179
179 179 179
179 179 179
179 179 179
179 179 179
179 179 179
179 179 179
179 179 179
179 179 179
179 179 179
179 179 179
179 179 179
179 179 179
179 179 179
179 179 179
179 179 179
179 179 179
179 179 179
179 179 179
179 179 179
179 179 179
179 179 179
179 179 179
179 179 179
179 179 179
179 179 179
179 179 179
179 179 179
179 179 179
179 179 179
179 179 179
179 179 179
179 179 179
179 179 179
179 179 179
179 179 179
179 179 179
179 179 179
179 179 179
179 179 179
179 179 179
179 179 179
179 179 179
179 179 179
179 179 179
80 9 138
86 8 146
92 6 149
98 5 150
103 4 150
109 3 148
114 1 145
119 0 139
179 179 179
179 179 179
179 179 179
179 179 179
179 179 179
179 179 179
179 179 179
179 179 179
179 179 179
179 179 179
179 179 179
179 179 179
179 179 179
179 179 179
179 179 179
179 179 179
179 179 179
179 179 179
179 179 179
179 179 179
179 179 179
179 179 179
179 179 179
179 179 179
179 179 179
179 179 179
179 179 179
179 179 179
179 179 179
179 179 179
179 179 179
179 179 179
179 179 179
179 179 179
179 179 179
179 179 179
179 179 179
179 179 179
179 179 179
179 179 179
179 179 179
179 179 179
179 179 179
179 179 179
179 179 179
179 179 179
179 179 179
179 179 179
179 179 179
179 179 179
179 179 179
179 179 179
179 179 179
179 179 179
179 179 179
179 179 179
179 179 179
179 179 179
179 179 179
179 179 179
179 179 179
179 179 179
179 179 179
179 179 179
179 179 179
179 179 179
179 179 179
179 179 179
179 179 179
179 179 179
179 179 179
179 179 179
179 179 179
179 179 179
179 179 179
179 179 179
179 179 179
179 179 179
179 179 179
179 179 179
179 179 179
179 179 179
179 179 179
179 179 179
179 179 179
179 179 179
179 179 179
179 179 179
179 179 179
179 179 179
179 179 179
179 179 179
179 179 179
179 179 179
179 179 179
179 179 179
179 179 179
179 179 179
179 179 179
179 179 179
179 179 179
179 179 179
0 0 0
0 0 0
0 0 0
0 0 0
0 0 0
0 0 0
0 0 0
0 0 0
0 0 0
0 0 0
0 0 0
0 0 0
0 0 0
0 0 0
0 0 0
0 0 0
0 0 0
0 0 0
0 0 0
0 0 0
0 0 0
0 0 0
0 0 0
0 0 0
0 0 0
0 0 0
0 0 0
0 0 0
0 0 0
0 0 0
0 0 0
0 0 0
0 0 0
0 0 0
0 0 0
0 0 0
0 0 0
0 0 0
0 0 0
0 0 0
0 0 0
0 0 0
0 0 0
0 0 0
0 0 0
0 0 0
0 0 0
0 0 0
0 0 0
0 0 0
0 0 0
0 0 0
0 0 0
0 0 0
0 0 0
0 0 0
0 0 0
0 0 0
0 0 0
0 0 0
0 0 0
0 0 0
0 0 0
0 0 0
0 0 0
0 0 0
0 0 0
0 0 0
0 0 0
0 0 0
0 0 0
0 0 0
0 0 0
0 0 0
0 0 0
0 0 0
0 0 0
0 0 0
0 0 0
0 0 0
0 0 0
0 0 0
0 0 0
0 0 0
0 0 0
0 0 0
0 0 0
0 0 0
0 0 0
0 0 0
0 0 0
0 0 0
0 0 0
0 0 0
0 0 0
0 0 0
0 0 0
0 0 0
0 0 0
0 0 0
0 0 0
0 0 0
0 0 0
0 0 0
0 0 0
0 0 0
0 0 0
0 0 0
0 0 0
0 0 0
0 0 0
0 0 0
0 0 0
0 0 0
0 0 0
0 0 0
0 0 0
0 0 0
0 0 0
0 0 0
0 0 0
0 0 0
0 0 0
0 0 0
0 0 0
0 0 0
0 0 0
0 0 0
0 0 0
0 0 0
0 0 0
0 0 0
0 0 0
0 0 0
0 0 0
0 0 0
0 0 0
0 0 0
0 0 0
0 0 0
0 0 0
0 0 0
0 0 0
0 0 0
0 0 0
0 0 0
0 0 0
0 0 0
0 0 0
0 0 0
0 0 0
0 0 0
0 0 0
0 0 0
0 0 0
0 0 0
0 0 0
0 0 0
0 0 0
0 0 0
0 0 0
0 0 0
0 0 0
0 0 0
0 0 0
0 0 0
0 0 0
0 0 0
0 0 0
0 0 0
0 0 0
0 0 0
0 0 0
0 0 0
0 0 0
0 0 0
0 0 0
0 0 0
0 0 0
0 0 0
0 0 0
0 0 0
0 0 0
0 0 0
0 0 0
0 0 0
0 0 0
0 0 0
0 0 0
0 0 0
0 0 0
0 0 0
0 0 0
0 0 0
0 0 0
0 0 0
179 179 179
179 179 179
179 179 179
179 179 179
179 179 179
179 179 179
179 179 179
179 179 179
179 179 179
179 179 179
179 179 179
179 179 179
179 179 179
179 179 179
179 179 179
179 179 179
179 179 179
179 179 179
179 179 179
179 179 179
179 179 179
179 179 179
179 179 179
179 179 179
179 179 179
179 179 179
179 179 179
179 179 179
179 179 179
179 179 179
179 179 179
179 179 179
179 179 179
179 179 179
179 179 179
179 179 179
179 179 179
179 179 179
179 179 179
179 179 179
179 179 179
179 179 179
179 179 179
179 179 179
179 179 179
179 179 179
179 179 179
179 179 179
179 179 179
179 179 179
179 179 179
179 179 179
179 179 179
179 179 179
179 179 179
179 179 179
179 179 179
179 179 179
179 179 179
179 179 179
179 179 179
179 179 179
179 179 179
179 179 179
179 179 179
179 179 179
179 179 179
179 179 179
179 179 179
179 179 179
179 179 179
179 179 179
179 179 179
179 179 179
179 179 179
179 179 179
179 179 179
179 179 179
179 179 179
179 179 179
179 179 179
179 179 179
179 179 179
179 179 179
179 179 179
179 179 179
179 179 179
179 179 179
179 179 179
179 179 179
179 179 179
179 179 179
179 179 179
75 11 134
82 9 146
88 8 150
94 6 152
99 5 152
105 4 152
110 3 150
115 2 147
120 0 141
179 179 179
179 179 179
179 179 179
179 179 179
179 179 179
179 179 179
179 179 179
179 179 179
179 179 179
179 179 179
179 179 179
179 179 179
179 179 179
179 179 179
179 179 179
179 179 179
179 179 179
179 179 179
179 179 179
179 179 179
179 179 179
179 179 179
179 179 179
179 179 179
179 179 179
179 179 179
179 179 179
179 179 179
179 179 179
179 179 179
179 179 179
179 179 179
179 179 179
179 179 179
179 179 179
179 179 179
179 179 179
179 179 179
179 179 179
179 179 179
179 179 179
179 179 179
179 179 179
179 179 179
179 179 179
179 179 179
179 179 179
179 179 179
179 179 179
179 179 179
179 179 179
179 179 179
179 179 179
179 179 179
179 179 179
179 179 179
179 179 179
179 179 179
179 179 179
179 179 179
179 179 179
179 179 179
179 179 179
179 179 179
179 179 179
179 179 179
179 179 179
179 179 179
179 179 179
179 179 179
179 179 179
179 179 179
179 179 179
179 179 179
179 179 179
179 179 179
179 179 179
179 179 179
179 179 179
179 179 179
179 179 179
179 179 179
179 179 179
179 179 179
179 179 179
179 179 179
179 179 179
179 179 179
179 179 179
179 179 179
179 179 179
179 179 179
179 179 179
179 179 179
179 179 179
179 179 179
179 179 179
179 179 179
179 179 179
179 179 179
179 179 179
179 179 179
0 0 0
0 0 0
0 0 0
0 0 0
0 0 0
0 0 0
0 0 0
0 0 0
0 0 0
0 0 0
0 0 0
0 0 0
0 0 0
0 0 0
0 0 0
0 0 0
0 0 0
0 0 0
0 0 0
0 0 0
0 0 0
0 0 0
0 0 0
0 0 0
0 0 0
0 0 0
0 0 0
0 0 0
0 0 0
0 0 0
0 0 0
0 0 0
0 0 0
0 0 0
0 0 0
0 0 0
0 0 0
0 0 0
0 0 0
0 0 0
0 0 0
0 0 0
0 0 0
0 0 0
0 0 0
0 0 0
0 0 0
0 0 0
0 0 0
0 0 0
0 0 0
0 0 0
0 0 0
0 0 0
0 0 0
0 0 0
0 0 0
0 0 0
0 0 0
0 0 0
0 0 0
0 0 0
0 0 0
0 0 0
0 0 0
0 0 0
0 0 0
0 0 0
0 0 0
0 0 0
0 0 0
0 0 0
0 0 0
0 0 0
0 0 0
0 0 0
0 0 0
0 0 0
0 0 0
0 0 0
0 0 0
0 0 0
0 0 0
0 0 0
0 0 0
0 0 0
0 0 0
0 0 0
0 0 0
0 0 0
0 0 0
0 0 0
0 0 0
0 0 0
0 0 0
0 0 0
0 0 0
0 0 0
0 0 0
0 0 0
0 0 0
0 0 0
0 0 0
0 0 0
0 0 0
0 0 0
0 0 0
0 0 0
0 0 0
0 0 0
0 0 0
0 0 0
0 0 0
0 0 0
0 0 0
0 0 0
0 0 0
0 0 0
0 0 0
0 0 0
0 0 0
0 0 0
0 0 0
0 0 0
0 0 0
0 0 0
0 0 0
0 0 0
0 0 0
0 0 0
0 0 0
0 0 0
0 0 0
0 0 0
0 0 0
0 0 0
0 0 0
0 0 0
0 0 0
0 0 0
0 0 0
0 0 0
0 0 0
0 0 0
0 0 0
0 0 0
0 0 0
0 0 0
0 0 0
0 0 0
0 0 0
0 0 0
0 0 0
0 0 0
0 0 0
0 0 0
0 0 0
0 0 0
0 0 0
0 0 0
0 0 0
0 0 0
0 0 0
0 0 0
0 0 0
0 0 0
0 0 0
0 0 0
0 0 0
0 0 0
0 0 0
0 0 0
0 0 0
0 0 0
0 0 0
0 0 0
0 0 0
0 0 0
0 0 0
0 0 0
0 0 0
0 0 0
0 0 0
0 0 0
0 0 0
0 0 0
0 0 0
0 0 0
0 0 0
0 0 0
0 0 0
0 0 0
0 0 0
0 0 0
0 0 0
0 0 0
179 179 179
179 179 179
179 179 179
179 179 179
179 179 179
179 179 179
179 179 179
179 179 179
179 179 179
179 179 179
179 179 179
179 179 179
179 179 179
179 179 179
179 179 179
179 179 179
179 179 179
179 179 179
179 179 179
179 179 179
179 179 179
179 179 179
179 179 179
179 179 179
179 179 179
179 179 179
179 179 179
179 179 179
179 179 179
179 179 179
179 179 179
179 179 179
179 179 179
179 179 179
179 179 179
179 179 179
179 179 179
179 179 179
179 179 179
179 179 179
179 179 179
179 179 179
179 179 179
179 179 179
179 179 179
179 179 179
179 179 179
179 179 179
179 179 179
179 179 179
179 179 179
179 179 179
179 179 179
179 179 179
179 179 179
179 179 179
179 179 179
179 179 179
179 179 179
179 179 179
179 179 179
179 179 179
179 179 179
179 179 179
179 179 179
179 179 179
179 179 179
179 179 179
179 179 179
179 179 179
179 179 179
179 179 179
179 179 179
179 179 179
179 179 179
179 179 179
179 179 179
179 179 179
179 179 179
179 179 179
179 179 179
179 179 179
179 179 179
179 179 179
179 179 179
179 179 179
179 179 179
179 179 179
179 179 179
179 179 179
179 179 179
179 179 179
179 179 179
78 11 145
84 9 150
90 8 153
95 7 154
101 5 155
106 4 154
111 3 151
116 2 148
121 0 142
179 179 179
179 179 179
179 179 179
179 179 179
179 179 179
179 179 179
179 179 179
179 179 179
179 179 179
179 179 179
179 179 179
179 179 179
179 179 179
179 179 179
179 179 179
179 179 179
179 179 179
179 179 179
179 179 179
179 179 179
179 179 179
179 179 179
179 179 179
179 179 179
179 179 179
179 179 179
179 179 179
179 179 179
179 179 179
179 179 179
179 179 179
179 179 179
179 179 179
179 179 179
179 179 179
179 179 179
179 179 179
179 179 179
179 179 179
179 179 179
179 179 179
179 179 179
179 179 179
179 179 179
179 179 179
179 179 179
179 179 179
179 179 179
179 179 179
179 179 179
179 179 179
179 179 179
179 179 179
179 179 179
179 179 179
179 179 179
179 179 179
179 179 179
179 179 179
179 179 179
179 179 179
179 179 179
179 179 179
179 179 179
179 179 179
179 179 179
179 179 179
179 179 179
179 179 179
179 179 179
179 179 179
179 179 179
179 179 179
179 179 179
179 179 179
179 179 179
179 179 179
179 179 179
179 179 179
179 179 179
179 179 179
179 179 179
179 179 179
179 179 179
179 179 179
179 179 179
179 179 179
179 179 179
179 179 179
179 179 179
179 179 179
179 179 179
179 179 179
179 179 179
179 179 179
179 179 179
179 179 179
179 179 179
179 179 179
179 179 179
179 179 179
179 179 179
179 179 179
0 0 0
0 0 0
0 0 0
0 0 0
0 0 0
0 0 0
0 0 0
0 0 0
0 0 0
0 0 0
0 0 0
0 0 0
0 0 0
0 0 0
0 0 0
0 0 0
0 0 0
0 0 0
0 0 0
0 0 0
0 0 0
0 0 0
0 0 0
0 0 0
0 0 0
0 0 0
0 0 0
0 0 0
0 0 0
0 0 0
0 0 0
0 0 0
0 0 0
0 0 0
0 0 0
0 0 0
0 0 0
0 0 0
0 0 0
0 0 0
0 0 0
0 0 0
0 0 0
0 0 0
0 0 0
0 0 0
0 0 0
0 0 0
0 0 0
0 0 0
0 0 0
0 0 0
0 0 0
0 0 0
0 0 0
0 0 0
0 0 0
0 0 0
0 0 0
0 0 0
0 0 0
0 0 0
0 0 0
0 0 0
0 0 0
0 0 0
0 0 0
0 0 0
0 0 0
0 0 0
0 0 0
0 0 0
0 0 0
0 0 0
0 0 0
0 0 0
0 0 0
0 0 0
0 0 0
0 0 0
0 0 0
0 0 0
0 0 0
0 0 0
0 0 0
0 0 0
0 0 0
0 0 0
0 0 0
0 0 0
0 0 0
0 0 0
0 0 0
0 0 0
0 0 0
0 0 0
0 0 0
0 0 0
0 0 0
0 0 0
0 0 0
0 0 0
0 0 0
0 0 0
0 0 0
0 0 0
0 0 0
0 0 0
0 0 0
0 0 0
0 0 0
0 0 0
0 0 0
0 0 0
0 0 0
0 0 0
0 0 0
0 0 0
0 0 0
0 0 0
0 0 0
0 0 0
0 0 0
0 0 0
0 0 0
0 0 0
0 0 0
0 0 0
0 0 0
0 0 0
0 0 0
0 0 0
0 0 0
0 0 0
0 0 0
0 0 0
0 0 0
0 0 0
0 0 0
0 0 0
0 0 0
0 0 0
0 0 0
0 0 0
0 0 0
0 0 0
0 0 0
0 0 0
0 0 0
0 0 0
0 0 0
0 0 0
0 0 0
0 0 0
0 0 0
0 0 0
0 0 0
0 0 0
0 0 0
0 0 0
0 0 0
0 0 0
0 0 0
0 0 0
0 0 0
0 0 0
0 0 0
0 0 0
0 0 0
0 0 0
0 0 0
0 0 0
0 0 0
0 0 0
0 0 0
0 0 0
0 0 0
0 0 0
0 0 0
0 0 0
0 0 0
0 0 0
0 0 0
0 0 0
0 0 0
0 0 0
0 0 0
0 0 0
0 0 0
0 0 0
0 0 0
0 0 0
0 0 0
0 0 0
179 179 179
179 179 179
179 179 179
179 179 179
179 179 179
179 179 179
179 179 179
179 179 179
179 179 179
179 179 179
179 179 179
179 179 179
179 179 179
179 179 179
179 179 179
179 179 179
179 179 179
179 179 179
179 179 179
179 179 179
179 179 179
179 179 179
179 179 179
179 179 179
179 179 179
179 179 179
179 179 179
179 179 179
179 179 179
179 179 179
179 179 179
179 179 179
179 179 179
179 179 179
179 179 179
179 179 179
179 179 179
179 179 179
179 179 179
179 179 179
179 179 179
179 179 179
179 179 179
179 179 179
179 179 179
179 179 179
179 179 179
179 179 179
179 179 179
179 179 179
179 179 179
179 179 179
179 179 179
179 179 179
179 179 179
179 179 179
179 179 179
179 179 179
179 179 179
179 179 179
179 179 179
179 179 179
179 179 179
179 179 179
179 179 179
179 179 179
179 179 179
179 179 179
179 179 179
179 179 179
179 179 179
179 179 179
179 179 179
179 179 179
179 179 179
179 179 179
179 179 179
179 179 179
179 179 179
179 179 179
179 179 179
179 179 179
179 179 179
179 179 179
179 179 179
179 179 179
179 179 179
179 179 179
179 179 179
179 179 179
179 179 179
179 179 179
179 179 179
73 13 143
80 11 150
85 10 154
91 8 156
97 7 157
102 5 156
108 4 155
146 251 154
118 2 149
123 0 143
179 179 179
179 179 179
179 179 179
179 179 179
179 179 179
179 179 179
179 179 179
179 179 179
179 179 179
179 179 179
179 179 179
179 179 179
179 179 179
179 179 179
179 179 179
179 179 179
179 179 179
179 179 179
179 179 179
179 179 179
179 179 179
179 179 179
179 179 179
179 179 179
179 179 179
179 179 179
179 179 179
179 179 179
179 179 179
179 179 179
179 179 179
179 179 179
179 179 179
179 179 179
179 179 179
179 179 179
179 179 179
179 179 179
179 179 179
179 179 179
179 179 179
179 179 179
179 179 179
179 179 179
179 179 179
179 179 179
179 179 179
179 179 179
179 179 179
179 179 179
179 179 179
179 179 179
179 179 179
179 179 179
179 179 179
179 179 179
179 179 179
179 179 179
179 179 179
179 179 179
179 179 179
179 179 179
179 179 179
179 179 179
179 179 179
179 179 179
179 179 179
179 179 179
179 179 179
179 179 179
179 179 179
179 179 179
179 179 179
179 179 179
179 179 179
179 179 179
179 179 179
179 179 179
179 179 179
179 179 179
179 179 179
179 179 179
179 179 179
179 179 179
179 179 179
179 179 179
179 179 179
179 179 179
179 179 179
179 179 179
179 179 179
179 179 179
179 179 179
179 179 179
179 179 179
179 179 179
179 179 179
179 179 179
179 179 179
179 179 179
179 179 179
179 179 179
179 179 179
0 0 0
0 0 0
0 0 0
0 0 0
0 0 0
0 0 0
0 0 0
0 0 0
0 0 0
0 0 0
0 0 0
0 0 0
0 0 0
0 0 0
0 0 0
0 0 0
0 0 0
0 0 0
0 0 0
0 0 0
0 0 0
0 0 0
0 0 0
0 0 0
0 0 0
0 0 0
0 0 0
0 0 0
0 0 0
0 0 0
0 0 0
0 0 0
0 0 0
0 0 0
0 0 0
0 0 0
0 0 0
0 0 0
0 0 0
0 0 0
0 0 0
0 0 0
0 0 0
0 0 0
0 0 0
0 0 0
0 0 0
0 0 0
0 0 0
0 0 0
0 0 0
0 0 0
0 0 0
0 0 0
0 0 0
0 0 0
0 0 0
0 0 0
0 0 0
0 0 0
0 0 0
0 0 0
0 0 0
0 0 0
0 0 0
0 0 0
0 0 0
0 0 0
0 0 0
0 0 0
0 0 0
0 0 0
0 0 0
0 0 0
0 0 0
0 0 0
0 0 0
0 0 0
0 0 0
0 0 0
0 0 0
0 0 0
0 0 0
0 0 0
0 0 0
0 0 0
0 0 0
0 0 0
0 0 0
0 0 0
0 0 0
0 0 0
0 0 0
0 0 0
0 0 0
0 0 0
0 0 0
0 0 0
0 0 0
0 0 0
0 0 0
0 0 0
0 0 0
0 0 0
0 0 0
0 0 0
0 0 0
0 0 0
0 0 0
0 0 0
0 0 0
0 0 0
0 0 0
0 0 0
0 0 0
0 0 0
0 0 0
0 0 0
0 0 0
0 0 0
0 0 0
0 0 0
0 0 0
0 0 0
0 0 0
0 0 0
0 0 0
0 0 0
0 0 0
0 0 0
0 0 0
0 0 0
0 0 0
0 0 0
0 0 0
0 0 0
0 0 0
0 0 0
0 0 0
0 0 0
0 0 0
0 0 0
0 0 0
0 0 0
0 0 0
0 0 0
0 0 0
0 0 0
0 0 0
0 0 0
0 0 0
0 0 0
0 0 0
0 0 0
0 0 0
0 0 0
0 0 0
0 0 0
0 0 0
0 0 0
0 0 0
0 0 0
0 0 0
0 0 0
0 0 0
0 0 0
0 0 0
0 0 0
0 0 0
0 0 0
0 0 0
0 0 0
0 0 0
0 0 0
0 0 0
0 0 0
0 0 0
0 0 0
0 0 0
0 0 0
0 0 0
0 0 0
0 0 0
0 0 0
0 0 0
0 0 0
0 0 0
0 0 0
0 0 0
0 0 0
0 0 0
0 0 0
0 0 0
0 0 0
179 179 179
179 179 179
179 179 179
179 179 179
179 179 179
179 179 179
179 179 179
179 179 179
179 179 179
179 179 179
179 179 179
179 179 179
179 179 179
179 179 179
179 179 179
179 179 179
179 179 179
179 179 179
179 179 179
179 179 179
179 179 179
179 179 179
179 179 179
179 179 179
179 179 179
179 179 179
179 179 179
179 179 179
179 179 179
179 179 179
179 179 179
179 179 179
179 179 179
179 179 179
179 179 179
179 179 179
179 179 179
179 179 179
179 179 179
179 179 179
179 179 179
179 179 179
179 179 179
179 179 179
179 179 179
179 179 179
179 179 179
179 179 179
179 179 179
179 179 179
179 179 179
179 179 179
179 179 179
179 179 179
179 179 179
179 179 179
179 179 179
179 179 179
179 179 179
179 179 179
179 179 179
179 179 179
179 179 179
179 179 179
179 179 179
179 179 179
179 179 179
179 179 179
179 179 179
179 179 179
179 179 179
179 179 179
179 179 179
179 179 179
179 179 179
179 179 179
179 179 179
179 179 179
179 179 179
179 179 179
179 179 179
179 179 179
179 179 179
179 179 179
179 179 179
179 179 179
179 179 179
179 179 179
179 179 179
179 179 179
179 179 179
179 179 179
69 14 139
75 13 149
81 11 154
87 10 157
93 8 158
98 7 159
104 5 158
109 4 156
114 3 154
119 2 149
124 1 143
179 179 179
179 179 179
179 179 179
179 179 179
179 179 179
179 179 179
179 179 179
179 179 179
179 179 179
179 179 179
179 179 179
179 179 179
179 179 179
179 179 179
179 179 179
179 179 179
179 179 179
179 179 179
179 179 179
179 179 179
179 179 179
179 179 179
179 179 179
179 179 179
179 179 179
179 179 179
179 179 179
179 179 179
179 179 179
179 179 179
179 179 179
179 179 179
179 179 179
179 179 179
179 179 179
179 179 179
179 179 179
179 179 179
179 179 179
179 179 179
179 179 179
179 179 179
179 179 179
179 179 179
179 179 179
179 179 179
179 179 179
179 179 179
179 179 179
179 179 179
179 179 179
179 179 179
179 179 179
179 179 179
179 179 179
179 179 179
179 179 179
179 179 179
179 179 179
179 179 179
179 179 179
179 179 179
179 179 179
179 179 179
179 179 179
179 179 179
179 179 179
179 179 179
179 179 179
179 179 179
179 179 179
179 179 179
179 179 179
179 179 179
179 179 179
179 179 179
179 179 179
179 179 179
179 179 179
179 179 179
179 179 179
179 179 179
179 179 179
179 179 179
179 179 179
179 179 179
179 179 179
179 179 179
179 179 179
179 179 179
179 179 179
179 179 179
179 179 179
179 179 179
179 179 179
179 179 179
179 179 179
179 179 179
179 179 179
179 179 179
179 179 179
179 179 179
179 179 179
179 179 179
0 0 0
0 0 0
0 0 0
0 0 0
0 0 0
0 0 0
0 0 0
0 0 0
0 0 0
0 0 0
0 0 0
0 0 0
0 0 0
0 0 0
0 0 0
0 0 0
0 0 0
0 0 0
0 0 0
0 0 0
0 0 0
0 0 0
0 0 0
0 0 0
0 0 0
0 0 0
0 0 0
0 0 0
0 0 0
0 0 0
0 0 0
0 0 0
0 0 0
0 0 0
0 0 0
0 0 0
0 0 0
0 0 0
0 0 0
0 0 0
0 0 0
0 0 0
0 0 0
0 0 0
0 0 0
0 0 0
0 0 0
0 0 0
0 0 0
0 0 0
0 0 0
0 0 0
0 0 0
0 0 0
0 0 0
0 0 0
0 0 0
0 0 0
0 0 0
0 0 0
0 0 0
0 0 0
0 0 0
0 0 0
0 0 0
0 0 0
0 0 0
0 0 0
0 0 0
0 0 0
0 0 0
0 0 0
0 0 0
0 0 0
0 0 0
0 0 0
0 0 0
0 0 0
0 0 0
0 0 0
0 0 0
0 0 0
0 0 0
0 0 0
0 0 0
0 0 0
0 0 0
0 0 0
0 0 0
0 0 0
0 0 0
0 0 0
0 0 0
0 0 0
0 0 0
0 0 0
0 0 0
0 0 0
0 0 0
0 0 0
0 0 0
0 0 0
0 0 0
0 0 0
0 0 0
0 0 0
0 0 0
0 0 0
0 0 0
0 0 0
0 0 0
0 0 0
0 0 0
0 0 0
0 0 0
0 0 0
0 0 0
0 0 0
0 0 0
0 0 0
0 0 0
0 0 0
0 0 0
0 0 0
0 0 0
0 0 0
0 0 0
0 0 0
0 0 0
0 0 0
0 0 0
0 0 0
0 0 0
0 0 0
0 0 0
0 0 0
0 0 0
0 0 0
0 0 0
0 0 0
0 0 0
0 0 0
0 0 0
0 0 0
0 0 0
0 0 0
0 0 0
0 0 0
0 0 0
0 0 0
0 0 0
0 0 0
0 0 0
0 0 0
0 0 0
0 0 0
0 0 0
0 0 0
0 0 0
0 0 0
0 0 0
0 0 0
0 0 0
0 0 0
0 0 0
0 0 0
0 0 0
0 0 0
0 0 0
0 0 0
0 0 0
0 0 0
0 0 0
0 0 0
0 0 0
0 0 0
0 0 0
0 0 0
0 0 0
0 0 0
0 0 0
0 0 0
0 0 0
0 0 0
0 0 0
0 0 0
0 0 0
0 0 0
0 0 0
0 0 0
0 0 0
0 0 0
179 179 179
179 179 179
179 179 179
179 179 179
179 179 179
179 179 179
179 179 179
179 179 179
179 179 179
179 179 179
179 179 179
179 179 179
179 179 179
179 179 179
179 179 179
179 179 179
179 179 179
179 179 179
179 179 179
179 179 179
179 179 179
179 179 179
179 179 179
179 179 179
179 179 179
179 179 179
179 179 179
179 179 179
179 179 179
179 179 179
179 179 179
179 179 179
179 179 179
179 179 179
179 179 179
179 179 179
179 179 179
179 179 179
179 179 179
179 179 179
179 179 179
179 179 179
179 179 179
179 179 179
179 179 179
179 179 179
179 179 179
179 179 179
179 179 179
179 179 179
179 179 179
179 179 179
179 179 179
179 179 179
179 179 179
179 179 179
179 179 179
179 179 179
179 179 179
179 179 179
179 179 179
179 179 179
179 179 179
179 179 179
179 179 179
179 179 179
179 179 179
179 179 179
179 179 179
179 179 179
179 179 179
179 179 179
179 179 179
179 179 179
179 179 179
179 179 179
179 179 179
179 179 179
179 179 179
179 179 179
179 179 179
179 179 179
179 179 179
179 179 179
179 179 179
179 179 179
179 179 179
179 179 179
179 179 179
179 179 179
179 179 179
179 179 179
179 179 179
71 14 148
77 13 154
83 11 157
89 10 159
94 8 160
100 7 160
105 6 159
110 4 157
115 3 154
120 2 150
125 1 143
179 179 179
179 179 179
179 179 179
179 179 179
179 179 179
179 179 179
179 179 179
179 179 179
179 179 179
179 179 179
179 179 179
179 179 179
179 179 179
179 179 179
179 179 179
179 179 179
179 179 179
179 179 179
179 179 179
179 179 179
179 179 179
179 179 179
179 179 179
179 179 179
179 179 179
179 179 179
179 179 179
179 179 179
179 179 179
179 179 179
179 179 179
179 179 179
179 179 179
179 179 179
179 179 179
179 179 179
179 179 179
179 179 179
179 179 179
179 179 179
179 179 179
179 179 179
179 179 179
179 179 179
179 179 179
179 179 179
179 179 179
179 179 179
179 179 179
179 179 179
179 179 179
179 179 179
179 179 179
179 179 179
179 179 179
179 179 179
179 179 179
179 179 179
179 179 179
179 179 179
179 179 179
179 179 179
179 179 179
179 179 179
179 179 179
179 179 179
179 179 179
179 179 179
179 179 179
179 179 179
179 179 179
179 179 179
179 179 179
179 179 179
179 179 179
179 179 179
179 179 179
179 179 179
179 179 179
179 179 179
179 179 179
179 179 179
179 179 179
179 179 179
179 179 179
179 179 179
179 179 179
179 179 179
179 179 179
179 179 179
179 179 179
179 179 179
179 179 179
179 179 179
179 179 179
179 179 179
179 179 179
179 179 179
179 179 179
179 179 179
179 179 179
179 179 179
179 179 179
179 179 179
0 0 0
0 0 0
0 0 0
0 0 0
0 0 0
0 0 0
0 0 0
0 0 0
0 0 0
0 0 0
0 0 0
0 0 0
0 0 0
0 0 0
0 0 0
0 0 0
0 0 0
0 0 0
0 0 0
0 0 0
0 0 0
0 0 0
0 0 0
0 0 0
0 0 0
0 0 0
0 0 0
0 0 0
0 0 0
0 0 0
0 0 0
0 0 0
0 0 0
0 0 0
0 0 0
0 0 0
0 0 0
0 0 0
0 0 0
0 0 0
0 0 0
0 0 0
0 0 0
0 0 0
0 0 0
0 0 0
0 0 0
0 0 0
0 0 0
0 0 0
0 0 0
0 0 0
0 0 0
0 0 0
0 0 0
0 0 0
0 0 0
0 0 0
0 0 0
0 0 0
0 0 0
0 0 0
0 0 0
0 0 0
0 0 0
0 0 0
0 0 0
0 0 0
0 0 0
0 0 0
0 0 0
0 0 0
0 0 0
0 0 0
0 0 0
0 0 0
0 0 0
0 0 0
0 0 0
0 0 0
0 0 0
0 0 0
0 0 0
0 0 0
0 0 0
0 0 0
0 0 0
0 0 0
0 0 0
0 0 0
0 0 0
0 0 0
0 0 0
0 0 0
0 0 0
0 0 0
0 0 0
0 0 0
0 0 0
0 0 0
0 0 0
0 0 0
0 0 0
0 0 0
0 0 0
0 0 0
0 0 0
0 0 0
0 0 0
0 0 0
0 0 0
0 0 0
0 0 0
0 0 0
0 0 0
0 0 0
0 0 0
0 0 0
0 0 0
0 0 0
0 0 0
0 0 0
0 0 0
0 0 0
0 0 0
0 0 0
0 0 0
0 0 0
0 0 0
0 0 0
0 0 0
0 0 0
0 0 0
0 0 0
0 0 0
0 0 0
0 0 0
0 0 0
0 0 0
0 0 0
0 0 0
0 0 0
0 0 0
0 0 0
0 0 0
0 0 0
0 0 0
0 0 0
0 0 0
0 0 0
0 0 0
0 0 0
0 0 0
0 0 0
0 0 0
0 0 0
0 0 0
0 0 0
0 0 0
0 0 0
0 0 0
0 0 0
0 0 0
0 0 0
0 0 0
0 0 0
0 0 0
0 0 0
0 0 0
0 0 0
0 0 0
0 0 0
0 0 0
0 0 0
0 0 0
0 0 0
0 0 0
0 0 0
0 0 0
0 0 0
0 0 0
0 0 0
0 0 0
0 0 0
0 0 0
0 0 0
0 0 0
0 0 0
0 0 0
0 0 0
0 0 0
0 0 0
179 179 179
179 179 179
179 179 179
179 179 179
179 179 179
179 179 179
179 179 179
179 179 179
179 179 179
179 179 179
179 179 179
179 179 179
179 179 179
179 179 179
179 179 179
179 179 179
179 179 179
179 179 179
179 179 179
179 179 179
179 179 179
179 179 179
179 179 179
179 179 179
179 179 179
179 179 179
179 179 179
179 179 179
179 179 179
179 179 179
179 179 179
179 179 179
179 179 179
179 179 179
179 179 179
179 179 179
179 179 179
179 179 179
179 179 179
179 179 179
179 179 179
179 179 179
179 179 179
179 179 179
179 179 179
179 179 179
179 179 179
179 179 179
179 179 179
179 179 179
179 179 179
179 179 179
179 179 179
179 179 179
179 179 179
179 179 179
179 179 179
179 179 179
179 179 179
179 179 179
179 179 179
179 179 179
179 179 179
179 179 179
179 179 179
179 179 179
179 179 179
179 179 179
179 179 179
179 179 179
179 179 179
179 179 179
179 179 179
179 179 179
179 179 179
179 179 179
179 179 179
179 179 179
179 179 179
179 179 179
179 179 179
179 179 179
179 179 179
179 179 179
179 179 179
179 179 179
179 179 179
179 179 179
179 179 179
179 179 179
179 179 179
179 179 179
67 16 145
73 15 153
79 13 158
85 11 160
90 10 162
96 8 162
101 7 162
107 6 161
112 4 158
117 3 155
122 2 151
127 1 143
179 179 179
179 179 179
179 179 179
179 179 179
179 179 179
179 179 179
179 179 179
179 179 179
179 179 179
179 179 179
179 179 179
179 179 179
179 179 179
179 179 179
179 179 179
179 179 179
179 179 179
179 179 179
179 179 179
179 179 179
179 179 179
179 179 179
179 179 179
179 179 179
179 179 179
179 179 179
179 179 179
179 179 179
179 179 179
179 179 179
179 179 179
179 179 179
179 179 179
179 179 179
179 179 179
179 179 179
179 179 179
179 179 179
179 179 179
179 179 179
179 179 179
179 179 179
179 179 179
179 179 179
179 179 179
179 179 179
179 179 179
179 179 179
179 179 179
179 179 179
179 179 179
179 179 179
179 179 179
179 179 179
179 179 179
179 179 179
179 179 179
179 179 179
179 179 179
179 179 179
179 179 179
179 179 179
179 179 179
179 179 179
179 179 179
179 179 179
179 179 179
179 179 179
179 179 179
179 179 179
179 179 179
179 179 179
179 179 179
179 179 179
179 179 179
179 179 179
179 179 179
179 179 179
179 179 179
179 179 179
179 179 179
179 179 179
179 179 179
179 179 179
179 179 179
179 179 179
179 179 179
179 179 179
179 179 179
179 179 179
179 179 179
179 179 179
179 179 179
179 179 179
179 179 179
179 179 179
179 179 179
179 179 179
179 179 179
179 179 179
179 179 179
179 179 179
179 179 179
179 179 179
179 179 179
0 0 0
0 0 0
0 0 0
0 0 0
0 0 0
0 0 0
0 0 0
0 0 0
0 0 0
0 0 0
0 0 0
0 0 0
0 0 0
0 0 0
0 0 0
0 0 0
0 0 0
0 0 0
0 0 0
0 0 0
0 0 0
0 0 0
0 0 0
0 0 0
0 0 0
0 0 0
0 0 0
0 0 0
0 0 0
0 0 0
0 0 0
0 0 0
0 0 0
0 0 0
0 0 0
0 0 0
0 0 0
0 0 0
0 0 0
0 0 0
0 0 0
0 0 0
0 0 0
0 0 0
0 0 0
0 0 0
0 0 0
0 0 0
0 0 0
0 0 0
0 0 0
0 0 0
0 0 0
0 0 0
0 0 0
0 0 0
0 0 0
0 0 0
0 0 0
0 0 0
0 0 0
0 0 0
0 0 0
0 0 0
0 0 0
0 0 0
0 0 0
0 0 0
0 0 0
0 0 0
0 0 0
0 0 0
0 0 0
0 0 0
0 0 0
0 0 0
0 0 0
0 0 0
0 0 0
0 0 0
0 0 0
0 0 0
0 0 0
0 0 0
0 0 0
0 0 0
0 0 0
0 0 0
0 0 0
0 0 0
0 0 0
0 0 0
0 0 0
0 0 0
0 0 0
0 0 0
0 0 0
0 0 0
0 0 0
0 0 0
0 0 0
0 0 0
0 0 0
0 0 0
0 0 0
0 0 0
0 0 0
0 0 0
0 0 0
0 0 0
0 0 0
0 0 0
0 0 0
0 0 0
0 0 0
0 0 0
0 0 0
0 0 0
0 0 0
0 0 0
0 0 0
0 0 0
0 0 0
0 0 0
0 0 0
0 0 0
0 0 0
0 0 0
0 0 0
0 0 0
0 0 0
0 0 0
0 0 0
0 0 0
0 0 0
0 0 0
0 0 0
0 0 0
0 0 0
0 0 0
0 0 0
0 0 0
0 0 0
0 0 0
0 0 0
0 0 0
0 0 0
0 0 0
0 0 0
0 0 0
0 0 0
0 0 0
0 0 0
0 0 0
0 0 0
0 0 0
0 0 0
0 0 0
0 0 0
0 0 0
0 0 0
0 0 0
0 0 0
0 0 0
0 0 0
0 0 0
0 0 0
0 0 0
0 0 0
0 0 0
0 0 0
0 0 0
0 0 0
0 0 0
0 0 0
0 0 0
0 0 0
0 0 0
0 0 0
0 0 0
0 0 0
0 0 0
0 0 0
0 0 0
0 0 0
0 0 0
0 0 0
0 0 0
0 0 0
0 0 0
179 179 179
179 179 179
179 179 179
179 179 179
179 179 179
179 179 179
179 179 179
179 179 179
179 179 179
179 179 179
179 179 179
179 179 179
179 179 179
179 179 179
179 179 179
179 179 179
179 179 179
179 179 179
179 179 179
179 179 179
179 179 179
179 179 179
179 179 179
179 179 179
179 179 179
179 179 179
179 179 179
179 179 179
179 179 179
179 179 179
179 179 179
179 179 179
179 179 179
179 179 179
179 179 179
179 179 179
179 179 179
179 179 179
179 179 179
179 179 179
179 179 179
179 179 179
179 179 179
179 179 179
179 179 179
179 179 179
179 179 179
179 179 179
179 179 179
179 179 179
179 179 179
179 179 179
179 179 179
179 179 179
179 179 179
179 179 179
179 179 179
179 179 179
179 179 179
179 179 179
179 179 179
179 179 179
179 179 179
179 179 179
179 179 179
179 179 179
179 179 179
179 179 179
179 179 179
179 179 179
179 179 179
179 179 179
179 179 179
179 179 179
179 179 179
179 179 179
179 179 179
179 179 179
179 179 179
179 179 179
179 179 179
179 179 179
179 179 179
179 179 179
179 179 179
179 179 179
179 179 179
179 179 179
179 179 179
179 179 179
179 179 179
179 179 179
62 18 140
69 16 152
75 15 157
81 13 161
87 11 163
92 10 164
97 8 164
103 7 163
108 6 162
113 4 159
118 3 156
123 2 151
128 0 143
179 179 179
179 179 179
179 179 179
179 179 179
179 179 179
179 179 179
179 179 179
179 179 179
179 179 179
179 179 179
179 179 179
179 179 179
179 179 179
179 179 179
179 179 179
179 179 179
179 179 179
179 179 179
179 179 179
179 179 179
179 179 179
179 179 179
179 179 179
179 179 179
179 179 179
179 179 179
179 179 179
179 179 179
179 179 179
179 179 179
179 179 179
179 179 179
179 179 179
179 179 179
179 179 179
179 179 179
179 179 179
179 179 179
179 179 179
179 179 179
179 179 179
179 179 179
179 179 179
179 179 179
179 179 179
179 179 179
179 179 179
179 179 179
179 179 179
179 179 179
179 179 179
179 179 179
179 179 179
179 179 179
179 179 179
179 179 179
179 179 179
179 179 179
179 179 179
179 179 179
179 179 179
179 179 179
179 179 179
179 179 179
179 179 179
179 179 179
179 179 179
179 179 179
179 179 179
179 179 179
179 179 179
179 179 179
179 179 179
179 179 179
179 179 179
179 179 179
179 179 179
179 179 179
179 179 179
179 179 179
179 179 179
179 179 179
179 179 179
179 179 179
179 179 179
179 179 179
179 179 179
179 179 179
179 179 179
179 179 179
179 179 179
179 179 179
179 179 179
179 179 179
179 179 179
179 179 179
179 179 179
179 179 179
179 179 179
179 179 179
179 179 179
179 179 179
179 179 179
179 179 179
179 179 179
0 0 0
0 0 0
0 0 0
0 0 0
0 0 0
0 0 0
0 0 0
0 0 0
0 0 0
0 0 0
0 0 0
0 0 0
0 0 0
0 0 0
0 0 0
0 0 0
0 0 0
0 0 0
0 0 0
0 0 0
0 0 0
0 0 0
0 0 0
0 0 0
0 0 0
0 0 0
0 0 0
0 0 0
0 0 0
0 0 0
0 0 0
0 0 0
0 0 0
0 0 0
0 0 0
0 0 0
0 0 0
0 0 0
0 0 0
0 0 0
0 0 0
0 0 0
0 0 0
0 0 0
0 0 0
0 0 0
0 0 0
0 0 0
0 0 0
0 0 0
0 0 0
0 0 0
0 0 0
0 0 0
0 0 0
0 0 0
0 0 0
0 0 0
0 0 0
0 0 0
0 0 0
0 0 0
0 0 0
0 0 0
0 0 0
0 0 0
0 0 0
0 0 0
0 0 0
0 0 0
0 0 0
0 0 0
0 0 0
0 0 0
0 0 0
0 0 0
0 0 0
0 0 0
0 0 0
0 0 0
0 0 0
0 0 0
0 0 0
0 0 0
0 0 0
0 0 0
0 0 0
0 0 0
0 0 0
0 0 0
0 0 0
0 0 0
0 0 0
0 0 0
0 0 0
0 0 0
0 0 0
0 0 0
0 0 0
0 0 0
0 0 0
0 0 0
0 0 0
0 0 0
0 0 0
0 0 0
0 0 0
0 0 0
0 0 0
0 0 0
0 0 0
0 0 0
0 0 0
0 0 0
0 0 0
0 0 0
0 0 0
0 0 0
0 0 0
0 0 0
0 0 0
0 0 0
0 0 0
0 0 0
0 0 0
0 0 0
0 0 0
0 0 0
0 0 0
0 0 0
0 0 0
0 0 0
0 0 0
0 0 0
0 0 0
0 0 0
0 0 0
0 0 0
0 0 0
0 0 0
0 0 0
0 0 0
0 0 0
0 0 0
0 0 0
0 0 0
0 0 0
0 0 0
0 0 0
0 0 0
0 0 0
0 0 0
0 0 0
0 0 0
0 0 0
0 0 0
0 0 0
0 0 0
0 0 0
0 0 0
0 0 0
0 0 0
0 0 0
0 0 0
0 0 0
0 0 0
0 0 0
0 0 0
0 0 0
0 0 0
0 0 0
0 0 0
0 0 0
0 0 0
0 0 0
0 0 0
0 0 0
0 0 0
0 0 0
0 0 0
0 0 0
0 0 0
0 0 0
0 0 0
0 0 0
0 0 0
0 0 0
0 0 0
0 0 0
0 0 0
179 179 179
179 179 179
179 179 179
179 179 179
179 179 179
179 179 179
179 179 179
179 179 179
179 179 179
179 179 179
179 179 179
179 179 179
179 179 179
179 179 179
179 179 179
179 179 179
179 179 179
179 179 179
179 179 179
179 179 179
179 179 179
179 179 179
179 179 179
179 179 179
179 179 179
179 179 179
179 179 179
179 179 179
179 179 179
179 179 179
179 179 179
179 179 179
179 179 179
179 179 179
179 179 179
179 179 179
179 179 179
179 179 179
179 179 179
179 179 179
179 179 179
179 179 179
179 179 179
179 179 179
179 179 179
179 179 179
179 179 179
179 179 179
179 179 179
179 179 179
179 179 179
179 179 179
179 179 179
179 179 179
179 179 179
179 179 179
179 179 179
179 179 179
179 179 179
179 179 179
179 179 179
179 179 179
179 179 179
179 179 179
179 179 179
179 179 179
179 179 179
179 179 179
179 179 179
179 179 179
179 179 179
179 179 179
179 179 179
179 179 179
179 179 179
179 179 179
179 179 179
179 179 179
179 179 179
179 179 179
179 179 179
179 179 179
179 179 179
179 179 179
179 179 179
179 179 179
179 179 179
179 179 179
179 179 179
179 179 179
179 179 179
179 179 179
65 18 150
71 16 157
77 15 161
83 13 163
88 12 165
94 10 165
99 9 165
104 7 164
151 248 164
115 4 160
120 3 156
125 2 151
129 0 143
179 179 179
179 179 179
179 179 179
179 179 179
179 179 179
179 179 179
179 179 179
179 179 179
179 179 179
179 179 179
179 179 179
179 179 179
179 179 179
179 179 179
179 179 179
179 179 179
179 179 179
179 179 179
179 179 179
179 179 179
179 179 179
179 179 179
179 179 179
179 179 179
179 179 179
179 179 179
179 179 179
179 179 179
179 179 179
179 179 179
179 179 179
179 179 179
179 179 179
179 179 179
179 179 179
179 179 179
179 179 179
179 179 179
179 179 179
179 179 179
179 179 179
179 179 179
179 179 179
179 179 179
179 179 179
179 179 179
179 179 179
179 179 179
179 179 179
179 179 179
179 179 179
179 179 179
179 179 179
179 179 179
179 179 179
179 179 179
179 179 179
179 179 179
179 179 179
179 179 179
179 179 179
179 179 179
179 179 179
179 179 179
179 179 179
179 179 179
179 179 179
179 179 179
179 179 179
179 179 179
179 179 179
179 179 179
179 179 179
179 179 179
179 179 179
179 179 179
179 179 179
179 179 179
179 179 179
179 179 179
179 179 179
179 179 179
179 179 179
179 179 179
179 179 179
179 179 179
179 179 179
179 179 179
179 179 179
179 179 179
179 179 179
179 179 179
179 179 179
179 179 179
179 179 179
179 179 179
179 179 179
179 179 179
179 179 179
179 179 179
179 179 179
179 179 179
179 179 179
179 179 179
179 179 179
179 179 179
0 0 0
0 0 0
0 0 0
0 0 0
0 0 0
0 0 0
0 0 0
0 0 0
0 0 0
0 0 0
0 0 0
0 0 0
0 0 0
0 0 0
0 0 0
0 0 0
0 0 0
0 0 0
0 0 0
0 0 0
0 0 0
0 0 0
0 0 0
0 0 0
0 0 0
0 0 0
0 0 0
0 0 0
0 0 0
0 0 0
0 0 0
0 0 0
0 0 0
0 0 0
0 0 0
0 0 0
0 0 0
0 0 0
0 0 0
0 0 0
0 0 0
0 0 0
0 0 0
0 0 0
0 0 0
0 0 0
0 0 0
0 0 0
0 0 0
0 0 0
0 0 0
0 0 0
0 0 0
0 0 0
0 0 0
0 0 0
0 0 0
0 0 0
0 0 0
0 0 0
0 0 0
0 0 0
0 0 0
0 0 0
0 0 0
0 0 0
0 0 0
0 0 0
0 0 0
0 0 0
0 0 0
0 0 0
0 0 0
0 0 0
0 0 0
0 0 0
0 0 0
0 0 0
0 0 0
0 0 0
0 0 0
0 0 0
0 0 0
0 0 0
0 0 0
0 0 0
0 0 0
0 0 0
0 0 0
0 0 0
0 0 0
0 0 0
0 0 0
0 0 0
0 0 0
0 0 0
0 0 0
0 0 0
0 0 0
0 0 0
0 0 0
0 0 0
0 0 0
0 0 0
0 0 0
0 0 0
0 0 0
0 0 0
0 0 0
0 0 0
0 0 0
0 0 0
0 0 0
0 0 0
0 0 0
0 0 0
0 0 0
0 0 0
0 0 0
0 0 0
0 0 0
0 0 0
0 0 0
0 0 0
0 0 0
0 0 0
0 0 0
0 0 0
0 0 0
0 0 0
0 0 0
0 0 0
0 0 0
0 0 0
0 0 0
0 0 0
0 0 0
0 0 0
0 0 0
0 0 0
0 0 0
0 0 0
0 0 0
0 0 0
0 0 0
0 0 0
0 0 0
0 0 0
0 0 0
0 0 0
0 0 0
0 0 0
0 0 0
0 0 0
0 0 0
0 0 0
0 0 0
0 0 0
0 0 0
0 0 0
0 0 0
0 0 0
0 0 0
0 0 0
0 0 0
0 0 0
0 0 0
0 0 0
0 0 0
0 0 0
0 0 0
0 0 0
0 0 0
0 0 0
0 0 0
0 0 0
0 0 0
0 0 0
0 0 0
0 0 0
0 0 0
0 0 0
0 0 0
0 0 0
0 0 0
0 0 0
0 0 0
0 0 0
179 179 179
179 179 179
179 179 179
179 179 179
179 179 179
179 179 179
179 179 179
179 179 179
179 179 179
179 179 179
179 179 179
179 179 179
179 179 179
179 179 179
179 179 179
179 179 179
179 179 179
179 179 179
179 179 179
179 179 179
179 179 179
179 179 179
179 179 179
179 179 179
179 179 179
179 179 179
179 179 179
179 179 179
179 179 179
179 179 179
179 179 179
179 179 179
179 179 179
179 179 179
179 179 179
179 179 179
179 179 179
179 179 179
179 179 179
179 179 179
179 179 179
179 179 179
179 179 179
179 179 179
179 179 179
179 179 179
179 179 179
179 179 179
179 179 179
179 179 179
179 179 179
179 179 179
179 179 179
179 179 179
179 179 179
179 179 179
179 179 179
179 179 179
179 179 179
179 179 179
179 179 179
179 179 179
179 179 179
179 179 179
179 179 179
179 179 179
179 179 179
179 179 179
179 179 179
179 179 179
179 179 179
179 179 179
179 179 179
179 179 179
179 179 179
179 179 179
179 179 179
179 179 179
179 179 179
179 179 179
179 179 179
179 179 179
179 179 179
179 179 179
179 179 179
179 179 179
179 179 179
179 179 179
179 179 179
179 179 179
179 179 179
179 179 179
60 20 146
67 18 155
73 17 160
79 15 164
84 13 166
90 12 167
95 10 167
101 9 166
106 7 165
111 6 163
116 4 160
121 3 156
126 2 151
131 0 142
179 179 179
179 179 179
179 179 179
179 179 179
179 179 179
179 179 179
179 179 179
179 179 179
179 179 179
179 179 179
179 179 179
179 179 179
179 179 179
179 179 179
179 179 179
179 179 179
179 179 179
179 179 179
179 179 179
179 179 179
179 179 179
179 179 179
179 179 179
179 179 179
179 179 179
179 179 179
179 179 179
179 179 179
179 179 179
179 179 179
179 179 179
179 179 179
179 179 179
179 179 179
179 179 179
179 179 179
179 179 179
179 179 179
179 179 179
179 179 179
179 179 179
179 179 179
179 179 179
179 179 179
179 179 179
179 179 179
179 179 179
179 179 179
179 179 179
179 179 179
179 179 179
179 179 179
179 179 179
179 179 179
179 179 179
179 179 179
179 179 179
179 179 179
179 179 179
179 179 179
179 179 179
179 179 179
179 179 179
179 179 179
179 179 179
179 179 179
179 179 179
179 179 179
179 179 179
179 179 179
179 179 179
179 179 179
179 179 179
179 179 179
179 179 179
179 179 179
179 179 179
179 179 179
179 179 179
179 179 179
179 179 179
179 179 179
179 179 179
179 179 179
179 179 179
179 179 179
179 179 179
179 179 179
179 179 179
179 179 179
179 179 179
179 179 179
179 179 179
179 179 179
179 179 179
179 179 179
179 179 179
179 179 179
179 179 179
179 179 179
179 179 179
179 179 179
179 179 179
179 179 179
179 179 179
179 179 179
0 0 0
0 0 0
0 0 0
0 0 0
0 0 0
0 0 0
0 0 0
0 0 0
0 0 0
0 0 0
0 0 0
0 0 0
0 0 0
0 0 0
0 0 0
0 0 0
0 0 0
0 0 0
0 0 0
0 0 0
0 0 0
0 0 0
0 0 0
0 0 0
0 0 0
0 0 0
0 0 0
0 0 0
0 0 0
0 0 0
0 0 0
0 0 0
0 0 0
0 0 0
0 0 0
0 0 0
0 0 0
0 0 0
0 0 0
0 0 0
0 0 0
0 0 0
0 0 0
0 0 0
0 0 0
0 0 0
0 0 0
0 0 0
0 0 0
0 0 0
0 0 0
0 0 0
0 0 0
0 0 0
0 0 0
0 0 0
0 0 0
0 0 0
0 0 0
0 0 0
0 0 0
0 0 0
0 0 0
0 0 0
0 0 0
0 0 0
0 0 0
0 0 0
0 0 0
0 0 0
0 0 0
0 0 0
0 0 0
0 0 0
0 0 0
0 0 0
0 0 0
0 0 0
0 0 0
0 0 0
0 0 0
0 0 0
0 0 0
0 0 0
0 0 0
0 0 0
0 0 0
0 0 0
0 0 0
0 0 0
0 0 0
0 0 0
0 0 0
0 0 0
0 0 0
0 0 0
0 0 0
0 0 0
0 0 0
0 0 0
0 0 0
0 0 0
0 0 0
0 0 0
0 0 0
0 0 0
0 0 0
0 0 0
0 0 0
0 0 0
0 0 0
0 0 0
0 0 0
0 0 0
0 0 0
0 0 0
0 0 0
0 0 0
0 0 0
0 0 0
0 0 0
0 0 0
0 0 0
0 0 0
0 0 0
0 0 0
0 0 0
0 0 0
0 0 0
0 0 0
0 0 0
0 0 0
0 0 0
0 0 0
0 0 0
0 0 0
0 0 0
0 0 0
0 0 0
0 0 0
0 0 0
0 0 0
0 0 0
0 0 0
0 0 0
0 0 0
0 0 0
0 0 0
0 0 0
0 0 0
0 0 0
0 0 0
0 0 0
0 0 0
0 0 0
0 0 0
0 0 0
0 0 0
0 0 0
0 0 0
0 0 0
0 0 0
0 0 0
0 0 0
0 0 0
0 0 0
0 0 0
0 0 0
0 0 0
0 0 0
0 0 0
0 0 0
0 0 0
0 0 0
0 0 0
0 0 0
0 0 0
0 0 0
0 0 0
0 0 0
0 0 0
0 0 0
0 0 0
0 0 0
0 0 0
0 0 0
0 0 0
0 0 0
179 179 179
179 179 179
179 179 179
179 179 179
179 179 179
179 179 179
179 179 179
179 179 179
179 179 179
179 179 179
179 179 179
179 179 179
179 179 179
179 179 179
179 179 179
179 179 179
179 179 179
179 179 179
179 179 179
179 179 179
179 179 179
179 179 179
179 179 179
179 179 179
179 179 179
179 179 179
179 179 179
179 179 179
179 179 179
179 179 179
179 179 179
179 179 179
179 179 179
179 179 179
179 179 179
179 179 179
179 179 179
179 179 179
179 179 179
179 179 179
179 179 179
179 179 179
179 179 179
179 179 179
179 179 179
179 179 179
179 179 179
179 179 179
179 179 179
179 179 179
179 179 179
179 179 179
179 179 179
179 179 179
179 179 179
179 179 179
179 179 179
179 179 179
179 179 179
179 179 179
179 179 179
179 179 179
179 179 179
179 179 179
179 179 179
179 179 179
179 179 179
179 179 179
179 179 179
179 179 179
179 179 179
179 179 179
179 179 179
179 179 179
179 179 179
179 179 179
179 179 179
179 179 179
179 179 179
179 179 179
179 179 179
179 179 179
179 179 179
179 179 179
179 179 179
179 179 179
179 179 179
179 179 179
179 179 179
179 179 179
179 179 179
56 22 140
63 20 154
69 18 160
75 17 164
81 15 166
86 13 168
92 12 168
97 10 168
102 9 168
107 7 166
113 6 164
118 4 161
122 3 156
127 2 150
132 0 141
179 179 179
179 179 179
179 179 179
179 179 179
179 179 179
179 179 179
179 179 179
179 179 179
179 179 179
179 179 179
179 179 179
179 179 179
179 179 179
179 179 179
179 179 179
179 179 179
179 179 179
179 179 179
179 179 179
179 179 179
179 179 179
179 179 179
179 179 179
179 179 179
179 179 179
179 179 179
179 179 179
179 179 179
179 179 179
179 179 179
179 179 179
179 179 179
179 179 179
179 179 179
179 179 179
179 179 179
179 179 179
179 179 179
179 179 179
179 179 179
179 179 179
179 179 179
179 179 179
179 179 179
179 179 179
179 179 179
179 179 179
179 179 179
179 179 179
179 179 179
179 179 179
179 179 179
179 179 179
179 179 179
179 179 179
179 179 179
179 179 179
179 179 179
179 179 179
179 179 179
179 179 179
179 179 179
179 179 179
179 179 179
179 179 179
179 179 179
179 179 179
179 179 179
179 179 179
179 179 179
179 179 179
179 179 179
179 179 179
179 179 179
179 179 179
179 179 179
179 179 179
179 179 179
179 179 179
179 179 179
179 179 179
179 179 179
179 179 179
179 179 179
179 179 179
179 179 179
179 179 179
179 179 179
179 179 179
179 179 179
179 179 179
179 179 179
179 179 179
179 179 179
179 179 179
179 179 179
179 179 179
179 179 179
179 179 179
179 179 179
179 179 179
179 179 179
179 179 179
179 179 179
179 179 179
179 179 179
179 179 179
0 0 0
0 0 0
0 0 0
0 0 0
0 0 0
0 0 0
0 0 0
0 0 0
0 0 0
0 0 0
0 0 0
0 0 0
0 0 0
0 0 0
0 0 0
0 0 0
0 0 0
0 0 0
0 0 0
0 0 0
0 0 0
0 0 0
0 0 0
0 0 0
0 0 0
0 0 0
0 0 0
0 0 0
0 0 0
0 0 0
0 0 0
0 0 0
0 0 0
0 0 0
0 0 0
0 0 0
0 0 0
0 0 0
0 0 0
0 0 0
0 0 0
0 0 0
0 0 0
0 0 0
0 0 0
0 0 0
0 0 0
0 0 0
0 0 0
0 0 0
0 0 0
0 0 0
0 0 0
0 0 0
0 0 0
0 0 0
0 0 0
0 0 0
0 0 0
0 0 0
0 0 0
0 0 0
0 0 0
0 0 0
0 0 0
0 0 0
0 0 0
0 0 0
0 0 0
0 0 0
0 0 0
0 0 0
0 0 0
0 0 0
0 0 0
0 0 0
0 0 0
0 0 0
0 0 0
0 0 0
0 0 0
0 0 0
0 0 0
0 0 0
0 0 0
0 0 0
0 0 0
0 0 0
0 0 0
0 0 0
0 0 0
0 0 0
0 0 0
0 0 0
0 0 0
0 0 0
0 0 0
0 0 0
0 0 0
0 0 0
0 0 0
0 0 0
0 0 0
0 0 0
0 0 0
0 0 0
0 0 0
0 0 0
0 0 0
0 0 0
0 0 0
0 0 0
0 0 0
0 0 0
0 0 0
0 0 0
0 0 0
0 0 0
0 0 0
0 0 0
0 0 0
0 0 0
0 0 0
0 0 0
0 0 0
0 0 0
0 0 0
0 0 0
0 0 0
0 0 0
0 0 0
0 0 0
0 0 0
0 0 0
0 0 0
0 0 0
0 0 0
0 0 0
0 0 0
0 0 0
0 0 0
0 0 0
0 0 0
0 0 0
0 0 0
0 0 0
0 0 0
0 0 0
0 0 0
0 0 0
0 0 0
0 0 0
0 0 0
0 0 0
0 0 0
0 0 0
0 0 0
0 0 0
0 0 0
0 0 0
0 0 0
0 0 0
0 0 0
0 0 0
0 0 0
0 0 0
0 0 0
0 0 0
0 0 0
0 0 0
0 0 0
0 0 0
0 0 0
0 0 0
0 0 0
0 0 0
0 0 0
0 0 0
0 0 0
0 0 0
0 0 0
0 0 0
0 0 0
0 0 0
0 0 0
0 0 0
179 179 179
179 179 179
179 179 179
179 179 179
179 179 179
179 179 179
179 179 179
179 179 179
179 179 179
179 179 179
179 179 179
179 179 179
179 179 179
179 179 179
179 179 179
179 179 179
179 179 179
179 179 179
179 179 179
179 179 179
179 179 179
179 179 179
179 179 179
179 179 179
179 179 179
179 179 179
179 179 179
179 179 179
179 179 179
179 179 179
179 179 179
179 179 179
179 179 179
179 179 179
179 179 179
179 179 179
179 179 179
179 179 179
179 179 179
179 179 179
179 179 179
179 179 179
179 179 179
179 179 179
179 179 179
179 179 179
179 179 179
179 179 179
179 179 179
179 179 179
179 179 179
179 179 179
179 179 179
179 179 179
179 179 179
179 179 179
179 179 179
179 179 179
179 179 179
179 179 179
179 179 179
179 179 179
179 179 179
179 179 179
179 179 179
179 179 179
179 179 179
179 179 179
179 179 179
179 179 179
179 179 179
179 179 179
179 179 179
179 179 179
179 179 179
179 179 179
179 179 179
179 179 179
179 179 179
179 179 179
179 179 179
179 179 179
179 179 179
179 179 179
179 179 179
179 179 179
179 179 179
179 179 179
179 179 179
179 179 179
179 179 179
179 179 179
59 22 151
65 20 159
71 18 163
77 17 166
82 15 168
88 13 170
169 241 169
163 243 169
104 9 169
109 7 167
114 6 164
119 4 161
124 3 156
129 2 150
133 0 140
179 179 179
179 179 179
179 179 179
179 179 179
179 179 179
179 179 179
179 179 179
179 179 179
179 179 179
179 179 179
179 179 179
179 179 179
179 179 179
179 179 179
179 179 179
179 179 179
179 179 179
179 179 179
179 179 179
179 179 179
179 179 179
179 179 179
179 179 179
179 179 179
179 179 179
179 179 179
179 179 179
179 179 179
179 179 179
179 179 179
179 179 179
179 179 179
179 179 179
179 179 179
179 179 179
179 179 179
179 179 179
179 179 179
179 179 179
179 179 179
179 179 179
179 179 179
179 179 179
179 179 179
179 179 179
179 179 179
179 179 179
179 179 179
179 179 179
179 179 179
179 179 179
179 179 179
179 179 179
179 179 179
179 179 179
179 179 179
179 179 179
179 179 179
179 179 179
179 179 179
179 179 179
179 179 179
179 179 179
179 179 179
179 179 179
179 179 179
179 179 179
179 179 179
179 179 179
179 179 179
179 179 179
179 179 179
179 179 179
179 179 179
179 179 179
179 179 179
179 179 179
179 179 179
179 179 179
179 179 179
179 179 179
179 179 179
179 179 179
179 179 179
179 179 179
179 179 179
179 179 179
179 179 179
179 179 179
179 179 179
179 179 179
179 179 179
179 179 179
179 179 179
179 179 179
179 179 179
179 179 179
179 179 179
179 179 179
179 179 179
179 179 179
179 179 179
179 179 179
179 179 179
179 179 179
179 179 179
179 179 179
0 0 0
0 0 0
0 0 0
0 0 0
0 0 0
0 0 0
0 0 0
0 0 0
0 0 0
0 0 0
0 0 0
0 0 0
0 0 0
0 0 0
0 0 0
0 0 0
0 0 0
0 0 0
0 0 0
0 0 0
0 0 0
0 0 0
0 0 0
0 0 0
0 0 0
0 0 0
0 0 0
0 0 0
0 0 0
0 0 0
0 0 0
0 0 0
0 0 0
0 0 0
0 0 0
0 0 0
0 0 0
0 0 0
0 0 0
0 0 0
0 0 0
0 0 0
0 0 0
0 0 0
0 0 0
0 0 0
0 0 0
0 0 0
0 0 0
0 0 0
0 0 0
0 0 0
0 0 0
0 0 0
0 0 0
0 0 0
0 0 0
0 0 0
0 0 0
0 0 0
0 0 0
0 0 0
0 0 0
0 0 0
0 0 0
0 0 0
0 0 0
0 0 0
0 0 0
0 0 0
0 0 0
0 0 0
0 0 0
0 0 0
0 0 0
0 0 0
0 0 0
0 0 0
0 0 0
0 0 0
0 0 0
0 0 0
0 0 0
0 0 0
0 0 0
0 0 0
0 0 0
0 0 0
0 0 0
0 0 0
0 0 0
0 0 0
0 0 0
0 0 0
0 0 0
0 0 0
0 0 0
0 0 0
0 0 0
0 0 0
0 0 0
0 0 0
0 0 0
0 0 0
0 0 0
0 0 0
0 0 0
0 0 0
0 0 0
0 0 0
0 0 0
0 0 0
0 0 0
0 0 0
0 0 0
0 0 0
0 0 0
0 0 0
0 0 0
0 0 0
0 0 0
0 0 0
0 0 0
0 0 0
0 0 0
0 0 0
0 0 0
0 0 0
0 0 0
0 0 0
0 0 0
0 0 0
0 0 0
0 0 0
0 0 0
0 0 0
0 0 0
0 0 0
0 0 0
0 0 0
0 0 0
0 0 0
0 0 0
0 0 0
0 0 0
0 0 0
0 0 0
0 0 0
0 0 0
0 0 0
0 0 0
0 0 0
0 0 0
0 0 0
0 0 0
0 0 0
0 0 0
0 0 0
0 0 0
0 0 0
0 0 0
0 0 0
0 0 0
0 0 0
0 0 0
0 0 0
0 0 0
0 0 0
0 0 0
0 0 0
0 0 0
0 0 0
0 0 0
0 0 0
0 0 0
0 0 0
0 0 0
0 0 0
0 0 0
0 0 0
0 0 0
0 0 0
0 0 0
0 0 0
0 0 0
0 0 0
179 179 179
179 179 179
179 179 179
179 179 179
179 179 179
179 179 179
179 179 179
179 179 179
179 179 179
179 179 179
179 179 179
179 179 179
179 179 179
179 179 179
179 179 179
179 179 179
179 179 179
179 179 179
179 179 179
179 179 179
179 179 179
179 179 179
179 179 179
179 179 179
179 179 179
179 179 179
179 179 179
179 179 179
179 179 179
179 179 179
179 179 179
179 179 179
179 179 179
179 179 179
179 179 179
179 179 179
179 179 179
179 179 179
179 179 179
179 179 179
179 179 179
179 179 179
179 179 179
179 179 179
179 179 179
179 179 179
179 179 179
179 179 179
179 179 179
179 179 179
179 179 179
179 179 179
179 179 179
179 179 179
179 179 179
179 179 179
179 179 179
179 179 179
179 179 179
179 179 179
179 179 179
179 179 179
179 179 179
179 179 179
179 179 179
179 179 179
179 179 179
179 179 179
179 179 179
179 179 179
179 179 179
179 179 179
179 179 179
179 179 179
179 179 179
179 179 179
179 179 179
179 179 179
179 179 179
179 179 179
179 179 179
179 179 179
179 179 179
179 179 179
179 179 179
179 179 179
179 179 179
179 179 179
179 179 179
179 179 179
179 179 179
54 24 147
61 22 157
67 20 163
73 18 166
79 17 169
84 15 170
90 13 171
95 12 171
100 10 171
105 9 169
111 7 167
116 6 165
121 4 161
125 3 156
130 1 149
135 0 138
179 179 179
179 179 179
179 179 179
179 179 179
179 179 179
179 179 179
179 179 179
179 179 179
179 179 179
179 179 179
179 179 179
179 179 179
179 179 179
179 179 179
179 179 179
179 179 179
179 179 179
179 179 179
179 179 179
179 179 179
179 179 179
179 179 179
179 179 179
179 179 179
179 179 179
179 179 179
179 179 179
179 179 179
179 179 179
179 179 179
179 179 179
179 179 179
179 179 179
179 179 179
179 179 179
179 179 179
179 179 179
179 179 179
179 179 179
179 179 179
179 179 179
179 179 179
179 179 179
179 179 179
179 179 179
179 179 179
179 179 179
179 179 179
179 179 179
179 179 179
179 179 179
179 179 179
179 179 179
179 179 179
179 179 179
179 179 179
179 179 179
179 179 179
179 179 179
179 179 179
179 179 179
179 179 179
179 179 179
179 179 179
179 179 179
179 179 179
179 179 179
179 179 179
179 179 179
179 179 179
179 179 179
179 179 179
179 179 179
179 179 179
179 179 179
179 179 179
179 179 179
179 179 179
179 179 179
179 179 179
179 179 179
179 179 179
179 179 179
179 179 179
179 179 179
179 179 179
179 179 179
179 179 179
179 179 179
179 179 179
179 179 179
179 179 179
179 179 179
179 179 179
179 179 179
179 179 179
179 179 179
179 179 179
179 179 179
179 179 179
179 179 179
179 179 179
179 179 179
179 179 179
179 179 179
179 179 179
179 179 179
179 179 179
0 0 0
0 0 0
0 0 0
0 0 0
0 0 0
0 0 0
0 0 0
0 0 0
0 0 0
0 0 0
0 0 0
0 0 0
0 0 0
0 0 0
0 0 0
0 0 0
0 0 0
0 0 0
0 0 0
0 0 0
0 0 0
0 0 0
0 0 0
0 0 0
0 0 0
0 0 0
0 0 0
0 0 0
0 0 0
0 0 0
0 0 0
0 0 0
0 0 0
0 0 0
0 0 0
0 0 0
0 0 0
0 0 0
0 0 0
0 0 0
0 0 0
0 0 0
0 0 0
0 0 0
0 0 0
0 0 0
0 0 0
0 0 0
0 0 0
0 0 0
0 0 0
0 0 0
0 0 0
0 0 0
0 0 0
0 0 0
0 0 0
0 0 0
0 0 0
0 0 0
0 0 0
0 0 0
0 0 0
0 0 0
0 0 0
0 0 0
0 0 0
0 0 0
0 0 0
0 0 0
0 0 0
0 0 0
0 0 0
0 0 0
0 0 0
0 0 0
0 0 0
0 0 0
0 0 0
0 0 0
0 0 0
0 0 0
0 0 0
0 0 0
0 0 0
0 0 0
0 0 0
0 0 0
0 0 0
0 0 0
0 0 0
0 0 0
0 0 0
0 0 0
0 0 0
0 0 0
0 0 0
0 0 0
0 0 0
0 0 0
0 0 0
0 0 0
0 0 0
0 0 0
0 0 0
0 0 0
0 0 0
0 0 0
0 0 0
0 0 0
0 0 0
0 0 0
0 0 0
0 0 0
0 0 0
0 0 0
0 0 0
0 0 0
0 0 0
0 0 0
0 0 0
0 0 0
0 0 0
0 0 0
0 0 0
0 0 0
0 0 0
0 0 0
0 0 0
0 0 0
0 0 0
0 0 0
0 0 0
0 0 0
0 0 0
0 0 0
0 0 0
0 0 0
0 0 0
0 0 0
0 0 0
0 0 0
0 0 0
0 0 0
0 0 0
0 0 0
0 0 0
0 0 0
0 0 0
0 0 0
0 0 0
0 0 0
0 0 0
0 0 0
0 0 0
0 0 0
0 0 0
0 0 0
0 0 0
0 0 0
0 0 0
0 0 0
0 0 0
0 0 0
0 0 0
0 0 0
0 0 0
0 0 0
0 0 0
0 0 0
0 0 0
0 0 0
0 0 0
0 0 0
0 0 0
0 0 0
0 0 0
0 0 0
0 0 0
0 0 0
0 0 0
0 0 0
0 0 0
0 0 0
179 179 179
179 179 179
179 179 179
179 179 179
179 179 179
179 179 179
179 179 179
179 179 179
179 179 179
179 179 179
179 179 179
179 179 179
179 179 179
179 179 179
179 179 179
179 179 179
179 179 179
179 179 179
179 179 179
179 179 179
179 179 179
179 179 179
179 179 179
179 179 179
179 179 179
179 179 179
179 179 179
179 179 179
179 179 179
179 179 179
179 179 179
179 179 179
179 179 179
179 179 179
179 179 179
179 179 179
179 179 179
179 179 179
179 179 179
179 179 179
179 179 179
179 179 179
179 179 179
179 179 179
179 179 179
179 179 179
179 179 179
179 179 179
179 179 179
179 179 179
179 179 179
179 179 179
179 179 179
179 179 179
179 179 179
179 179 179
179 179 179
179 179 179
179 179 179
179 179 179
179 179 179
179 179 179
179 179 179
179 179 179
179 179 179
179 179 179
179 179 179
179 179 179
179 179 179
179 179 179
179 179 179
179 179 179
179 179 179
179 179 179
179 179 179
179 179 179
179 179 179
179 179 179
179 179 179
179 179 179
179 179 179
179 179 179
179 179 179
179 179 179
179 179 179
179 179 179
179 179 179
179 179 179
179 179 179
179 179 179
179 179 179
50 27 140
57 24 155
63 22 162
69 20 166
75 18 169
81 17 171
86 15 172
91 13 173
97 12 172
102 10 172
107 9 170
112 7 168
117 6 165
122 4 161
127 3 156
132 1 149
136 0 136
179 179 179
179 179 179
179 179 179
179 179 179
179 179 179
179 179 179
179 179 179
179 179 179
179 179 179
179 179 179
179 179 179
179 179 179
179 179 179
179 179 179
179 179 179
179 179 179
179 179 179
179 179 179
179 179 179
179 179 179
179 179 179
179 179 179
179 179 179
179 179 179
179 179 179
179 179 179
179 179 179
179 179 179
179 179 179
179 179 179
179 179 179
179 179 179
179 179 179
179 179 179
179 179 179
179 179 179
179 179 179
179 179 179
179 179 179
179 179 179
179 179 179
179 179 179
179 179 179
179 179 179
179 179 179
179 179 179
179 179 179
179 179 179
179 179 179
179 179 179
179 179 179
179 179 179
179 179 179
179 179 179
179 179 179
179 179 179
179 179 179
179 179 179
179 179 179
179 179 179
179 179 179
179 179 179
179 179 179
179 179 179
179 179 179
179 179 179
179 179 179
179 179 179
179 179 179
179 179 179
179 179 179
179 179 179
179 179 179
179 179 179
179 179 179
179 179 179
179 179 179
179 179 179
179 179 179
179 179 179
179 179 179
179 179 179
179 179 179
179 179 179
179 179 179
179 179 179
179 179 179
179 179 179
179 179 179
179 179 179
179 179 179
179 179 179
179 179 179
179 179 179
179 179 179
179 179 179
179 179 179
179 179 179
179 179 179
179 179 179
179 179 179
179 179 179
179 179 179
179 179 179
179 179 179
179 179 179
179 179 179
179 179 179
179 179 179
0 0 0
0 0 0
0 0 0
0 0 0
0 0 0
0 0 0
0 0 0
0 0 0
0 0 0
0 0 0
0 0 0
0 0 0
0 0 0
0 0 0
0 0 0
0 0 0
0 0 0
0 0 0
0 0 0
0 0 0
0 0 0
0 0 0
0 0 0
0 0 0
0 0 0
0 0 0
0 0 0
0 0 0
0 0 0
0 0 0
0 0 0
0 0 0
0 0 0
0 0 0
0 0 0
0 0 0
0 0 0
0 0 0
0 0 0
0 0 0
0 0 0
0 0 0
0 0 0
0 0 0
0 0 0
0 0 0
0 0 0
0 0 0
0 0 0
0 0 0
0 0 0
0 0 0
0 0 0
0 0 0
0 0 0
0 0 0
0 0 0
0 0 0
0 0 0
0 0 0
0 0 0
0 0 0
0 0 0
0 0 0
0 0 0
0 0 0
0 0 0
0 0 0
0 0 0
0 0 0
0 0 0
0 0 0
0 0 0
0 0 0
0 0 0
0 0 0
0 0 0
0 0 0
0 0 0
0 0 0
0 0 0
0 0 0
0 0 0
0 0 0
0 0 0
0 0 0
0 0 0
0 0 0
0 0 0
0 0 0
0 0 0
0 0 0
0 0 0
0 0 0
0 0 0
0 0 0
0 0 0
0 0 0
0 0 0
0 0 0
0 0 0
0 0 0
0 0 0
0 0 0
0 0 0
0 0 0
0 0 0
0 0 0
0 0 0
0 0 0
0 0 0
0 0 0
0 0 0
0 0 0
0 0 0
0 0 0
0 0 0
0 0 0
0 0 0
0 0 0
0 0 0
0 0 0
0 0 0
0 0 0
0 0 0
0 0 0
0 0 0
0 0 0
0 0 0
0 0 0
0 0 0
0 0 0
0 0 0
0 0 0
0 0 0
0 0 0
0 0 0
0 0 0
0 0 0
0 0 0
0 0 0
0 0 0
0 0 0
0 0 0
0 0 0
0 0 0
0 0 0
0 0 0
0 0 0
0 0 0
0 0 0
0 0 0
0 0 0
0 0 0
0 0 0
0 0 0
0 0 0
0 0 0
0 0 0
0 0 0
0 0 0
0 0 0
0 0 0
0 0 0
0 0 0
0 0 0
0 0 0
0 0 0
0 0 0
0 0 0
0 0 0
0 0 0
0 0 0
0 0 0
0 0 0
0 0 0
0 0 0
0 0 0
0 0 0
0 0 0
0 0 0
0 0 0
179 179 179
179 179 179
179 179 179
179 179 179
179 179 179
179 179 179
179 179 179
179 179 179
179 179 179
179 179 179
179 179 179
179 179 179
179 179 179
179 179 179
179 179 179
179 179 179
179 179 179
179 179 179
179 179 179
179 179 179
179 179 179
179 179 179
179 179 179
179 179 179
179 179 179
179 179 179
179 179 179
179 179 179
179 179 179
179 179 179
179 179 179
179 179 179
179 179 179
179 179 179
179 179 179
179 179 179
179 179 179
179 179 179
179 179 179
179 179 179
179 179 179
179 179 179
179 179 179
179 179 179
179 179 179
179 179 179
179 179 179
179 179 179
179 179 179
179 179 179
179 179 179
179 179 179
179 179 179
179 179 179
179 179 179
179 179 179
179 179 179
179 179 179
179 179 179
179 179 179
179 179 179
179 179 179
179 179 179
179 179 179
179 179 179
179 179 179
179 179 179
179 179 179
179 179 179
179 179 179
179 179 179
179 179 179
179 179 179
179 179 179
179 179 179
179 179 179
179 179 179
179 179 179
179 179 179
179 179 179
179 179 179
179 179 179
179 179 179
179 179 179
179 179 179
179 179 179
179 179 179
179 179 179
179 179 179
179 179 179
179 179 179
179 179 179
53 26 152
59 24 160
65 22 166
71 20 169
77 18 172
82 17 173
88 15 174
93 13 174
98 12 173
104 10 172
109 8 171
114 7 168
119 5 165
124 4 161
128 3 155
133 1 147
137 0 132
179 179 179
179 179 179
179 179 179
179 179 179
179 179 179
179 179 179
179 179 179
179 179 179
179 179 179
179 179 179
179 179 179
179 179 179
179 179 179
179 179 179
179 179 179
179 179 179
179 179 179
179 179 179
179 179 179
179 179 179
179 179 179
179 179 179
179 179 179
179 179 179
179 179 179
179 179 179
179 179 179
179 179 179
179 179 179
179 179 179
179 179 179
179 179 179
179 179 179
179 179 179
179 179 179
179 179 179
179 179 179
179 179 179
179 179 179
179 179 179
179 179 179
179 179 179
179 179 179
179 179 179
179 179 179
179 179 179
179 179 179
179 179 179
179 179 179
179 179 179
179 179 179
179 179 179
179 179 179
179 179 179
179 179 179
179 179 179
179 179 179
179 179 179
179 179 179
179 179 179
179 179 179
179 179 179
179 179 179
179 179 179
179 179 179
179 179 179
179 179 179
179 179 179
179 179 179
179 179 179
179 179 179
179 179 179
179 179 179
179 179 179
179 179 179
179 179 179
179 179 179
179 179 179
179 179 179
179 179 179
179 179 179
179 179 179
179 179 179
179 179 179
179 179 179
179 179 179
179 179 179
179 179 179
179 179 179
179 179 179
179 179 179
179 179 179
179 179 179
179 179 179
179 179 179
179 179 179
179 179 179
179 179 179
179 179 179
179 179 179
179 179 179
179 179 179
179 179 179
179 179 179
179 179 179
179 179 179
179 179 179
179 179 179
179 179 179
0 0 0
0 0 0
0 0 0
0 0 0
0 0 0
0 0 0
0 0 0
0 0 0
0 0 0
0 0 0
0 0 0
0 0 0
0 0 0
0 0 0
0 0 0
0 0 0
0 0 0
0 0 0
0 0 0
0 0 0
0 0 0
0 0 0
0 0 0
0 0 0
0 0 0
0 0 0
0 0 0
0 0 0
0 0 0
0 0 0
0 0 0
0 0 0
0 0 0
0 0 0
0 0 0
0 0 0
0 0 0
0 0 0
0 0 0
0 0 0
0 0 0
0 0 0
0 0 0
0 0 0
0 0 0
0 0 0
0 0 0
0 0 0
0 0 0
0 0 0
0 0 0
0 0 0
0 0 0
0 0 0
0 0 0
0 0 0
0 0 0
0 0 0
0 0 0
0 0 0
0 0 0
0 0 0
0 0 0
0 0 0
0 0 0
0 0 0
0 0 0
0 0 0
0 0 0
0 0 0
0 0 0
0 0 0
0 0 0
0 0 0
0 0 0
0 0 0
0 0 0
0 0 0
0 0 0
0 0 0
0 0 0
0 0 0
0 0 0
0 0 0
0 0 0
0 0 0
0 0 0
0 0 0
0 0 0
0 0 0
0 0 0
0 0 0
0 0 0
0 0 0
0 0 0
0 0 0
0 0 0
0 0 0
0 0 0
0 0 0
0 0 0
0 0 0
0 0 0
0 0 0
0 0 0
0 0 0
0 0 0
0 0 0
0 0 0
0 0 0
0 0 0
0 0 0
0 0 0
0 0 0
0 0 0
0 0 0
0 0 0
0 0 0
0 0 0
0 0 0
0 0 0
0 0 0
0 0 0
0 0 0
0 0 0
0 0 0
0 0 0
0 0 0
0 0 0
0 0 0
0 0 0
0 0 0
0 0 0
0 0 0
0 0 0
0 0 0
0 0 0
0 0 0
0 0 0
0 0 0
0 0 0
0 0 0
0 0 0
0 0 0
0 0 0
0 0 0
0 0 0
0 0 0
0 0 0
0 0 0
0 0 0
0 0 0
0 0 0
0 0 0
0 0 0
0 0 0
0 0 0
0 0 0
0 0 0
0 0 0
0 0 0
0 0 0
0 0 0
0 0 0
0 0 0
0 0 0
0 0 0
0 0 0
0 0 0
0 0 0
0 0 0
0 0 0
0 0 0
0 0 0
0 0 0
0 0 0
0 0 0
0 0 0
0 0 0
0 0 0
0 0 0
0 0 0
179 179 179
179 179 179
179 179 179
179 179 179
179 179 179
179 179 179
179 179 179
179 179 179
179 179 179
179 179 179
179 179 179
179 179 179
179 179 179
179 179 179
179 179 179
179 179 179
179 179 179
179 179 179
179 179 179
179 179 179
179 179 179
179 179 179
179 179 179
179 179 179
179 179 179
179 179 179
179 179 179
179 179 179
179 179 179
179 179 179
179 179 179
179 179 179
179 179 179
179 179 179
179 179 179
179 179 179
179 179 179
179 179 179
179 179 179
179 179 179
179 179 179
179 179 179
179 179 179
179 179 179
179 179 179
179 179 179
179 179 179
179 179 179
179 179 179
179 179 179
179 179 179
179 179 179
179 179 179
179 179 179
179 179 179
179 179 179
179 179 179
179 179 179
179 179 179
179 179 179
179 179 179
179 179 179
179 179 179
179 179 179
179 179 179
179 179 179
179 179 179
179 179 179
179 179 179
179 179 179
179 179 179
179 179 179
179 179 179
179 179 179
179 179 179
179 179 179
179 179 179
179 179 179
179 179 179
179 179 179
179 179 179
179 179 179
179 179 179
179 179 179
179 179 179
179 179 179
179 179 179
179 179 179
179 179 179
179 179 179
179 179 179
49 29 147
55 26 158
62 24 165
68 22 169
73 20 172
79 18 174
84 17 175
90 15 175
95 13 175
100 12 174
105 10 173
110 8 171
115 7 168
120 5 165
125 4 160
130 2 155
134 1 146
179 179 179
179 179 179
179 179 179
179 179 179
179 179 179
179 179 179
179 179 179
179 179 179
179 179 179
179 179 179
179 179 179
179 179 179
179 179 179
179 179 179
179 179 179
179 179 179
179 179 179
179 179 179
179 179 179
179 179 179
179 179 179
179 179 179
179 179 179
179 179 179
179 179 179
179 179 179
179 179 179
179 179 179
179 179 179
179 179 179
179 179 179
179 179 179
179 179 179
179 179 179
179 179 179
179 179 179
179 179 179
179 179 179
179 179 179
179 179 179
179 179 179
179 179 179
179 179 179
179 179 179
179 179 179
179 179 179
179 179 179
179 179 179
179 179 179
179 179 179
179 179 179
179 179 179
179 179 179
179 179 179
179 179 179
179 179 179
179 179 179
179 179 179
179 179 179
179 179 179
179 179 179
179 179 179
179 179 179
179 179 179
179 179 179
179 179 179
179 179 179
179 179 179
179 179 179
179 179 179
179 179 179
179 179 179
179 179 179
179 179 179
179 179 179
179 179 179
179 179 179
179 179 179
179 179 179
179 179 179
179 179 179
179 179 179
179 179 179
179 179 179
179 179 179
179 179 179
179 179 179
179 179 179
179 179 179
179 179 179
179 179 179
179 179 179
179 179 179
179 179 179
179 179 179
179 179 179
179 179 179
179 179 179
179 179 179
179 179 179
179 179 179
179 179 179
179 179 179
179 179 179
179 179 179
179 179 179
179 179 179
179 179 179
179 179 179
179 179 179
179 179 179
0 0 0
0 0 0
0 0 0
0 0 0
0 0 0
0 0 0
0 0 0
0 0 0
0 0 0
0 0 0
0 0 0
0 0 0
0 0 0
0 0 0
0 0 0
0 0 0
0 0 0
0 0 0
0 0 0
0 0 0
0 0 0
0 0 0
0 0 0
0 0 0
0 0 0
0 0 0
0 0 0
0 0 0
0 0 0
0 0 0
0 0 0
0 0 0
0 0 0
0 0 0
0 0 0
0 0 0
0 0 0
0 0 0
0 0 0
0 0 0
0 0 0
0 0 0
0 0 0
0 0 0
0 0 0
0 0 0
0 0 0
0 0 0
0 0 0
0 0 0
0 0 0
0 0 0
0 0 0
0 0 0
0 0 0
0 0 0
0 0 0
0 0 0
0 0 0
0 0 0
0 0 0
0 0 0
0 0 0
0 0 0
0 0 0
0 0 0
0 0 0
0 0 0
0 0 0
0 0 0
0 0 0
0 0 0
0 0 0
0 0 0
0 0 0
0 0 0
0 0 0
0 0 0
0 0 0
0 0 0
0 0 0
0 0 0
0 0 0
0 0 0
0 0 0
0 0 0
0 0 0
0 0 0
0 0 0
0 0 0
0 0 0
0 0 0
0 0 0
0 0 0
0 0 0
0 0 0
0 0 0
0 0 0
0 0 0
0 0 0
0 0 0
0 0 0
0 0 0
0 0 0
0 0 0
0 0 0
0 0 0
0 0 0
0 0 0
0 0 0
0 0 0
0 0 0
0 0 0
0 0 0
0 0 0
0 0 0
0 0 0
0 0 0
0 0 0
0 0 0
0 0 0
0 0 0
0 0 0
0 0 0
0 0 0
0 0 0
0 0 0
0 0 0
0 0 0
0 0 0
0 0 0
0 0 0
0 0 0
0 0 0
0 0 0
0 0 0
0 0 0
0 0 0
0 0 0
0 0 0
0 0 0
0 0 0
0 0 0
0 0 0
0 0 0
0 0 0
0 0 0
0 0 0
0 0 0
0 0 0
0 0 0
0 0 0
0 0 0
0 0 0
0 0 0
0 0 0
0 0 0
0 0 0
0 0 0
0 0 0
0 0 0
0 0 0
0 0 0
0 0 0
0 0 0
0 0 0
0 0 0
0 0 0
0 0 0
0 0 0
0 0 0
0 0 0
0 0 0
0 0 0
0 0 0
0 0 0
0 0 0
0 0 0
0 0 0
0 0 0
179 179 179
179 179 179
179 179 179
179 179 179
179 179 179
179 179 179
179 179 179
179 179 179
179 179 179
179 179 179
179 179 179
179 179 179
179 179 179
179 179 179
179 179 179
179 179 179
179 179 179
179 179 179
179 179 179
179 179 179
179 179 179
179 179 179
179 179 179
179 179 179
179 179 179
179 179 179
179 179 179
179 179 179
179 179 179
179 179 179
179 179 179
179 179 179
179 179 179
179 179 179
179 179 179
179 179 179
179 179 179
179 179 179
179 179 179
179 179 179
179 179 179
179 179 179
179 179 179
179 179 179
179 179 179
179 179 179
179 179 179
179 179 179
179 179 179
179 179 179
179 179 179
179 179 179
179 179 179
179 179 179
179 179 179
179 179 179
179 179 179
179 179 179
179 179 179
179 179 179
179 179 179
179 179 179
179 179 179
179 179 179
179 179 179
179 179 179
179 179 179
179 179 179
179 179 179
179 179 179
179 179 179
179 179 179
179 179 179
179 179 179
179 179 179
179 179 179
179 179 179
179 179 179
179 179 179
179 179 179
179 179 179
179 179 179
179 179 179
179 179 179
179 179 179
179 179 179
179 179 179
179 179 179
179 179 179
179 179 179
179 179 179
44 31 138
52 28 156
58 26 163
64 24 168
70 22 172
75 20 174
81 18 176
86 17 176
92 15 177
97 13 176
102 12 175
107 10 174
112 8 171
117 7 169
122 5 165
127 4 160
131 2 154
136 1 144
179 179 179
179 179 179
179 179 179
179 179 179
179 179 179
179 179 179
179 179 179
179 179 179
179 179 179
179 179 179
179 179 179
179 179 179
179 179 179
179 179 179
179 179 179
179 179 179
179 179 179
179 179 179
179 179 179
179 179 179
179 179 179
179 179 179
179 179 179
179 179 179
179 179 179
179 179 179
179 179 179
179 179 179
179 179 179
179 179 179
179 179 179
179 179 179
179 179 179
179 179 179
179 179 179
179 179 179
179 179 179
179 179 179
179 179 179
179 179 179
179 179 179
179 179 179
179 179 179
179 179 179
179 179 179
179 179 179
179 179 179
179 179 179
179 179 179
179 179 179
179 179 179
179 179 179
179 179 179
179 179 179
179 179 179
179 179 179
179 179 179
179 179 179
179 179 179
179 179 179
179 179 179
179 179 179
179 179 179
179 179 179
179 179 179
179 179 179
179 179 179
179 179 179
179 179 179
179 179 179
179 179 179
179 179 179
179 179 179
179 179 179
179 179 179
179 179 179
179 179 179
179 179 179
179 179 179
179 179 179
179 179 179
179 179 179
179 179 179
179 179 179
179 179 179
179 179 179
179 179 179
179 179 179
179 179 179
179 179 179
179 179 179
179 179 179
179 179 179
179 179 179
179 179 179
179 179 179
179 179 179
179 179 179
179 179 179
179 179 179
179 179 179
179 179 179
179 179 179
179 179 179
179 179 179
179 179 179
179 179 179
179 179 179
179 179 179
179 179 179
179 179 179
0 0 0
0 0 0
0 0 0
0 0 0
0 0 0
0 0 0
0 0 0
0 0 0
0 0 0
0 0 0
0 0 0
0 0 0
0 0 0
0 0 0
0 0 0
0 0 0
0 0 0
0 0 0
0 0 0
0 0 0
0 0 0
0 0 0
0 0 0
0 0 0
0 0 0
0 0 0
0 0 0
0 0 0
0 0 0
0 0 0
0 0 0
0 0 0
0 0 0
0 0 0
0 0 0
0 0 0
0 0 0
0 0 0
0 0 0
0 0 0
0 0 0
0 0 0
0 0 0
0 0 0
0 0 0
0 0 0
0 0 0
0 0 0
0 0 0
0 0 0
0 0 0
0 0 0
0 0 0
0 0 0
0 0 0
0 0 0
0 0 0
0 0 0
0 0 0
0 0 0
0 0 0
0 0 0
0 0 0
0 0 0
0 0 0
0 0 0
0 0 0
0 0 0
0 0 0
0 0 0
0 0 0
0 0 0
0 0 0
0 0 0
0 0 0
0 0 0
0 0 0
0 0 0
0 0 0
0 0 0
0 0 0
0 0 0
0 0 0
0 0 0
0 0 0
0 0 0
0 0 0
0 0 0
0 0 0
0 0 0
0 0 0
0 0 0
0 0 0
0 0 0
0 0 0
0 0 0
0 0 0
0 0 0
0 0 0
0 0 0
0 0 0
0 0 0
0 0 0
0 0 0
0 0 0
0 0 0
0 0 0
0 0 0
0 0 0
0 0 0
0 0 0
0 0 0
0 0 0
0 0 0
0 0 0
0 0 0
0 0 0
0 0 0
0 0 0
0 0 0
0 0 0
0 0 0
0 0 0
0 0 0
0 0 0
0 0 0
0 0 0
0 0 0
0 0 0
0 0 0
0 0 0
0 0 0
0 0 0
0 0 0
0 0 0
0 0 0
0 0 0
0 0 0
0 0 0
0 0 0
0 0 0
0 0 0
0 0 0
0 0 0
0 0 0
0 0 0
0 0 0
0 0 0
0 0 0
0 0 0
0 0 0
0 0 0
0 0 0
0 0 0
0 0 0
0 0 0
0 0 0
0 0 0
0 0 0
0 0 0
0 0 0
0 0 0
0 0 0
0 0 0
0 0 0
0 0 0
0 0 0
0 0 0
0 0 0
0 0 0
0 0 0
0 0 0
0 0 0
0 0 0
0 0 0
0 0 0
0 0 0
0 0 0
0 0 0
0 0 0
179 179 179
179 179 179
179 179 179
179 179 179
179 179 179
179 179 179
179 179 179
179 179 179
179 179 179
179 179 179
179 179 179
179 179 179
179 179 179
179 179 179
179 179 179
179 179 179
179 179 179
179 179 179
179 179 179
179 179 179
179 179 179
179 179 179
179 179 179
179 179 179
179 179 179
179 179 179
179 179 179
179 179 179
179 179 179
179 179 179
179 179 179
179 179 179
179 179 179
179 179 179
179 179 179
179 179 179
179 179 179
179 179 179
179 179 179
179 179 179
179 179 179
179 179 179
179 179 179
179 179 179
179 179 179
179 179 179
179 179 179
179 179 179
179 179 179
179 179 179
179 179 179
179 179 179
179 179 179
179 179 179
179 179 179
179 179 179
179 179 179
179 179 179
179 179 179
179 179 179
179 179 179
179 179 179
179 179 179
179 179 179
179 179 179
179 179 179
179 179 179
179 179 179
179 179 179
179 179 179
179 179 179
179 179 179
179 179 179
179 179 179
179 179 179
179 179 179
179 179 179
179 179 179
179 179 179
179 179 179
179 179 179
179 179 179
179 179 179
179 179 179
179 179 179
179 179 179
179 179 179
179 179 179
179 179 179
179 179 179
179 179 179
48 31 153
54 28 162
60 26 168
66 24 172
72 22 174
77 20 176
83 18 177
88 17 178
93 15 178
99 13 177
104 11 176
109 10 174
114 8 172
119 7 169
123 5 165
128 4 159
133 2 153
137 1 142
179 179 179
179 179 179
179 179 179
179 179 179
179 179 179
179 179 179
179 179 179
179 179 179
179 179 179
179 179 179
179 179 179
179 179 179
179 179 179
179 179 179
179 179 179
179 179 179
179 179 179
179 179 179
179 179 179
179 179 179
179 179 179
179 179 179
179 179 179
179 179 179
179 179 179
179 179 179
179 179 179
179 179 179
179 179 179
179 179 179
179 179 179
179 179 179
179 179 179
179 179 179
179 179 179
179 179 179
179 179 179
179 179 179
179 179 179
179 179 179
179 179 179
179 179 179
179 179 179
179 179 179
179 179 179
179 179 179
179 179 179
179 179 179
179 179 179
179 179 179
179 179 179
179 179 179
179 179 179
179 179 179
179 179 179
179 179 179
179 179 179
179 179 179
179 179 179
179 179 179
179 179 179
179 179 179
179 179 179
179 179 179
179 179 179
179 179 179
179 179 179
179 179 179
179 179 179
179 179 179
179 179 179
179 179 179
179 179 179
179 179 179
179 179 179
179 179 179
179 179 179
179 179 179
179 179 179
179 179 179
179 179 179
179 179 179
179 179 179
179 179 179
179 179 179
179 179 179
179 179 179
179 179 179
179 179 179
179 179 179
179 179 179
179 179 179
179 179 179
179 179 179
179 179 179
179 179 179
179 179 179
179 179 179
179 179 179
179 179 179
179 179 179
179 179 179
179 179 179
179 179 179
179 179 179
179 179 179
179 179 179
179 179 179
179 179 179
179 179 179
179 179 179
179 179 179
0 0 0
0 0 0
0 0 0
0 0 0
0 0 0
0 0 0
0 0 0
0 0 0
0 0 0
0 0 0
0 0 0
0 0 0
0 0 0
0 0 0
0 0 0
0 0 0
0 0 0
0 0 0
0 0 0
0 0 0
0 0 0
0 0 0
0 0 0
0 0 0
0 0 0
0 0 0
0 0 0
0 0 0
0 0 0
0 0 0
0 0 0
0 0 0
0 0 0
0 0 0
0 0 0
0 0 0
0 0 0
0 0 0
0 0 0
0 0 0
0 0 0
0 0 0
0 0 0
0 0 0
0 0 0
0 0 0
0 0 0
0 0 0
0 0 0
0 0 0
0 0 0
0 0 0
0 0 0
0 0 0
0 0 0
0 0 0
0 0 0
0 0 0
0 0 0
0 0 0
0 0 0
0 0 0
0 0 0
0 0 0
0 0 0
0 0 0
0 0 0
0 0 0
0 0 0
0 0 0
0 0 0
0 0 0
0 0 0
0 0 0
0 0 0
0 0 0
0 0 0
0 0 0
0 0 0
0 0 0
0 0 0
0 0 0
0 0 0
0 0 0
0 0 0
0 0 0
0 0 0
0 0 0
0 0 0
0 0 0
0 0 0
0 0 0
0 0 0
0 0 0
0 0 0
0 0 0
0 0 0
0 0 0
0 0 0
0 0 0
0 0 0
0 0 0
0 0 0
0 0 0
0 0 0
0 0 0
0 0 0
0 0 0
0 0 0
0 0 0
0 0 0
0 0 0
0 0 0
0 0 0
0 0 0
0 0 0
0 0 0
0 0 0
0 0 0
0 0 0
0 0 0
0 0 0
0 0 0
0 0 0
0 0 0
0 0 0
0 0 0
0 0 0
0 0 0
0 0 0
0 0 0
0 0 0
0 0 0
0 0 0
0 0 0
0 0 0
0 0 0
0 0 0
0 0 0
0 0 0
0 0 0
0 0 0
0 0 0
0 0 0
0 0 0
0 0 0
0 0 0
0 0 0
0 0 0
0 0 0
0 0 0
0 0 0
0 0 0
0 0 0
0 0 0
0 0 0
0 0 0
0 0 0
0 0 0
0 0 0
0 0 0
0 0 0
0 0 0
0 0 0
0 0 0
0 0 0
0 0 0
0 0 0
0 0 0
0 0 0
0 0 0
0 0 0
0 0 0
0 0 0
0 0 0
0 0 0
0 0 0
0 0 0
179 179 179
179 179 179
179 179 179
179 179 179
179 179 179
179 179 179
179 179 179
179 179 179
179 179 179
179 179 179
179 179 179
179 179 179
179 179 179
179 179 179
179 179 179
179 179 179
179 179 179
179 179 179
179 179 179
179 179 179
179 179 179
179 179 179
179 179 179
179 179 179
179 179 179
179 179 179
179 179 179
179 179 179
179 179 179
179 179 179
179 179 179
179 179 179
179 179 179
179 179 179
179 179 179
179 179 179
179 179 179
179 179 179
179 179 179
179 179 179
179 179 179
179 179 179
179 179 179
179 179 179
179 179 179
179 179 179
179 179 179
179 179 179
179 179 179
179 179 179
179 179 179
179 179 179
179 179 179
179 179 179
179 179 179
179 179 179
179 179 179
179 179 179
179 179 179
179 179 179
179 179 179
179 179 179
179 179 179
179 179 179
179 179 179
179 179 179
179 179 179
179 179 179
179 179 179
179 179 179
179 179 179
179 179 179
179 179 179
179 179 179
179 179 179
179 179 179
179 179 179
179 179 179
179 179 179
179 179 179
179 179 179
179 179 179
179 179 179
179 179 179
179 179 179
179 179 179
179 179 179
179 179 179
179 179 179
179 179 179
179 179 179
43 33 148
50 31 160
57 28 167
63 26 171
68 24 174
74 22 177
79 20 178
85 18 179
90 17 179
95 15 179
100 13 178
105 11 176
110 10 174
146 245 175
120 6 168
125 5 164
130 3 159
134 2 151
139 1 140
179 179 179
179 179 179
179 179 179
179 179 179
179 179 179
179 179 179
179 179 179
179 179 179
179 179 179
179 179 179
179 179 179
179 179 179
179 179 179
179 179 179
179 179 179
179 179 179
179 179 179
179 179 179
179 179 179
179 179 179
179 179 179
179 179 179
179 179 179
179 179 179
179 179 179
179 179 179
179 179 179
179 179 179
179 179 179
179 179 179
179 179 179
179 179 179
179 179 179
179 179 179
179 179 179
179 179 179
179 179 179
179 179 179
179 179 179
179 179 179
179 179 179
179 179 179
179 179 179
179 179 179
179 179 179
179 179 179
179 179 179
179 179 179
179 179 179
179 179 179
179 179 179
179 179 179
179 179 179
179 179 179
179 179 179
179 179 179
179 179 179
179 179 179
179 179 179
179 179 179
179 179 179
179 179 179
179 179 179
179 179 179
179 179 179
179 179 179
179 179 179
179 179 179
179 179 179
179 179 179
179 179 179
179 179 179
179 179 179
179 179 179
179 179 179
179 179 179
179 179 179
179 179 179
179 179 179
179 179 179
179 179 179
179 179 179
179 179 179
179 179 179
179 179 179
179 179 179
179 179 179
179 179 179
179 179 179
179 179 179
179 179 179
179 179 179
179 179 179
179 179 179
179 179 179
179 179 179
179 179 179
179 179 179
179 179 179
179 179 179
179 179 179
179 179 179
179 179 179
179 179 179
179 179 179
179 179 179
179 179 179
179 179 179
179 179 179
179 179 179
179 179 179
179 179 179
179 179 179
0 0 0
0 0 0
0 0 0
0 0 0
0 0 0
0 0 0
0 0 0
0 0 0
0 0 0
0 0 0
0 0 0
0 0 0
0 0 0
0 0 0
0 0 0
0 0 0
0 0 0
0 0 0
0 0 0
0 0 0
0 0 0
0 0 0
0 0 0
0 0 0
0 0 0
0 0 0
0 0 0
0 0 0
0 0 0
0 0 0
0 0 0
0 0 0
0 0 0
0 0 0
0 0 0
0 0 0
0 0 0
0 0 0
0 0 0
0 0 0
0 0 0
0 0 0
0 0 0
0 0 0
0 0 0
0 0 0
0 0 0
0 0 0
0 0 0
0 0 0
0 0 0
0 0 0
0 0 0
0 0 0
0 0 0
0 0 0
0 0 0
0 0 0
0 0 0
0 0 0
0 0 0
0 0 0
0 0 0
0 0 0
0 0 0
0 0 0
0 0 0
0 0 0
0 0 0
0 0 0
0 0 0
0 0 0
0 0 0
0 0 0
0 0 0
0 0 0
0 0 0
0 0 0
0 0 0
0 0 0
0 0 0
0 0 0
0 0 0
0 0 0
0 0 0
0 0 0
0 0 0
0 0 0
0 0 0
0 0 0
0 0 0
0 0 0
0 0 0
0 0 0
0 0 0
0 0 0
0 0 0
0 0 0
0 0 0
0 0 0
0 0 0
0 0 0
0 0 0
0 0 0
0 0 0
0 0 0
0 0 0
0 0 0
0 0 0
0 0 0
0 0 0
0 0 0
0 0 0
0 0 0
0 0 0
0 0 0
0 0 0
0 0 0
0 0 0
0 0 0
0 0 0
0 0 0
0 0 0
0 0 0
0 0 0
0 0 0
0 0 0
0 0 0
0 0 0
0 0 0
0 0 0
0 0 0
0 0 0
0 0 0
0 0 0
0 0 0
0 0 0
0 0 0
0 0 0
0 0 0
0 0 0
0 0 0
0 0 0
0 0 0
0 0 0
0 0 0
0 0 0
0 0 0
0 0 0
0 0 0
0 0 0
0 0 0
0 0 0
0 0 0
0 0 0
0 0 0
0 0 0
0 0 0
0 0 0
0 0 0
0 0 0
0 0 0
0 0 0
0 0 0
0 0 0
0 0 0
0 0 0
0 0 0
0 0 0
0 0 0
0 0 0
0 0 0
0 0 0
0 0 0
0 0 0
0 0 0
179 179 179
179 179 179
179 179 179
179 179 179
179 179 179
179 179 179
179 179 179
179 179 179
179 179 179
179 179 179
179 179 179
179 179 179
179 179 179
179 179 179
179 179 179
179 179 179
179 179 179
179 179 179
179 179 179
179 179 179
179 179 179
179 179 179
179 179 179
179 179 179
179 179 179
179 179 179
179 179 179
179 179 179
179 179 179
179 179 179
179 179 179
179 179 179
179 179 179
179 179 179
179 179 179
179 179 179
179 179 179
179 179 179
179 179 179
179 179 179
179 179 179
179 179 179
179 179 179
179 179 179
179 179 179
179 179 179
179 179 179
179 179 179
179 179 179
179 179 179
179 179 179
179 179 179
179 179 179
179 179 179
179 179 179
179 179 179
179 179 179
179 179 179
179 179 179
179 179 179
179 179 179
179 179 179
179 179 179
179 179 179
179 179 179
179 179 179
179 179 179
179 179 179
179 179 179
179 179 179
179 179 179
179 179 179
179 179 179
179 179 179
179 179 179
179 179 179
179 179 179
179 179 179
179 179 179
179 179 179
179 179 179
179 179 179
179 179 179
179 179 179
179 179 179
179 179 179
179 179 179
179 179 179
179 179 179
179 179 179
179 179 179
39 36 136
47 33 157
53 30 165
59 28 170
65 26 174
71 24 177
76 22 179
81 20 180
87 18 180
92 16 180
97 15 180
102 13 179
107 11 177
112 9 175
117 8 172
139 247 172
127 5 164
131 3 158
136 2 150
140 0 136
179 179 179
179 179 179
179 179 179
179 179 179
179 179 179
179 179 179
179 179 179
179 179 179
179 179 179
179 179 179
179 179 179
179 179 179
179 179 179
179 179 179
179 179 179
179 179 179
179 179 179
179 179 179
179 179 179
179 179 179
179 179 179
179 179 179
179 179 179
179 179 179
179 179 179
179 179 179
179 179 179
179 179 179
179 179 179
179 179 179
179 179 179
179 179 179
179 179 179
179 179 179
179 179 179
179 179 179
179 179 179
179 179 179
179 179 179
179 179 179
179 179 179
179 179 179
179 179 179
179 179 179
179 179 179
179 179 179
179 179 179
179 179 179
179 179 179
179 179 179
179 179 179
179 179 179
179 179 179
179 179 179
179 179 179
179 179 179
179 179 179
179 179 179
179 179 179
179 179 179
179 179 179
179 179 179
179 179 179
179 179 179
179 179 179
179 179 179
179 179 179
179 179 179
179 179 179
179 179 179
179 179 179
179 179 179
179 179 179
179 179 179
179 179 179
179 179 179
179 179 179
179 179 179
179 179 179
179 179 179
179 179 179
179 179 179
179 179 179
179 179 179
179 179 179
179 179 179
179 179 179
179 179 179
179 179 179
179 179 179
179 179 179
179 179 179
179 179 179
179 179 179
179 179 179
179 179 179
179 179 179
179 179 179
179 179 179
179 179 179
179 179 179
179 179 179
179 179 179
179 179 179
179 179 179
179 179 179
179 179 179
179 179 179
179 179 179
179 179 179
179 179 179
179 179 179
179 179 179
0 0 0
0 0 0
0 0 0
0 0 0
0 0 0
0 0 0
0 0 0
0 0 0
0 0 0
0 0 0
0 0 0
0 0 0
0 0 0
0 0 0
0 0 0
0 0 0
0 0 0
0 0 0
0 0 0
0 0 0
0 0 0
0 0 0
0 0 0
0 0 0
0 0 0
0 0 0
0 0 0
0 0 0
0 0 0
0 0 0
0 0 0
0 0 0
0 0 0
0 0 0
0 0 0
0 0 0
0 0 0
0 0 0
0 0 0
0 0 0
0 0 0
0 0 0
0 0 0
0 0 0
0 0 0
0 0 0
0 0 0
0 0 0
0 0 0
0 0 0
0 0 0
0 0 0
0 0 0
0 0 0
0 0 0
0 0 0
0 0 0
0 0 0
0 0 0
0 0 0
0 0 0
0 0 0
0 0 0
0 0 0
0 0 0
0 0 0
0 0 0
0 0 0
0 0 0
0 0 0
0 0 0
0 0 0
0 0 0
0 0 0
0 0 0
0 0 0
0 0 0
0 0 0
0 0 0
0 0 0
0 0 0
0 0 0
0 0 0
0 0 0
0 0 0
0 0 0
0 0 0
0 0 0
0 0 0
0 0 0
0 0 0
0 0 0
0 0 0
0 0 0
0 0 0
0 0 0
0 0 0
0 0 0
0 0 0
0 0 0
0 0 0
0 0 0
0 0 0
0 0 0
0 0 0
0 0 0
0 0 0
0 0 0
0 0 0
0 0 0
0 0 0
0 0 0
0 0 0
0 0 0
0 0 0
0 0 0
0 0 0
0 0 0
0 0 0
0 0 0
0 0 0
0 0 0
0 0 0
0 0 0
0 0 0
0 0 0
0 0 0
0 0 0
0 0 0
0 0 0
0 0 0
0 0 0
0 0 0
0 0 0
0 0 0
0 0 0
0 0 0
0 0 0
0 0 0
0 0 0
0 0 0
0 0 0
0 0 0
0 0 0
0 0 0
0 0 0
0 0 0
0 0 0
0 0 0
0 0 0
0 0 0
0 0 0
0 0 0
0 0 0
0 0 0
0 0 0
0 0 0
0 0 0
0 0 0
0 0 0
0 0 0
0 0 0
0 0 0
0 0 0
0 0 0
0 0 0
0 0 0
0 0 0
0 0 0
0 0 0
0 0 0
0 0 0
0 0 0
0 0 0
0 0 0
0 0 0
179 179 179
179 179 179
179 179 179
179 179 179
179 179 179
179 179 179
179 179 179
179 179 179
179 179 179
179 179 179
179 179 179
179 179 179
179 179 179
179 179 179
179 179 179
179 179 179
179 179 179
179 179 179
179 179 179
179 179 179
179 179 179
179 179 179
179 179 179
179 179 179
179 179 179
179 179 179
179 179 179
179 179 179
179 179 179
179 179 179
179 179 179
179 179 179
179 179 179
179 179 179
179 179 179
179 179 179
179 179 179
179 179 179
179 179 179
179 179 179
179 179 179
179 179 179
179 179 179
179 179 179
179 179 179
179 179 179
179 179 179
179 179 179
179 179 179
179 179 179
179 179 179
179 179 179
179 179 179
179 179 179
179 179 179
179 179 179
179 179 179
179 179 179
179 179 179
179 179 179
179 179 179
179 179 179
179 179 179
179 179 179
179 179 179
179 179 179
179 179 179
179 179 179
179 179 179
179 179 179
179 179 179
179 179 179
179 179 179
179 179 179
179 179 179
179 179 179
179 179 179
179 179 179
179 179 179
179 179 179
179 179 179
179 179 179
179 179 179
179 179 179
179 179 179
179 179 179
179 179 179
179 179 179
179 179 179
179 179 179
179 179 179
43 35 154
49 33 163
56 30 170
61 28 174
67 26 177
73 24 179
78 22 180
83 20 181
89 18 181
94 16 181
99 14 180
104 13 179
109 11 177
114 9 175
119 8 172
123 6 168
128 4 163
133 3 157
137 2 148
141 0 128
179 179 179
179 179 179
179 179 179
179 179 179
179 179 179
179 179 179
179 179 179
179 179 179
179 179 179
179 179 179
179 179 179
179 179 179
179 179 179
179 179 179
179 179 179
179 179 179
179 179 179
179 179 179
179 179 179
179 179 179
179 179 179
179 179 179
179 179 179
179 179 179
179 179 179
179 179 179
179 179 179
179 179 179
179 179 179
179 179 179
179 179 179
179 179 179
179 179 179
179 179 179
179 179 179
179 179 179
179 179 179
179 179 179
179 179 179
179 179 179
179 179 179
179 179 179
179 179 179
179 179 179
179 179 179
179 179 179
179 179 179
179 179 179
179 179 179
179 179 179
179 179 179
179 179 179
179 179 179
179 179 179
179 179 179
179 179 179
179 179 179
179 179 179
179 179 179
179 179 179
179 179 179
179 179 179
179 179 179
179 179 179
179 179 179
179 179 179
179 179 179
179 179 179
179 179 179
179 179 179
179 179 179
179 179 179
179 179 179
179 179 179
179 179 179
179 179 179
179 179 179
179 179 179
179 179 179
179 179 179
179 179 179
179 179 179
179 179 179
179 179 179
179 179 179
179 179 179
179 179 179
179 179 179
179 179 179
179 179 179
179 179 179
179 179 179
179 179 179
179 179 179
179 179 179
179 179 179
179 179 179
179 179 179
179 179 179
179 179 179
179 179 179
179 179 179
179 179 179
179 179 179
179 179 179
179 179 179
179 179 179
179 179 179
179 179 179
179 179 179
179 179 179
179 179 179
179 179 179
179 179 179
0 0 0
0 0 0
0 0 0
0 0 0
0 0 0
0 0 0
0 0 0
0 0 0
0 0 0
0 0 0
0 0 0
0 0 0
0 0 0
0 0 0
0 0 0
0 0 0
0 0 0
0 0 0
0 0 0
0 0 0
0 0 0
0 0 0
0 0 0
0 0 0
0 0 0
0 0 0
0 0 0
0 0 0
0 0 0
0 0 0
0 0 0
0 0 0
0 0 0
0 0 0
0 0 0
0 0 0
0 0 0
0 0 0
0 0 0
0 0 0
0 0 0
0 0 0
0 0 0
0 0 0
0 0 0
0 0 0
0 0 0
0 0 0
0 0 0
0 0 0
0 0 0
0 0 0
0 0 0
0 0 0
0 0 0
0 0 0
0 0 0
0 0 0
0 0 0
0 0 0
0 0 0
0 0 0
0 0 0
0 0 0
0 0 0
0 0 0
0 0 0
0 0 0
0 0 0
0 0 0
0 0 0
0 0 0
0 0 0
0 0 0
0 0 0
0 0 0
0 0 0
0 0 0
0 0 0
0 0 0
0 0 0
0 0 0
0 0 0
0 0 0
0 0 0
0 0 0
0 0 0
0 0 0
0 0 0
0 0 0
0 0 0
0 0 0
0 0 0
0 0 0
0 0 0
0 0 0
0 0 0
0 0 0
0 0 0
0 0 0
0 0 0
0 0 0
0 0 0
0 0 0
0 0 0
0 0 0
0 0 0
0 0 0
0 0 0
0 0 0
0 0 0
0 0 0
0 0 0
0 0 0
0 0 0
0 0 0
0 0 0
0 0 0
0 0 0
0 0 0
0 0 0
0 0 0
0 0 0
0 0 0
0 0 0
0 0 0
0 0 0
0 0 0
0 0 0
0 0 0
0 0 0
0 0 0
0 0 0
0 0 0
0 0 0
0 0 0
0 0 0
0 0 0
0 0 0
0 0 0
0 0 0
0 0 0
0 0 0
0 0 0
0 0 0
0 0 0
0 0 0
0 0 0
0 0 0
0 0 0
0 0 0
0 0 0
0 0 0
0 0 0
0 0 0
0 0 0
0 0 0
0 0 0
0 0 0
0 0 0
0 0 0
0 0 0
0 0 0
0 0 0
0 0 0
0 0 0
0 0 0
0 0 0
0 0 0
0 0 0
0 0 0
0 0 0
0 0 0
0 0 0
179 179 179
179 179 179
179 179 179
179 179 179
179 179 179
179 179 179
179 179 179
179 179 179
179 179 179
179 179 179
179 179 179
179 179 179
179 179 179
179 179 179
179 179 179
179 179 179
179 179 179
179 179 179
179 179 179
179 179 179
179 179 179
179 179 179
179 179 179
179 179 179
179 179 179
179 179 179
179 179 179
179 179 179
179 179 179
179 179 179
179 179 179
179 179 179
179 179 179
179 179 179
179 179 179
179 179 179
179 179 179
179 179 179
179 179 179
179 179 179
179 179 179
179 179 179
179 179 179
179 179 179
179 179 179
179 179 179
179 179 179
179 179 179
179 179 179
179 179 179
179 179 179
179 179 179
179 179 179
179 179 179
179 179 179
179 179 179
179 179 179
179 179 179
179 179 179
179 179 179
179 179 179
179 179 179
179 179 179
179 179 179
179 179 179
179 179 179
179 179 179
179 179 179
179 179 179
179 179 179
179 179 179
179 179 179
179 179 179
179 179 179
179 179 179
179 179 179
179 179 179
179 179 179
179 179 179
179 179 179
179 179 179
179 179 179
179 179 179
179 179 179
179 179 179
179 179 179
179 179 179
179 179 179
179 179 179
179 179 179
179 179 179
39 38 148
46 35 161
52 32 168
58 30 173
64 28 177
69 26 179
75 24 181
80 22 182
86 20 183
91 18 183
96 16 182
101 14 181
106 13 179
111 11 177
116 9 175
120 7 171
125 6 167
130 4 162
134 3 155
139 1 146
179 179 179
179 179 179
179 179 179
179 179 179
179 179 179
179 179 179
179 179 179
179 179 179
179 179 179
179 179 179
179 179 179
179 179 179
179 179 179
179 179 179
179 179 179
179 179 179
179 179 179
179 179 179
179 179 179
179 179 179
179 179 179
179 179 179
179 179 179
179 179 179
179 179 179
179 179 179
179 179 179
179 179 179
179 179 179
179 179 179
179 179 179
179 179 179
179 179 179
179 179 179
179 179 179
179 179 179
179 179 179
179 179 179
179 179 179
179 179 179
179 179 179
179 179 179
179 179 179
179 179 179
179 179 179
179 179 179
179 179 179
179 179 179
179 179 179
179 179 179
179 179 179
179 179 179
179 179 179
179 179 179
179 179 179
179 179 179
179 179 179
179 179 179
179 179 179
179 179 179
179 179 179
179 179 179
179 179 179
179 179 179
179 179 179
179 179 179
179 179 179
179 179 179
179 179 179
179 179 179
179 179 179
179 179 179
179 179 179
179 179 179
179 179 179
179 179 179
179 179 179
179 179 179
179 179 179
179 179 179
179 179 179
179 179 179
179 179 179
179 179 179
179 179 179
179 179 179
179 179 179
179 179 179
179 179 179
179 179 179
179 179 179
179 179 179
179 179 179
179 179 179
179 179 179
179 179 179
179 179 179
179 179 179
179 179 179
179 179 179
179 179 179
179 179 179
179 179 179
179 179 179
179 179 179
179 179 179
179 179 179
179 179 179
179 179 179
179 179 179
179 179 179
179 179 179
179 179 179
179 179 179
179 179 179
179 179 179
0 0 0
0 0 0
0 0 0
0 0 0
0 0 0
0 0 0
0 0 0
0 0 0
0 0 0
0 0 0
0 0 0
0 0 0
0 0 0
0 0 0
0 0 0
0 0 0
0 0 0
0 0 0
0 0 0
0 0 0
0 0 0
0 0 0
0 0 0
0 0 0
0 0 0
0 0 0
0 0 0
0 0 0
0 0 0
0 0 0
0 0 0
0 0 0
0 0 0
0 0 0
0 0 0
0 0 0
0 0 0
0 0 0
0 0 0
0 0 0
0 0 0
0 0 0
0 0 0
0 0 0
0 0 0
0 0 0
0 0 0
0 0 0
0 0 0
0 0 0
0 0 0
0 0 0
0 0 0
0 0 0
0 0 0
0 0 0
0 0 0
0 0 0
0 0 0
0 0 0
0 0 0
0 0 0
0 0 0
0 0 0
0 0 0
0 0 0
0 0 0
0 0 0
0 0 0
0 0 0
0 0 0
0 0 0
0 0 0
0 0 0
0 0 0
0 0 0
0 0 0
0 0 0
0 0 0
0 0 0
0 0 0
0 0 0
0 0 0
0 0 0
0 0 0
0 0 0
0 0 0
0 0 0
0 0 0
0 0 0
0 0 0
0 0 0
0 0 0
0 0 0
0 0 0
0 0 0
0 0 0
0 0 0
0 0 0
0 0 0
0 0 0
0 0 0
0 0 0
0 0 0
0 0 0
0 0 0
0 0 0
0 0 0
0 0 0
0 0 0
0 0 0
0 0 0
0 0 0
0 0 0
0 0 0
0 0 0
0 0 0
0 0 0
0 0 0
0 0 0
0 0 0
0 0 0
0 0 0
0 0 0
0 0 0
0 0 0
0 0 0
0 0 0
0 0 0
0 0 0
0 0 0
0 0 0
0 0 0
0 0 0
0 0 0
0 0 0
0 0 0
0 0 0
0 0 0
0 0 0
0 0 0
0 0 0
0 0 0
0 0 0
0 0 0
0 0 0
0 0 0
0 0 0
0 0 0
0 0 0
0 0 0
0 0 0
0 0 0
0 0 0
0 0 0
0 0 0
0 0 0
0 0 0
0 0 0
0 0 0
0 0 0
0 0 0
0 0 0
0 0 0
0 0 0
0 0 0
0 0 0
0 0 0
0 0 0
0 0 0
0 0 0
0 0 0
179 179 179
179 179 179
179 179 179
179 179 179
179 179 179
179 179 179
179 179 179
179 179 179
179 179 179
179 179 179
179 179 179
179 179 179
179 179 179
179 179 179
179 179 179
179 179 179
179 179 179
179 179 179
179 179 179
179 179 179
179 179 179
179 179 179
179 179 179
179 179 179
179 179 179
179 179 179
179 179 179
179 179 179
179 179 179
179 179 179
179 179 179
179 179 179
179 179 179
179 179 179
179 179 179
179 179 179
179 179 179
179 179 179
179 179 179
179 179 179
179 179 179
179 179 179
179 179 179
179 179 179
179 179 179
179 179 179
179 179 179
179 179 179
179 179 179
179 179 179
179 179 179
179 179 179
179 179 179
179 179 179
179 179 179
179 179 179
179 179 179
179 179 179
179 179 179
179 179 179
179 179 179
179 179 179
179 179 179
179 179 179
179 179 179
179 179 179
179 179 179
179 179 179
179 179 179
179 179 179
179 179 179
179 179 179
179 179 179
179 179 179
179 179 179
179 179 179
179 179 179
179 179 179
179 179 179
179 179 179
179 179 179
179 179 179
179 179 179
179 179 179
179 179 179
179 179 179
179 179 179
179 179 179
179 179 179
179 179 179
179 179 179
179 179 179
42 37 158
49 35 167
55 32 172
60 30 176
66 28 179
72 26 181
77 24 183
82 22 184
88 20 184
93 18 184
98 16 183
103 14 182
108 12 180
113 11 177
117 9 175
122 7 171
127 6 167
131 4 161
136 3 154
140 1 143
179 179 179
179 179 179
179 179 179
179 179 179
179 179 179
179 179 179
179 179 179
179 179 179
179 179 179
179 179 179
179 179 179
179 179 179
179 179 179
179 179 179
179 179 179
179 179 179
179 179 179
179 179 179
179 179 179
179 179 179
179 179 179
179 179 179
179 179 179
179 179 179
179 179 179
179 179 179
179 179 179
179 179 179
179 179 179
179 179 179
179 179 179
179 179 179
179 179 179
179 179 179
179 179 179
179 179 179
179 179 179
179 179 179
179 179 179
179 179 179
179 179 179
179 179 179
179 179 179
179 179 179
179 179 179
179 179 179
179 179 179
179 179 179
179 179 179
179 179 179
179 179 179
179 179 179
179 179 179
179 179 179
179 179 179
179 179 179
179 179 179
179 179 179
179 179 179
179 179 179
179 179 179
179 179 179
179 179 179
179 179 179
179 179 179
179 179 179
179 179 179
179 179 179
179 179 179
179 179 179
179 179 179
179 179 179
179 179 179
179 179 179
179 179 179
179 179 179
179 179 179
179 179 179
179 179 179
179 179 179
179 179 179
179 179 179
179 179 179
179 179 179
179 179 179
179 179 179
179 179 179
179 179 179
179 179 179
179 179 179
179 179 179
179 179 179
179 179 179
179 179 179
179 179 179
179 179 179
179 179 179
179 179 179
179 179 179
179 179 179
179 179 179
179 179 179
179 179 179
179 179 179
179 179 179
179 179 179
179 179 179
179 179 179
179 179 179
179 179 179
179 179 179
179 179 179
179 179 179
179 179 179
179 179 179
179 179 179
179 179 179
0 0 0
0 0 0
0 0 0
0 0 0
0 0 0
0 0 0
0 0 0
0 0 0
0 0 0
0 0 0
0 0 0
0 0 0
0 0 0
0 0 0
0 0 0
0 0 0
0 0 0
0 0 0
0 0 0
0 0 0
0 0 0
0 0 0
0 0 0
0 0 0
0 0 0
0 0 0
0 0 0
0 0 0
0 0 0
0 0 0
0 0 0
0 0 0
0 0 0
0 0 0
0 0 0
0 0 0
0 0 0
0 0 0
0 0 0
0 0 0
0 0 0
0 0 0
0 0 0
0 0 0
0 0 0
0 0 0
0 0 0
0 0 0
0 0 0
0 0 0
0 0 0
0 0 0
0 0 0
0 0 0
0 0 0
0 0 0
0 0 0
0 0 0
0 0 0
0 0 0
0 0 0
0 0 0
0 0 0
0 0 0
0 0 0
0 0 0
0 0 0
0 0 0
0 0 0
0 0 0
0 0 0
0 0 0
0 0 0
0 0 0
0 0 0
0 0 0
0 0 0
0 0 0
0 0 0
0 0 0
0 0 0
0 0 0
0 0 0
0 0 0
0 0 0
0 0 0
0 0 0
0 0 0
0 0 0
0 0 0
0 0 0
0 0 0
0 0 0
0 0 0
0 0 0
0 0 0
0 0 0
0 0 0
0 0 0
0 0 0
0 0 0
0 0 0
0 0 0
0 0 0
0 0 0
0 0 0
0 0 0
0 0 0
0 0 0
0 0 0
0 0 0
0 0 0
0 0 0
0 0 0
0 0 0
0 0 0
0 0 0
0 0 0
0 0 0
0 0 0
0 0 0
0 0 0
0 0 0
0 0 0
0 0 0
0 0 0
0 0 0
0 0 0
0 0 0
0 0 0
0 0 0
0 0 0
0 0 0
0 0 0
0 0 0
0 0 0
0 0 0
0 0 0
0 0 0
0 0 0
0 0 0
0 0 0
0 0 0
0 0 0
0 0 0
0 0 0
0 0 0
0 0 0
0 0 0
0 0 0
0 0 0
0 0 0
0 0 0
0 0 0
0 0 0
0 0 0
0 0 0
0 0 0
0 0 0
0 0 0
0 0 0
0 0 0
0 0 0
0 0 0
0 0 0
0 0 0
0 0 0
0 0 0
0 0 0
0 0 0
179 179 179
179 179 179
179 179 179
179 179 179
179 179 179
179 179 179
179 179 179
179 179 179
179 179 179
179 179 179
179 179 179
179 179 179
179 179 179
179 179 179
179 179 179
179 179 179
179 179 179
179 179 179
179 179 179
179 179 179
179 179 179
179 179 179
179 179 179
179 179 179
179 179 179
179 179 179
179 179 179
179 179 179
179 179 179
179 179 179
179 179 179
179 179 179
179 179 179
179 179 179
179 179 179
179 179 179
179 179 179
179 179 179
179 179 179
179 179 179
179 179 179
179 179 179
179 179 179
179 179 179
179 179 179
179 179 179
179 179 179
179 179 179
179 179 179
179 179 179
179 179 179
179 179 179
179 179 179
179 179 179
179 179 179
179 179 179
179 179 179
179 179 179
179 179 179
179 179 179
179 179 179
179 179 179
179 179 179
179 179 179
179 179 179
179 179 179
179 179 179
179 179 179
179 179 179
179 179 179
179 179 179
179 179 179
179 179 179
179 179 179
179 179 179
179 179 179
179 179 179
179 179 179
179 179 179
179 179 179
179 179 179
179 179 179
179 179 179
179 179 179
179 179 179
179 179 179
179 179 179
179 179 179
179 179 179
179 179 179
179 179 179
179 179 179
38 40 155
45 37 165
51 35 171
57 32 176
63 30 179
68 28 182
74 26 183
79 24 184
84 22 185
90 20 185
95 18 184
100 16 183
105 14 182
109 12 180
114 10 177
119 9 174
124 7 171
128 5 166
133 4 160
137 2 152
142 1 139
179 179 179
179 179 179
179 179 179
179 179 179
179 179 179
179 179 179
179 179 179
179 179 179
179 179 179
179 179 179
179 179 179
179 179 179
179 179 179
179 179 179
179 179 179
179 179 179
179 179 179
179 179 179
179 179 179
179 179 179
179 179 179
179 179 179
179 179 179
179 179 179
179 179 179
179 179 179
179 179 179
179 179 179
179 179 179
179 179 179
179 179 179
179 179 179
179 179 179
179 179 179
179 179 179
179 179 179
179 179 179
179 179 179
179 179 179
179 179 179
179 179 179
179 179 179
179 179 179
179 179 179
179 179 179
179 179 179
179 179 179
179 179 179
179 179 179
179 179 179
179 179 179
179 179 179
179 179 179
179 179 179
179 179 179
179 179 179
179 179 179
179 179 179
179 179 179
179 179 179
179 179 179
179 179 179
179 179 179
179 179 179
179 179 179
179 179 179
179 179 179
179 179 179
179 179 179
179 179 179
179 179 179
179 179 179
179 179 179
179 179 179
179 179 179
179 179 179
179 179 179
179 179 179
179 179 179
179 179 179
179 179 179
179 179 179
179 179 179
179 179 179
179 179 179
179 179 179
179 179 179
179 179 179
179 179 179
179 179 179
179 179 179
179 179 179
179 179 179
179 179 179
179 179 179
179 179 179
179 179 179
179 179 179
179 179 179
179 179 179
179 179 179
179 179 179
179 179 179
179 179 179
179 179 179
179 179 179
179 179 179
179 179 179
179 179 179
179 179 179
179 179 179
179 179 179
179 179 179
179 179 179
179 179 179
179 179 179
179 179 179
0 0 0
0 0 0
0 0 0
0 0 0
0 0 0
0 0 0
0 0 0
0 0 0
0 0 0
0 0 0
0 0 0
0 0 0
0 0 0
0 0 0
0 0 0
0 0 0
0 0 0
0 0 0
0 0 0
0 0 0
0 0 0
0 0 0
0 0 0
0 0 0
0 0 0
0 0 0
0 0 0
0 0 0
0 0 0
0 0 0
0 0 0
0 0 0
0 0 0
0 0 0
0 0 0
0 0 0
0 0 0
0 0 0
0 0 0
0 0 0
0 0 0
0 0 0
0 0 0
0 0 0
0 0 0
0 0 0
0 0 0
0 0 0
0 0 0
0 0 0
0 0 0
0 0 0
0 0 0
0 0 0
0 0 0
0 0 0
0 0 0
0 0 0
0 0 0
0 0 0
0 0 0
0 0 0
0 0 0
0 0 0
0 0 0
0 0 0
0 0 0
0 0 0
0 0 0
0 0 0
0 0 0
0 0 0
0 0 0
0 0 0
0 0 0
0 0 0
0 0 0
0 0 0
0 0 0
0 0 0
0 0 0
0 0 0
0 0 0
0 0 0
0 0 0
0 0 0
0 0 0
0 0 0
0 0 0
0 0 0
0 0 0
0 0 0
0 0 0
0 0 0
0 0 0
0 0 0
0 0 0
0 0 0
0 0 0
0 0 0
0 0 0
0 0 0
0 0 0
0 0 0
0 0 0
0 0 0
0 0 0
0 0 0
0 0 0
0 0 0
0 0 0
0 0 0
0 0 0
0 0 0
0 0 0
0 0 0
0 0 0
0 0 0
0 0 0
0 0 0
0 0 0
0 0 0
0 0 0
0 0 0
0 0 0
0 0 0
0 0 0
0 0 0
0 0 0
0 0 0
0 0 0
0 0 0
0 0 0
0 0 0
0 0 0
0 0 0
0 0 0
0 0 0
0 0 0
0 0 0
0 0 0
0 0 0
0 0 0
0 0 0
0 0 0
0 0 0
0 0 0
0 0 0
0 0 0
0 0 0
0 0 0
0 0 0
0 0 0
0 0 0
0 0 0
0 0 0
0 0 0
0 0 0
0 0 0
0 0 0
0 0 0
0 0 0
0 0 0
0 0 0
0 0 0
0 0 0
0 0 0
0 0 0
0 0 0
0 0 0
179 179 179
179 179 179
179 179 179
179 179 179
179 179 179
179 179 179
179 179 179
179 179 179
179 179 179
179 179 179
179 179 179
179 179 179
179 179 179
179 179 179
179 179 179
179 179 179
179 179 179
179 179 179
179 179 179
179 179 179
179 179 179
179 179 179
179 179 179
179 179 179
179 179 179
179 179 179
179 179 179
179 179 179
179 179 179
179 179 179
179 179 179
179 179 179
179 179 179
179 179 179
179 179 179
179 179 179
179 179 179
179 179 179
179 179 179
179 179 179
179 179 179
179 179 179
179 179 179
179 179 179
179 179 179
179 179 179
179 179 179
179 179 179
179 179 179
179 179 179
179 179 179
179 179 179
179 179 179
179 179 179
179 179 179
179 179 179
179 179 179
179 179 179
179 179 179
179 179 179
179 179 179
179 179 179
179 179 179
179 179 179
179 179 179
179 179 179
179 179 179
179 179 179
179 179 179
179 179 179
179 179 179
179 179 179
179 179 179
179 179 179
179 179 179
179 179 179
179 179 179
179 179 179
179 179 179
179 179 179
179 179 179
179 179 179
179 179 179
179 179 179
179 179 179
179 179 179
179 179 179
179 179 179
179 179 179
179 179 179
179 179 179
35 42 150
42 39 163
48 37 170
54 34 175
60 32 179
65 30 182
71 28 184
76 25 185
81 23 186
86 21 186
92 19 186
97 17 185
102 16 184
106 14 182
111 12 180
116 10 177
121 8 174
126 7 170
130 5 165
135 4 158
139 2 150
143 1 133
179 179 179
179 179 179
179 179 179
179 179 179
179 179 179
179 179 179
179 179 179
179 179 179
179 179 179
179 179 179
179 179 179
179 179 179
179 179 179
179 179 179
179 179 179
179 179 179
179 179 179
179 179 179
179 179 179
179 179 179
179 179 179
179 179 179
179 179 179
179 179 179
179 179 179
179 179 179
179 179 179
179 179 179
179 179 179
179 179 179
179 179 179
179 179 179
179 179 179
179 179 179
179 179 179
179 179 179
179 179 179
179 179 179
179 179 179
179 179 179
179 179 179
179 179 179
179 179 179
179 179 179
179 179 179
179 179 179
179 179 179
179 179 179
179 179 179
179 179 179
179 179 179
179 179 179
179 179 179
179 179 179
179 179 179
179 179 179
179 179 179
179 179 179
179 179 179
179 179 179
179 179 179
179 179 179
179 179 179
179 179 179
179 179 179
179 179 179
179 179 179
179 179 179
179 179 179
179 179 179
179 179 179
179 179 179
179 179 179
179 179 179
179 179 179
179 179 179
179 179 179
179 179 179
179 179 179
179 179 179
179 179 179
179 179 179
179 179 179
179 179 179
179 179 179
179 179 179
179 179 179
179 179 179
179 179 179
179 179 179
179 179 179
179 179 179
179 179 179
179 179 179
179 179 179
179 179 179
179 179 179
179 179 179
179 179 179
179 179 179
179 179 179
179 179 179
179 179 179
179 179 179
179 179 179
179 179 179
179 179 179
179 179 179
179 179 179
179 179 179
179 179 179
179 179 179
179 179 179
179 179 179
179 179 179
179 179 179
179 179 179
179 179 179
0 0 0
0 0 0
0 0 0
0 0 0
0 0 0
0 0 0
0 0 0
0 0 0
0 0 0
0 0 0
0 0 0
0 0 0
0 0 0
0 0 0
0 0 0
0 0 0
0 0 0
0 0 0
0 0 0
0 0 0
0 0 0
0 0 0
0 0 0
0 0 0
0 0 0
0 0 0
0 0 0
0 0 0
0 0 0
0 0 0
0 0 0
0 0 0
0 0 0
0 0 0
0 0 0
0 0 0
0 0 0
0 0 0
0 0 0
0 0 0
0 0 0
0 0 0
0 0 0
0 0 0
0 0 0
0 0 0
0 0 0
0 0 0
0 0 0
0 0 0
0 0 0
0 0 0
0 0 0
0 0 0
0 0 0
0 0 0
0 0 0
0 0 0
0 0 0
0 0 0
0 0 0
0 0 0
0 0 0
0 0 0
0 0 0
0 0 0
0 0 0
0 0 0
0 0 0
0 0 0
0 0 0
0 0 0
0 0 0
0 0 0
0 0 0
0 0 0
0 0 0
0 0 0
0 0 0
0 0 0
0 0 0
0 0 0
0 0 0
0 0 0
0 0 0
0 0 0
0 0 0
0 0 0
0 0 0
0 0 0
0 0 0
0 0 0
0 0 0
0 0 0
0 0 0
0 0 0
0 0 0
0 0 0
0 0 0
0 0 0
0 0 0
0 0 0
0 0 0
0 0 0
0 0 0
0 0 0
0 0 0
0 0 0
0 0 0
0 0 0
0 0 0
0 0 0
0 0 0
0 0 0
0 0 0
0 0 0
0 0 0
0 0 0
0 0 0
0 0 0
0 0 0
0 0 0
0 0 0
0 0 0
0 0 0
0 0 0
0 0 0
0 0 0
0 0 0
0 0 0
0 0 0
0 0 0
0 0 0
0 0 0
0 0 0
0 0 0
0 0 0
0 0 0
0 0 0
0 0 0
0 0 0
0 0 0
0 0 0
0 0 0
0 0 0
0 0 0
0 0 0
0 0 0
0 0 0
0 0 0
0 0 0
0 0 0
0 0 0
0 0 0
0 0 0
0 0 0
0 0 0
0 0 0
0 0 0
0 0 0
0 0 0
0 0 0
0 0 0
0 0 0
0 0 0
0 0 0
0 0 0
0 0 0
179 179 179
179 179 179
179 179 179
179 179 179
179 179 179
179 179 179
179 179 179
179 179 179
179 179 179
179 179 179
179 179 179
179 179 179
179 179 179
179 179 179
179 179 179
179 179 179
179 179 179
179 179 179
179 179 179
179 179 179
179 179 179
179 179 179
179 179 179
179 179 179
179 179 179
179 179 179
179 179 179
179 179 179
179 179 179
179 179 179
179 179 179
179 179 179
179 179 179
179 179 179
179 179 179
179 179 179
179 179 179
179 179 179
179 179 179
179 179 179
179 179 179
179 179 179
179 179 179
179 179 179
179 179 179
179 179 179
179 179 179
179 179 179
179 179 179
179 179 179
179 179 179
179 179 179
179 179 179
179 179 179
179 179 179
179 179 179
179 179 179
179 179 179
179 179 179
179 179 179
179 179 179
179 179 179
179 179 179
179 179 179
179 179 179
179 179 179
179 179 179
179 179 179
179 179 179
179 179 179
179 179 179
179 179 179
179 179 179
179 179 179
179 179 179
179 179 179
179 179 179
179 179 179
179 179 179
179 179 179
179 179 179
179 179 179
179 179 179
179 179 179
179 179 179
179 179 179
179 179 179
179 179 179
179 179 179
179 179 179
179 179 179
30 45 139
38 42 160
45 39 169
51 36 174
56 34 179
62 32 182
68 30 184
73 27 186
78 25 187
83 23 187
89 21 187
94 19 187
99 17 186
104 15 184
108 13 182
113 12 180
118 10 177
123 8 174
127 6 169
132 5 164
136 3 157
141 2 147
179 179 179
179 179 179
179 179 179
179 179 179
179 179 179
179 179 179
179 179 179
179 179 179
179 179 179
179 179 179
179 179 179
179 179 179
179 179 179
179 179 179
179 179 179
179 179 179
179 179 179
179 179 179
179 179 179
179 179 179
179 179 179
179 179 179
179 179 179
179 179 179
179 179 179
179 179 179
179 179 179
179 179 179
179 179 179
179 179 179
179 179 179
179 179 179
179 179 179
179 179 179
179 179 179
179 179 179
179 179 179
179 179 179
179 179 179
179 179 179
179 179 179
179 179 179
179 179 179
179 179 179
179 179 179
179 179 179
179 179 179
179 179 179
179 179 179
179 179 179
179 179 179
179 179 179
179 179 179
179 179 179
179 179 179
179 179 179
179 179 179
179 179 179
179 179 179
179 179 179
179 179 179
179 179 179
179 179 179
179 179 179
179 179 179
179 179 179
179 179 179
179 179 179
179 179 179
179 179 179
179 179 179
179 179 179
179 179 179
179 179 179
179 179 179
179 179 179
179 179 179
179 179 179
179 179 179
179 179 179
179 179 179
179 179 179
179 179 179
179 179 179
179 179 179
179 179 179
179 179 179
179 179 179
179 179 179
179 179 179
179 179 179
179 179 179
179 179 179
179 179 179
179 179 179
179 179 179
179 179 179
179 179 179
179 179 179
179 179 179
179 179 179
179 179 179
179 179 179
179 179 179
179 179 179
179 179 179
179 179 179
179 179 179
179 179 179
179 179 179
179 179 179
179 179 179
179 179 179
179 179 179
179 179 179
179 179 179
179 179 179
179 179 179
179 179 179
179 179 179
0 0 0
0 0 0
0 0 0
0 0 0
0 0 0
0 0 0
0 0 0
0 0 0
0 0 0
0 0 0
0 0 0
0 0 0
0 0 0
0 0 0
0 0 0
0 0 0
0 0 0
0 0 0
0 0 0
0 0 0
0 0 0
0 0 0
0 0 0
0 0 0
0 0 0
0 0 0
0 0 0
0 0 0
0 0 0
0 0 0
0 0 0
0 0 0
0 0 0
0 0 0
0 0 0
0 0 0
0 0 0
0 0 0
0 0 0
0 0 0
0 0 0
0 0 0
0 0 0
0 0 0
0 0 0
0 0 0
0 0 0
0 0 0
0 0 0
0 0 0
0 0 0
0 0 0
0 0 0
0 0 0
0 0 0
0 0 0
0 0 0
0 0 0
0 0 0
0 0 0
0 0 0
0 0 0
0 0 0
0 0 0
0 0 0
0 0 0
0 0 0
0 0 0
0 0 0
0 0 0
0 0 0
0 0 0
0 0 0
0 0 0
0 0 0
0 0 0
0 0 0
0 0 0
0 0 0
0 0 0
0 0 0
0 0 0
0 0 0
0 0 0
0 0 0
0 0 0
0 0 0
0 0 0
0 0 0
0 0 0
0 0 0
0 0 0
0 0 0
0 0 0
0 0 0
0 0 0
0 0 0
0 0 0
0 0 0
0 0 0
0 0 0
0 0 0
0 0 0
0 0 0
0 0 0
0 0 0
0 0 0
0 0 0
0 0 0
0 0 0
0 0 0
0 0 0
0 0 0
0 0 0
0 0 0
0 0 0
0 0 0
0 0 0
0 0 0
0 0 0
0 0 0
0 0 0
0 0 0
0 0 0
0 0 0
0 0 0
0 0 0
0 0 0
0 0 0
0 0 0
0 0 0
0 0 0
0 0 0
0 0 0
0 0 0
0 0 0
0 0 0
0 0 0
0 0 0
0 0 0
0 0 0
0 0 0
0 0 0
0 0 0
0 0 0
0 0 0
0 0 0
0 0 0
0 0 0
0 0 0
0 0 0
0 0 0
0 0 0
0 0 0
0 0 0
0 0 0
0 0 0
0 0 0
0 0 0
0 0 0
0 0 0
0 0 0
0 0 0
0 0 0
0 0 0
0 0 0
179 179 179
179 179 179
179 179 179
179 179 179
179 179 179
179 179 179
179 179 179
179 179 179
179 179 179
179 179 179
179 179 179
179 179 179
179 179 179
179 179 179
179 179 179
179 179 179
179 179 179
179 179 179
179 179 179
179 179 179
179 179 179
179 179 179
179 179 179
179 179 179
179 179 179
179 179 179
179 179 179
179 179 179
179 179 179
179 179 179
179 179 179
179 179 179
179 179 179
179 179 179
179 179 179
179 179 179
179 179 179
179 179 179
179 179 179
179 179 179
179 179 179
179 179 179
179 179 179
179 179 179
179 179 179
179 179 179
179 179 179
179 179 179
179 179 179
179 179 179
179 179 179
179 179 179
179 179 179
179 179 179
179 179 179
179 179 179
179 179 179
179 179 179
179 179 179
179 179 179
179 179 179
179 179 179
179 179 179
179 179 179
179 179 179
179 179 179
179 179 179
179 179 179
179 179 179
179 179 179
179 179 179
179 179 179
179 179 179
179 179 179
179 179 179
179 179 179
179 179 179
179 179 179
179 179 179
179 179 179
179 179 179
179 179 179
179 179 179
179 179 179
179 179 179
179 179 179
179 179 179
179 179 179
179 179 179
179 179 179
179 179 179
179 179 179
35 44 157
41 41 167
48 39 173
53 36 178
59 34 182
65 32 184
70 29 186
75 27 187
80 25 188
86 23 188
91 21 188
96 19 187
101 17 186
105 15 185
110 13 182
115 11 180
120 10 177
124 8 173
129 6 168
134 5 162
138 3 155
142 1 144
179 179 179
179 179 179
179 179 179
179 179 179
179 179 179
179 179 179
179 179 179
179 179 179
179 179 179
179 179 179
179 179 179
179 179 179
179 179 179
179 179 179
179 179 179
179 179 179
179 179 179
179 179 179
179 179 179
179 179 179
179 179 179
179 179 179
179 179 179
179 179 179
179 179 179
179 179 179
179 179 179
179 179 179
179 179 179
179 179 179
179 179 179
179 179 179
179 179 179
179 179 179
179 179 179
179 179 179
179 179 179
179 179 179
179 179 179
179 179 179
179 179 179
179 179 179
179 179 179
179 179 179
179 179 179
179 179 179
179 179 179
179 179 179
179 179 179
179 179 179
179 179 179
179 179 179
179 179 179
179 179 179
179 179 179
179 179 179
179 179 179
179 179 179
179 179 179
179 179 179
179 179 179
179 179 179
179 179 179
179 179 179
179 179 179
179 179 179
179 179 179
179 179 179
179 179 179
179 179 179
179 179 179
179 179 179
179 179 179
179 179 179
179 179 179
179 179 179
179 179 179
179 179 179
179 179 179
179 179 179
179 179 179
179 179 179
179 179 179
179 179 179
179 179 179
179 179 179
179 179 179
179 179 179
179 179 179
179 179 179
179 179 179
179 179 179
179 179 179
179 179 179
179 179 179
179 179 179
179 179 179
179 179 179
179 179 179
179 179 179
179 179 179
179 179 179
179 179 179
179 179 179
179 179 179
179 179 179
179 179 179
179 179 179
179 179 179
179 179 179
179 179 179
179 179 179
179 179 179
179 179 179
179 179 179
179 179 179
179 179 179
179 179 179
179 179 179
179 179 179
179 179 179
0 0 0
0 0 0
0 0 0
0 0 0
0 0 0
0 0 0
0 0 0
0 0 0
0 0 0
0 0 0
0 0 0
0 0 0
0 0 0
0 0 0
0 0 0
0 0 0
0 0 0
0 0 0
0 0 0
0 0 0
0 0 0
0 0 0
0 0 0
0 0 0
0 0 0
0 0 0
0 0 0
0 0 0
0 0 0
0 0 0
0 0 0
0 0 0
0 0 0
0 0 0
0 0 0
0 0 0
0 0 0
0 0 0
0 0 0
0 0 0
0 0 0
0 0 0
0 0 0
0 0 0
0 0 0
0 0 0
0 0 0
0 0 0
0 0 0
0 0 0
0 0 0
0 0 0
0 0 0
0 0 0
0 0 0
0 0 0
0 0 0
0 0 0
0 0 0
0 0 0
0 0 0
0 0 0
0 0 0
0 0 0
0 0 0
0 0 0
0 0 0
0 0 0
0 0 0
0 0 0
0 0 0
0 0 0
0 0 0
0 0 0
0 0 0
0 0 0
0 0 0
0 0 0
0 0 0
0 0 0
0 0 0
0 0 0
0 0 0
0 0 0
0 0 0
0 0 0
0 0 0
0 0 0
0 0 0
0 0 0
0 0 0
0 0 0
0 0 0
0 0 0
0 0 0
0 0 0
0 0 0
0 0 0
0 0 0
0 0 0
0 0 0
0 0 0
0 0 0
0 0 0
0 0 0
0 0 0
0 0 0
0 0 0
0 0 0
0 0 0
0 0 0
0 0 0
0 0 0
0 0 0
0 0 0
0 0 0
0 0 0
0 0 0
0 0 0
0 0 0
0 0 0
0 0 0
0 0 0
0 0 0
0 0 0
0 0 0
0 0 0
0 0 0
0 0 0
0 0 0
0 0 0
0 0 0
0 0 0
0 0 0
0 0 0
0 0 0
0 0 0
0 0 0
0 0 0
0 0 0
0 0 0
0 0 0
0 0 0
0 0 0
0 0 0
0 0 0
0 0 0
0 0 0
0 0 0
0 0 0
0 0 0
0 0 0
0 0 0
0 0 0
0 0 0
0 0 0
0 0 0
0 0 0
0 0 0
0 0 0
0 0 0
0 0 0
0 0 0
0 0 0
179 179 179
179 179 179
179 179 179
179 179 179
179 179 179
179 179 179
179 179 179
179 179 179
179 179 179
179 179 179
179 179 179
179 179 179
179 179 179
179 179 179
179 179 179
179 179 179
179 179 179
179 179 179
179 179 179
179 179 179
179 179 179
179 179 179
179 179 179
179 179 179
179 179 179
179 179 179
179 179 179
179 179 179
179 179 179
179 179 179
179 179 179
179 179 179
179 179 179
179 179 179
179 179 179
179 179 179
179 179 179
179 179 179
179 179 179
179 179 179
179 179 179
179 179 179
179 179 179
179 179 179
179 179 179
179 179 179
179 179 179
179 179 179
179 179 179
179 179 179
179 179 179
179 179 179
179 179 179
179 179 179
179 179 179
179 179 179
179 179 179
179 179 179
179 179 179
179 179 179
179 179 179
179 179 179
179 179 179
179 179 179
179 179 179
179 179 179
179 179 179
179 179 179
179 179 179
179 179 179
179 179 179
179 179 179
179 179 179
179 179 179
179 179 179
179 179 179
179 179 179
179 179 179
179 179 179
179 179 179
179 179 179
179 179 179
179 179 179
179 179 179
179 179 179
179 179 179
179 179 179
179 179 179
179 179 179
179 179 179
179 179 179
179 179 179
31 47 152
38 44 165
44 41 172
50 38 177
56 36 181
62 34 184
67 31 186
72 29 188
78 27 189
83 25 189
88 23 189
93 21 189
98 19 188
103 17 187
107 15 185
112 13 182
117 11 180
122 9 176
126 8 172
131 6 167
135 4 161
140 3 153
144 1 139
179 179 179
179 179 179
179 179 179
179 179 179
179 179 179
179 179 179
179 179 179
179 179 179
179 179 179
179 179 179
179 179 179
179 179 179
179 179 179
179 179 179
179 179 179
179 179 179
179 179 179
179 179 179
179 179 179
179 179 179
179 179 179
179 179 179
179 179 179
179 179 179
179 179 179
179 179 179
179 179 179
179 179 179
179 179 179
179 179 179
179 179 179
179 179 179
179 179 179
179 179 179
179 179 179
179 179 179
179 179 179
179 179 179
179 179 179
179 179 179
179 179 179
179 179 179
179 179 179
179 179 179
179 179 179
179 179 179
179 179 179
179 179 179
179 179 179
179 179 179
179 179 179
179 179 179
179 179 179
179 179 179
179 179 179
179 179 179
179 179 179
179 179 179
179 179 179
179 179 179
179 179 179
179 179 179
179 179 179
179 179 179
179 179 179
179 179 179
179 179 179
179 179 179
179 179 179
179 179 179
179 179 179
179 179 179
179 179 179
179 179 179
179 179 179
179 179 179
179 179 179
179 179 179
179 179 179
179 179 179
179 179 179
179 179 179
179 179 179
179 179 179
179 179 179
179 179 179
179 179 179
179 179 179
179 179 179
179 179 179
179 179 179
179 179 179
179 179 179
179 179 179
179 179 179
179 179 179
179 179 179
179 179 179
179 179 179
179 179 179
179 179 179
179 179 179
179 179 179
179 179 179
179 179 179
179 179 179
179 179 179
179 179 179
179 179 179
179 179 179
179 179 179
179 179 179
179 179 179
179 179 179
179 179 179
179 179 179
179 179 179
179 179 179
179 179 179
179 179 179
179 179 179
179 179 179
0 0 0
0 0 0
0 0 0
0 0 0
0 0 0
0 0 0
0 0 0
0 0 0
0 0 0
0 0 0
0 0 0
0 0 0
0 0 0
0 0 0
0 0 0
0 0 0
0 0 0
0 0 0
0 0 0
0 0 0
0 0 0
0 0 0
0 0 0
0 0 0
0 0 0
0 0 0
0 0 0
0 0 0
0 0 0
0 0 0
0 0 0
0 0 0
0 0 0
0 0 0
0 0 0
0 0 0
0 0 0
0 0 0
0 0 0
0 0 0
0 0 0
0 0 0
0 0 0
0 0 0
0 0 0
0 0 0
0 0 0
0 0 0
0 0 0
0 0 0
0 0 0
0 0 0
0 0 0
0 0 0
0 0 0
0 0 0
0 0 0
0 0 0
0 0 0
0 0 0
0 0 0
0 0 0
0 0 0
0 0 0
0 0 0
0 0 0
0 0 0
0 0 0
0 0 0
0 0 0
0 0 0
0 0 0
0 0 0
0 0 0
0 0 0
0 0 0
0 0 0
0 0 0
0 0 0
0 0 0
0 0 0
0 0 0
0 0 0
0 0 0
0 0 0
0 0 0
0 0 0
0 0 0
0 0 0
0 0 0
0 0 0
0 0 0
0 0 0
0 0 0
0 0 0
0 0 0
0 0 0
0 0 0
0 0 0
0 0 0
0 0 0
0 0 0
0 0 0
0 0 0
0 0 0
0 0 0
0 0 0
0 0 0
0 0 0
0 0 0
0 0 0
0 0 0
0 0 0
0 0 0
0 0 0
0 0 0
0 0 0
0 0 0
0 0 0
0 0 0
0 0 0
0 0 0
0 0 0
0 0 0
0 0 0
0 0 0
0 0 0
0 0 0
0 0 0
0 0 0
0 0 0
0 0 0
0 0 0
0 0 0
0 0 0
0 0 0
0 0 0
0 0 0
0 0 0
0 0 0
0 0 0
0 0 0
0 0 0
0 0 0
0 0 0
0 0 0
0 0 0
0 0 0
0 0 0
0 0 0
0 0 0
0 0 0
0 0 0
0 0 0
0 0 0
0 0 0
0 0 0
0 0 0
0 0 0
0 0 0
0 0 0
0 0 0
179 179 179
179 179 179
179 179 179
179 179 179
179 179 179
179 179 179
179 179 179
179 179 179
179 179 179
179 179 179
179 179 179
179 179 179
179 179 179
179 179 179
179 179 179
179 179 179
179 179 179
179 179 179
179 179 179
179 179 179
179 179 179
179 179 179
179 179 179
179 179 179
179 179 179
179 179 179
179 179 179
179 179 179
179 179 179
179 179 179
179 179 179
179 179 179
179 179 179
179 179 179
179 179 179
179 179 179
179 179 179
179 179 179
179 179 179
179 179 179
179 179 179
179 179 179
179 179 179
179 179 179
179 179 179
179 179 179
179 179 179
179 179 179
179 179 179
179 179 179
179 179 179
179 179 179
179 179 179
179 179 179
179 179 179
179 179 179
179 179 179
179 179 179
179 179 179
179 179 179
179 179 179
179 179 179
179 179 179
179 179 179
179 179 179
179 179 179
179 179 179
179 179 179
179 179 179
179 179 179
179 179 179
179 179 179
179 179 179
179 179 179
179 179 179
179 179 179
179 179 179
179 179 179
179 179 179
179 179 179
179 179 179
179 179 179
179 179 179
179 179 179
179 179 179
179 179 179
179 179 179
179 179 179
179 179 179
179 179 179
179 179 179
179 179 179
27 50 143
35 46 162
41 43 171
47 41 177
53 38 181
59 36 184
64 33 187
69 31 188
75 29 189
80 27 190
85 24 190
90 22 190
95 20 189
100 18 188
105 16 187
109 14 185
114 13 182
119 11 179
123 9 176
128 7 171
132 6 166
137 4 159
141 2 150
111 254 138
179 179 179
179 179 179
179 179 179
179 179 179
179 179 179
179 179 179
179 179 179
179 179 179
179 179 179
179 179 179
179 179 179
179 179 179
179 179 179
179 179 179
179 179 179
179 179 179
179 179 179
179 179 179
179 179 179
179 179 179
179 179 179
179 179 179
179 179 179
179 179 179
179 179 179
179 179 179
179 179 179
179 179 179
179 179 179
179 179 179
179 179 179
179 179 179
179 179 179
179 179 179
179 179 179
179 179 179
179 179 179
179 179 179
179 179 179
179 179 179
179 179 179
179 179 179
179 179 179
179 179 179
179 179 179
179 179 179
179 179 179
179 179 179
179 179 179
179 179 179
179 179 179
179 179 179
179 179 179
179 179 179
179 179 179
179 179 179
179 179 179
179 179 179
179 179 179
179 179 179
179 179 179
179 179 179
179 179 179
179 179 179
179 179 179
179 179 179
179 179 179
179 179 179
179 179 179
179 179 179
179 179 179
179 179 179
179 179 179
179 179 179
179 179 179
179 179 179
179 179 179
179 179 179
179 179 179
179 179 179
179 179 179
179 179 179
179 179 179
179 179 179
179 179 179
179 179 179
179 179 179
179 179 179
179 179 179
179 179 179
179 179 179
179 179 179
179 179 179
179 179 179
179 179 179
179 179 179
179 179 179
179 179 179
179 179 179
179 179 179
179 179 179
179 179 179
179 179 179
179 179 179
179 179 179
179 179 179
179 179 179
179 179 179
179 179 179
179 179 179
179 179 179
179 179 179
179 179 179
179 179 179
179 179 179
179 179 179
179 179 179
179 179 179
179 179 179
179 179 179
179 179 179
179 179 179
0 0 0
0 0 0
0 0 0
0 0 0
0 0 0
0 0 0
0 0 0
0 0 0
0 0 0
0 0 0
0 0 0
0 0 0
0 0 0
0 0 0
0 0 0
0 0 0
0 0 0
0 0 0
0 0 0
0 0 0
0 0 0
0 0 0
0 0 0
0 0 0
0 0 0
0 0 0
0 0 0
0 0 0
0 0 0
0 0 0
0 0 0
0 0 0
0 0 0
0 0 0
0 0 0
0 0 0
0 0 0
0 0 0
0 0 0
0 0 0
0 0 0
0 0 0
0 0 0
0 0 0
0 0 0
0 0 0
0 0 0
0 0 0
0 0 0
0 0 0
0 0 0
0 0 0
0 0 0
0 0 0
0 0 0
0 0 0
0 0 0
0 0 0
0 0 0
0 0 0
0 0 0
0 0 0
0 0 0
0 0 0
0 0 0
0 0 0
0 0 0
0 0 0
0 0 0
0 0 0
0 0 0
0 0 0
0 0 0
0 0 0
0 0 0
0 0 0
0 0 0
0 0 0
0 0 0
0 0 0
0 0 0
0 0 0
0 0 0
0 0 0
0 0 0
0 0 0
0 0 0
0 0 0
0 0 0
0 0 0
0 0 0
0 0 0
0 0 0
0 0 0
0 0 0
0 0 0
0 0 0
0 0 0
0 0 0
0 0 0
0 0 0
0 0 0
0 0 0
0 0 0
0 0 0
0 0 0
0 0 0
0 0 0
0 0 0
0 0 0
0 0 0
0 0 0
0 0 0
0 0 0
0 0 0
0 0 0
0 0 0
0 0 0
0 0 0
0 0 0
0 0 0
0 0 0
0 0 0
0 0 0
0 0 0
0 0 0
0 0 0
0 0 0
0 0 0
0 0 0
0 0 0
0 0 0
0 0 0
0 0 0
0 0 0
0 0 0
0 0 0
0 0 0
0 0 0
0 0 0
0 0 0
0 0 0
0 0 0
0 0 0
0 0 0
0 0 0
0 0 0
0 0 0
0 0 0
0 0 0
0 0 0
0 0 0
0 0 0
0 0 0
0 0 0
0 0 0
0 0 0
0 0 0
0 0 0
0 0 0
0 0 0
0 0 0
179 179 179
179 179 179
179 179 179
179 179 179
179 179 179
179 179 179
179 179 179
179 179 179
179 179 179
179 179 179
179 179 179
179 179 179
179 179 179
179 179 179
179 179 179
179 179 179
179 179 179
179 179 179
179 179 179
179 179 179
179 179 179
179 179 179
179 179 179
179 179 179
179 179 179
179 179 179
179 179 179
179 179 179
179 179 179
179 179 179
179 179 179
179 179 179
179 179 179
179 179 179
179 179 179
179 179 179
179 179 179
179 179 179
179 179 179
179 179 179
179 179 179
179 179 179
179 179 179
179 179 179
179 179 179
179 179 179
179 179 179
179 179 179
179 179 179
179 179 179
179 179 179
179 179 179
179 179 179
179 179 179
179 179 179
179 179 179
179 179 179
179 179 179
179 179 179
179 179 179
179 179 179
179 179 179
179 179 179
179 179 179
179 179 179
179 179 179
179 179 179
179 179 179
179 179 179
179 179 179
179 179 179
179 179 179
179 179 179
179 179 179
179 179 179
179 179 179
179 179 179
179 179 179
179 179 179
179 179 179
179 179 179
179 179 179
179 179 179
179 179 179
179 179 179
179 179 179
179 179 179
179 179 179
179 179 179
179 179 179
179 179 179
179 179 179
32 49 159
38 46 169
44 43 176
50 40 180
56 38 184
61 35 187
67 33 189
72 31 190
77 28 191
82 26 191
87 24 191
92 22 191
97 20 190
102 18 189
107 16 187
111 14 185
116 12 182
121 10 179
125 9 175
130 7 170
134 5 164
139 3 157
143 2 147
179 179 179
179 179 179
179 179 179
179 179 179
179 179 179
179 179 179
179 179 179
179 179 179
179 179 179
179 179 179
179 179 179
179 179 179
179 179 179
179 179 179
179 179 179
179 179 179
179 179 179
179 179 179
179 179 179
179 179 179
179 179 179
179 179 179
179 179 179
179 179 179
179 179 179
179 179 179
179 179 179
179 179 179
179 179 179
179 179 179
179 179 179
179 179 179
179 179 179
179 179 179
179 179 179
179 179 179
179 179 179
179 179 179
179 179 179
179 179 179
179 179 179
179 179 179
179 179 179
179 179 179
179 179 179
179 179 179
179 179 179
179 179 179
179 179 179
179 179 179
179 179 179
179 179 179
179 179 179
179 179 179
179 179 179
179 179 179
179 179 179
179 179 179
179 179 179
179 179 179
179 179 179
179 179 179
179 179 179
179 179 179
179 179 179
179 179 179
179 179 179
179 179 179
179 179 179
179 179 179
179 179 179
179 179 179
179 179 179
179 179 179
179 179 179
179 179 179
179 179 179
179 179 179
179 179 179
179 179 179
179 179 179
179 179 179
179 179 179
179 179 179
179 179 179
179 179 179
179 179 179
179 179 179
179 179 179
179 179 179
179 179 179
179 179 179
179 179 179
179 179 179
179 179 179
179 179 179
179 179 179
179 179 179
179 179 179
179 179 179
179 179 179
179 179 179
179 179 179
179 179 179
179 179 179
179 179 179
179 179 179
179 179 179
179 179 179
179 179 179
179 179 179
179 179 179
179 179 179
179 179 179
179 179 179
179 179 179
179 179 179
179 179 179
179 179 179
179 179 179
179 179 179
179 179 179
179 179 179
179 179 179
0 0 0
0 0 0
0 0 0
0 0 0
0 0 0
0 0 0
0 0 0
0 0 0
0 0 0
0 0 0
0 0 0
0 0 0
0 0 0
0 0 0
0 0 0
0 0 0
0 0 0
0 0 0
0 0 0
0 0 0
0 0 0
0 0 0
0 0 0
0 0 0
0 0 0
0 0 0
0 0 0
0 0 0
0 0 0
0 0 0
0 0 0
0 0 0
0 0 0
0 0 0
0 0 0
0 0 0
0 0 0
0 0 0
0 0 0
0 0 0
0 0 0
0 0 0
0 0 0
0 0 0
0 0 0
0 0 0
0 0 0
0 0 0
0 0 0
0 0 0
0 0 0
0 0 0
0 0 0
0 0 0
0 0 0
0 0 0
0 0 0
0 0 0
0 0 0
0 0 0
0 0 0
0 0 0
0 0 0
0 0 0
0 0 0
0 0 0
0 0 0
0 0 0
0 0 0
0 0 0
0 0 0
0 0 0
0 0 0
0 0 0
0 0 0
0 0 0
0 0 0
0 0 0
0 0 0
0 0 0
0 0 0
0 0 0
0 0 0
0 0 0
0 0 0
0 0 0
0 0 0
0 0 0
0 0 0
0 0 0
0 0 0
0 0 0
0 0 0
0 0 0
0 0 0
0 0 0
0 0 0
0 0 0
0 0 0
0 0 0
0 0 0
0 0 0
0 0 0
0 0 0
0 0 0
0 0 0
0 0 0
0 0 0
0 0 0
0 0 0
0 0 0
0 0 0
0 0 0
0 0 0
0 0 0
0 0 0
0 0 0
0 0 0
0 0 0
0 0 0
0 0 0
0 0 0
0 0 0
0 0 0
0 0 0
0 0 0
0 0 0
0 0 0
0 0 0
0 0 0
0 0 0
0 0 0
0 0 0
0 0 0
0 0 0
0 0 0
0 0 0
0 0 0
0 0 0
0 0 0
0 0 0
0 0 0
0 0 0
0 0 0
0 0 0
0 0 0
0 0 0
0 0 0
0 0 0
0 0 0
0 0 0
0 0 0
0 0 0
0 0 0
0 0 0
0 0 0
0 0 0
0 0 0
0 0 0
0 0 0
179 179 179
179 179 179
179 179 179
179 179 179
179 179 179
179 179 179
179 179 179
179 179 179
179 179 179
179 179 179
179 179 179
179 179 179
179 179 179
179 179 179
179 179 179
179 179 179
179 179 179
179 179 179
179 179 179
179 179 179
179 179 179
179 179 179
179 179 179
179 179 179
179 179 179
179 179 179
179 179 179
179 179 179
179 179 179
179 179 179
179 179 179
179 179 179
179 179 179
179 179 179
179 179 179
179 179 179
179 179 179
179 179 179
179 179 179
179 179 179
179 179 179
179 179 179
179 179 179
179 179 179
179 179 179
179 179 179
179 179 179
179 179 179
179 179 179
179 179 179
179 179 179
179 179 179
179 179 179
179 179 179
179 179 179
179 179 179
179 179 179
179 179 179
179 179 179
179 179 179
179 179 179
179 179 179
179 179 179
179 179 179
179 179 179
179 179 179
179 179 179
179 179 179
179 179 179
179 179 179
179 179 179
179 179 179
179 179 179
179 179 179
179 179 179
179 179 179
179 179 179
179 179 179
179 179 179
179 179 179
179 179 179
179 179 179
179 179 179
179 179 179
179 179 179
179 179 179
179 179 179
179 179 179
179 179 179
179 179 179
179 179 179
179 179 179
28 51 155
35 48 167
41 45 174
47 43 180
53 40 184
58 38 187
64 35 189
69 33 191
74 30 192
79 28 192
84 26 192
89 24 192
94 22 191
99 20 190
104 18 189
109 16 187
113 14 185
118 12 182
123 10 178
127 8 174
132 6 169
136 5 163
140 3 155
144 2 142
179 179 179
179 179 179
179 179 179
179 179 179
179 179 179
179 179 179
179 179 179
179 179 179
179 179 179
179 179 179
179 179 179
179 179 179
179 179 179
179 179 179
179 179 179
179 179 179
179 179 179
179 179 179
179 179 179
179 179 179
179 179 179
179 179 179
179 179 179
179 179 179
179 179 179
179 179 179
179 179 179
179 179 179
179 179 179
179 179 179
179 179 179
179 179 179
179 179 179
179 179 179
179 179 179
179 179 179
179 179 179
179 179 179
179 179 179
179 179 179
179 179 179
179 179 179
179 179 179
179 179 179
179 179 179
179 179 179
179 179 179
179 179 179
179 179 179
179 179 179
179 179 179
179 179 179
179 179 179
179 179 179
179 179 179
179 179 179
179 179 179
179 179 179
179 179 179
179 179 179
179 179 179
179 179 179
179 179 179
179 179 179
179 179 179
179 179 179
179 179 179
179 179 179
179 179 179
179 179 179
179 179 179
179 179 179
179 179 179
179 179 179
179 179 179
179 179 179
179 179 179
179 179 179
179 179 179
179 179 179
179 179 179
179 179 179
179 179 179
179 179 179
179 179 179
179 179 179
179 179 179
179 179 179
179 179 179
179 179 179
179 179 179
179 179 179
179 179 179
179 179 179
179 179 179
179 179 179
179 179 179
179 179 179
179 179 179
179 179 179
179 179 179
179 179 179
179 179 179
179 179 179
179 179 179
179 179 179
179 179 179
179 179 179
179 179 179
179 179 179
179 179 179
179 179 179
179 179 179
179 179 179
179 179 179
179 179 179
179 179 179
179 179 179
179 179 179
179 179 179
179 179 179
179 179 179
179 179 179
179 179 179
179 179 179
0 0 0
0 0 0
0 0 0
0 0 0
0 0 0
0 0 0
0 0 0
0 0 0
0 0 0
0 0 0
0 0 0
0 0 0
0 0 0
0 0 0
0 0 0
0 0 0
0 0 0
0 0 0
0 0 0
0 0 0
0 0 0
0 0 0
0 0 0
0 0 0
0 0 0
0 0 0
0 0 0
0 0 0
0 0 0
0 0 0
0 0 0
0 0 0
0 0 0
0 0 0
0 0 0
0 0 0
0 0 0
0 0 0
0 0 0
0 0 0
0 0 0
0 0 0
0 0 0
0 0 0
0 0 0
0 0 0
0 0 0
0 0 0
0 0 0
0 0 0
0 0 0
0 0 0
0 0 0
0 0 0
0 0 0
0 0 0
0 0 0
0 0 0
0 0 0
0 0 0
0 0 0
0 0 0
0 0 0
0 0 0
0 0 0
0 0 0
0 0 0
0 0 0
0 0 0
0 0 0
0 0 0
0 0 0
0 0 0
0 0 0
0 0 0
0 0 0
0 0 0
0 0 0
0 0 0
0 0 0
0 0 0
0 0 0
0 0 0
0 0 0
0 0 0
0 0 0
0 0 0
0 0 0
0 0 0
0 0 0
0 0 0
0 0 0
0 0 0
0 0 0
0 0 0
0 0 0
0 0 0
0 0 0
0 0 0
0 0 0
0 0 0
0 0 0
0 0 0
0 0 0
0 0 0
0 0 0
0 0 0
0 0 0
0 0 0
0 0 0
0 0 0
0 0 0
0 0 0
0 0 0
0 0 0
0 0 0
0 0 0
0 0 0
0 0 0
0 0 0
0 0 0
0 0 0
0 0 0
0 0 0
0 0 0
0 0 0
0 0 0
0 0 0
0 0 0
0 0 0
0 0 0
0 0 0
0 0 0
0 0 0
0 0 0
0 0 0
0 0 0
0 0 0
0 0 0
0 0 0
0 0 0
0 0 0
0 0 0
0 0 0
0 0 0
0 0 0
0 0 0
0 0 0
0 0 0
0 0 0
0 0 0
0 0 0
0 0 0
0 0 0
0 0 0
0 0 0
0 0 0
0 0 0
179 179 179
179 179 179
179 179 179
179 179 179
179 179 179
179 179 179
179 179 179
179 179 179
179 179 179
179 179 179
179 179 179
179 179 179
179 179 179
179 179 179
179 179 179
179 179 179
179 179 179
179 179 179
179 179 179
179 179 179
179 179 179
179 179 179
179 179 179
179 179 179
179 179 179
179 179 179
179 179 179
179 179 179
179 179 179
179 179 179
179 179 179
179 179 179
179 179 179
179 179 179
179 179 179
179 179 179
179 179 179
179 179 179
179 179 179
179 179 179
179 179 179
179 179 179
179 179 179
179 179 179
179 179 179
179 179 179
179 179 179
179 179 179
179 179 179
179 179 179
179 179 179
179 179 179
179 179 179
179 179 179
179 179 179
179 179 179
179 179 179
179 179 179
179 179 179
179 179 179
179 179 179
179 179 179
179 179 179
179 179 179
179 179 179
179 179 179
179 179 179
179 179 179
179 179 179
179 179 179
179 179 179
179 179 179
179 179 179
179 179 179
179 179 179
179 179 179
179 179 179
179 179 179
179 179 179
179 179 179
179 179 179
179 179 179
179 179 179
179 179 179
179 179 179
179 179 179
179 179 179
179 179 179
179 179 179
179 179 179
179 179 179
179 179 179
233 200 131
32 51 164
38 48 173
44 45 179
50 42 183
56 40 187
61 37 189
66 35 191
71 32 192
77 30 193
82 28 193
87 26 193
92 23 193
96 21 192
101 19 191
106 17 189
111 15 187
115 13 184
143 241 185
124 10 177
129 8 173
127 247 173
138 4 161
142 3 152
146 1 137
179 179 179
179 179 179
179 179 179
179 179 179
179 179 179
179 179 179
179 179 179
179 179 179
179 179 179
179 179 179
179 179 179
179 179 179
179 179 179
179 179 179
179 179 179
179 179 179
179 179 179
179 179 179
179 179 179
179 179 179
179 179 179
179 179 179
179 179 179
179 179 179
179 179 179
179 179 179
179 179 179
179 179 179
179 179 179
179 179 179
179 179 179
179 179 179
179 179 179
179 179 179
179 179 179
179 179 179
179 179 179
179 179 179
179 179 179
179 179 179
179 179 179
179 179 179
179 179 179
179 179 179
179 179 179
179 179 179
179 179 179
179 179 179
179 179 179
179 179 179
179 179 179
179 179 179
179 179 179
179 179 179
179 179 179
179 179 179
179 179 179
179 179 179
179 179 179
179 179 179
179 179 179
179 179 179
179 179 179
179 179 179
179 179 179
179 179 179
179 179 179
179 179 179
179 179 179
179 179 179
179 179 179
179 179 179
179 179 179
179 179 179
179 179 179
179 179 179
179 179 179
179 179 179
179 179 179
179 179 179
179 179 179
179 179 179
179 179 179
179 179 179
179 179 179
179 179 179
179 179 179
179 179 179
179 179 179
179 179 179
179 179 179
179 179 179
179 179 179
179 179 179
179 179 179
179 179 179
179 179 179
179 179 179
179 179 179
179 179 179
179 179 179
179 179 179
179 179 179
179 179 179
179 179 179
179 179 179
179 179 179
179 179 179
179 179 179
179 179 179
179 179 179
179 179 179
179 179 179
179 179 179
179 179 179
179 179 179
179 179 179
179 179 179
179 179 179
179 179 179
179 179 179
179 179 179
179 179 179
179 179 179
179 179 179
179 179 179
0 0 0
0 0 0
0 0 0
0 0 0
0 0 0
0 0 0
0 0 0
0 0 0
0 0 0
0 0 0
0 0 0
0 0 0
0 0 0
0 0 0
0 0 0
0 0 0
0 0 0
0 0 0
0 0 0
0 0 0
0 0 0
0 0 0
0 0 0
0 0 0
0 0 0
0 0 0
0 0 0
0 0 0
0 0 0
0 0 0
0 0 0
0 0 0
0 0 0
0 0 0
0 0 0
0 0 0
0 0 0
0 0 0
0 0 0
0 0 0
0 0 0
0 0 0
0 0 0
0 0 0
0 0 0
0 0 0
0 0 0
0 0 0
0 0 0
0 0 0
0 0 0
0 0 0
0 0 0
0 0 0
0 0 0
0 0 0
0 0 0
0 0 0
0 0 0
0 0 0
0 0 0
0 0 0
0 0 0
0 0 0
0 0 0
0 0 0
0 0 0
0 0 0
0 0 0
0 0 0
0 0 0
0 0 0
0 0 0
0 0 0
0 0 0
0 0 0
0 0 0
0 0 0
0 0 0
0 0 0
0 0 0
0 0 0
0 0 0
0 0 0
0 0 0
0 0 0
0 0 0
0 0 0
0 0 0
0 0 0
0 0 0
0 0 0
0 0 0
0 0 0
0 0 0
0 0 0
0 0 0
0 0 0
0 0 0
0 0 0
0 0 0
0 0 0
0 0 0
0 0 0
0 0 0
0 0 0
0 0 0
0 0 0
0 0 0
0 0 0
0 0 0
0 0 0
0 0 0
0 0 0
0 0 0
0 0 0
0 0 0
0 0 0
0 0 0
0 0 0
0 0 0
0 0 0
0 0 0
0 0 0
0 0 0
0 0 0
0 0 0
0 0 0
0 0 0
0 0 0
0 0 0
0 0 0
0 0 0
0 0 0
0 0 0
0 0 0
0 0 0
0 0 0
0 0 0
0 0 0
0 0 0
0 0 0
0 0 0
0 0 0
0 0 0
0 0 0
0 0 0
0 0 0
0 0 0
0 0 0
0 0 0
0 0 0
0 0 0
0 0 0
0 0 0
0 0 0
179 179 179
179 179 179
179 179 179
179 179 179
179 179 179
179 179 179
179 179 179
179 179 179
179 179 179
179 179 179
179 179 179
179 179 179
179 179 179
179 179 179
179 179 179
179 179 179
179 179 179
179 179 179
179 179 179
179 179 179
179 179 179
179 179 179
179 179 179
179 179 179
179 179 179
179 179 179
179 179 179
179 179 179
179 179 179
179 179 179
179 179 179
179 179 179
179 179 179
179 179 179
179 179 179
179 179 179
179 179 179
179 179 179
179 179 179
179 179 179
179 179 179
179 179 179
179 179 179
179 179 179
179 179 179
179 179 179
179 179 179
179 179 179
179 179 179
179 179 179
179 179 179
179 179 179
179 179 179
179 179 179
179 179 179
179 179 179
179 179 179
179 179 179
179 179 179
179 179 179
179 179 179
179 179 179
179 179 179
179 179 179
179 179 179
179 179 179
179 179 179
179 179 179
179 179 179
179 179 179
179 179 179
179 179 179
179 179 179
179 179 179
179 179 179
179 179 179
179 179 179
179 179 179
179 179 179
179 179 179
179 179 179
179 179 179
179 179 179
179 179 179
179 179 179
179 179 179
179 179 179
179 179 179
179 179 179
179 179 179
179 179 179
179 179 179
179 179 179
29 53 162
35 50 171
41 47 178
47 45 183
53 42 186
58 39 189
64 37 191
69 34 193
74 32 194
79 30 194
84 27 194
89 25 194
94 23 193
99 21 192
103 19 191
108 17 189
113 15 187
117 13 184
122 11 181
126 9 177
131 7 172
135 6 166
139 4 159
144 2 149
179 179 179
179 179 179
179 179 179
179 179 179
179 179 179
179 179 179
179 179 179
179 179 179
179 179 179
179 179 179
179 179 179
179 179 179
179 179 179
179 179 179
179 179 179
179 179 179
179 179 179
179 179 179
179 179 179
179 179 179
179 179 179
179 179 179
179 179 179
179 179 179
179 179 179
179 179 179
179 179 179
179 179 179
179 179 179
179 179 179
179 179 179
179 179 179
179 179 179
179 179 179
179 179 179
179 179 179
179 179 179
179 179 179
179 179 179
179 179 179
179 179 179
179 179 179
179 179 179
179 179 179
179 179 179
179 179 179
179 179 179
179 179 179
179 179 179
179 179 179
179 179 179
179 179 179
179 179 179
179 179 179
179 179 179
179 179 179
179 179 179
179 179 179
179 179 179
179 179 179
179 179 179
179 179 179
179 179 179
179 179 179
179 179 179
179 179 179
179 179 179
179 179 179
179 179 179
179 179 179
179 179 179
179 179 179
179 179 179
179 179 179
179 179 179
179 179 179
179 179 179
179 179 179
179 179 179
179 179 179
179 179 179
179 179 179
179 179 179
179 179 179
179 179 179
179 179 179
179 179 179
179 179 179
179 179 179
179 179 179
179 179 179
179 179 179
179 179 179
179 179 179
179 179 179
179 179 179
179 179 179
179 179 179
179 179 179
179 179 179
179 179 179
179 179 179
179 179 179
179 179 179
179 179 179
179 179 179
179 179 179
179 179 179
179 179 179
179 179 179
179 179 179
179 179 179
179 179 179
179 179 179
179 179 179
179 179 179
179 179 179
179 179 179
179 179 179
179 179 179
179 179 179
179 179 179
179 179 179
179 179 179
179 179 179
179 179 179
179 179 179
179 179 179
0 0 0
0 0 0
0 0 0
0 0 0
0 0 0
0 0 0
0 0 0
0 0 0
0 0 0
0 0 0
0 0 0
0 0 0
0 0 0
0 0 0
0 0 0
0 0 0
0 0 0
0 0 0
0 0 0
0 0 0
0 0 0
0 0 0
0 0 0
0 0 0
0 0 0
0 0 0
0 0 0
0 0 0
0 0 0
0 0 0
0 0 0
0 0 0
0 0 0
0 0 0
0 0 0
0 0 0
0 0 0
0 0 0
0 0 0
0 0 0
0 0 0
0 0 0
0 0 0
0 0 0
0 0 0
0 0 0
0 0 0
0 0 0
0 0 0
0 0 0
0 0 0
0 0 0
0 0 0
0 0 0
0 0 0
0 0 0
0 0 0
0 0 0
0 0 0
0 0 0
0 0 0
0 0 0
0 0 0
0 0 0
0 0 0
0 0 0
0 0 0
0 0 0
0 0 0
0 0 0
0 0 0
0 0 0
0 0 0
0 0 0
0 0 0
0 0 0
0 0 0
0 0 0
0 0 0
0 0 0
0 0 0
0 0 0
0 0 0
0 0 0
0 0 0
0 0 0
0 0 0
0 0 0
0 0 0
0 0 0
0 0 0
0 0 0
0 0 0
0 0 0
0 0 0
0 0 0
0 0 0
0 0 0
0 0 0
0 0 0
0 0 0
0 0 0
0 0 0
0 0 0
0 0 0
0 0 0
0 0 0
0 0 0
0 0 0
0 0 0
0 0 0
0 0 0
0 0 0
0 0 0
0 0 0
0 0 0
0 0 0
0 0 0
0 0 0
0 0 0
0 0 0
0 0 0
0 0 0
0 0 0
0 0 0
0 0 0
0 0 0
0 0 0
0 0 0
0 0 0
0 0 0
0 0 0
0 0 0
0 0 0
0 0 0
0 0 0
0 0 0
0 0 0
0 0 0
0 0 0
0 0 0
0 0 0
0 0 0
0 0 0
0 0 0
0 0 0
0 0 0
0 0 0
0 0 0
0 0 0
0 0 0
0 0 0
0 0 0
0 0 0
179 179 179
179 179 179
179 179 179
179 179 179
179 179 179
179 179 179
179 179 179
179 179 179
179 179 179
179 179 179
179 179 179
179 179 179
179 179 179
179 179 179
179 179 179
179 179 179
179 179 179
179 179 179
179 179 179
179 179 179
179 179 179
179 179 179
179 179 179
179 179 179
179 179 179
179 179 179
179 179 179
179 179 179
179 179 179
179 179 179
179 179 179
179 179 179
179 179 179
179 179 179
179 179 179
179 179 179
179 179 179
179 179 179
179 179 179
179 179 179
179 179 179
179 179 179
179 179 179
179 179 179
179 179 179
179 179 179
179 179 179
179 179 179
179 179 179
179 179 179
179 179 179
179 179 179
179 179 179
179 179 179
179 179 179
179 179 179
179 179 179
179 179 179
179 179 179
179 179 179
179 179 179
179 179 179
179 179 179
179 179 179
179 179 179
179 179 179
179 179 179
179 179 179
179 179 179
179 179 179
179 179 179
179 179 179
179 179 179
179 179 179
179 179 179
179 179 179
179 179 179
179 179 179
179 179 179
179 179 179
179 179 179
179 179 179
179 179 179
179 179 179
179 179 179
179 179 179
179 179 179
179 179 179
179 179 179
179 179 179
179 179 179
179 179 179
179 179 179
26 56 158
33 53 169
39 50 177
44 47 182
50 44 186
56 41 189
61 39 191
66 36 193
71 34 194
76 32 195
81 29 195
86 27 195
91 25 195
96 23 194
101 21 193
105 19 191
110 17 189
115 15 186
119 13 183
124 11 180
128 9 176
133 7 170
123 248 170
141 4 156
145 2 144
179 179 179
179 179 179
179 179 179
179 179 179
179 179 179
179 179 179
179 179 179
179 179 179
179 179 179
179 179 179
179 179 179
179 179 179
179 179 179
179 179 179
179 179 179
179 179 179
179 179 179
179 179 179
179 179 179
179 179 179
179 179 179
179 179 179
179 179 179
179 179 179
179 179 179
179 179 179
179 179 179
179 179 179
179 179 179
179 179 179
179 179 179
179 179 179
179 179 179
179 179 179
179 179 179
179 179 179
179 179 179
179 179 179
179 179 179
179 179 179
179 179 179
179 179 179
179 179 179
179 179 179
179 179 179
179 179 179
179 179 179
179 179 179
179 179 179
179 179 179
179 179 179
179 179 179
179 179 179
179 179 179
179 179 179
179 179 179
179 179 179
179 179 179
179 179 179
179 179 179
179 179 179
179 179 179
179 179 179
179 179 179
179 179 179
179 179 179
179 179 179
179 179 179
179 179 179
179 179 179
179 179 179
179 179 179
179 179 179
179 179 179
179 179 179
179 179 179
179 179 179
179 179 179
179 179 179
179 179 179
179 179 179
179 179 179
179 179 179
179 179 179
179 179 179
179 179 179
179 179 179
179 179 179
179 179 179
179 179 179
179 179 179
179 179 179
179 179 179
179 179 179
179 179 179
179 179 179
179 179 179
179 179 179
179 179 179
179 179 179
179 179 179
179 179 179
179 179 179
179 179 179
179 179 179
179 179 179
179 179 179
179 179 179
179 179 179
179 179 179
179 179 179
179 179 179
179 179 179
179 179 179
179 179 179
179 179 179
179 179 179
179 179 179
179 179 179
179 179 179
179 179 179
179 179 179
179 179 179
179 179 179
179 179 179
179 179 179
179 179 179
179 179 179
179 179 179
0 0 0
0 0 0
0 0 0
0 0 0
0 0 0
0 0 0
0 0 0
0 0 0
0 0 0
0 0 0
0 0 0
0 0 0
0 0 0
0 0 0
0 0 0
0 0 0
0 0 0
0 0 0
0 0 0
0 0 0
0 0 0
0 0 0
0 0 0
0 0 0
0 0 0
0 0 0
0 0 0
0 0 0
0 0 0
0 0 0
0 0 0
0 0 0
0 0 0
0 0 0
0 0 0
0 0 0
0 0 0
0 0 0
0 0 0
0 0 0
0 0 0
0 0 0
0 0 0
0 0 0
0 0 0
0 0 0
0 0 0
0 0 0
0 0 0
0 0 0
0 0 0
0 0 0
0 0 0
0 0 0
0 0 0
0 0 0
0 0 0
0 0 0
0 0 0
0 0 0
0 0 0
0 0 0
0 0 0
0 0 0
0 0 0
0 0 0
0 0 0
0 0 0
0 0 0
0 0 0
0 0 0
0 0 0
0 0 0
0 0 0
0 0 0
0 0 0
0 0 0
0 0 0
0 0 0
0 0 0
0 0 0
0 0 0
0 0 0
0 0 0
0 0 0
0 0 0
0 0 0
0 0 0
0 0 0
0 0 0
0 0 0
0 0 0
0 0 0
0 0 0
0 0 0
0 0 0
0 0 0
0 0 0
0 0 0
0 0 0
0 0 0
0 0 0
0 0 0
0 0 0
0 0 0
0 0 0
0 0 0
0 0 0
0 0 0
0 0 0
0 0 0
0 0 0
0 0 0
0 0 0
0 0 0
0 0 0
0 0 0
0 0 0
0 0 0
0 0 0
0 0 0
0 0 0
0 0 0
0 0 0
0 0 0
0 0 0
0 0 0
0 0 0
0 0 0
0 0 0
0 0 0
0 0 0
0 0 0
0 0 0
0 0 0
0 0 0
0 0 0
0 0 0
0 0 0
0 0 0
0 0 0
0 0 0
0 0 0
0 0 0
0 0 0
0 0 0
0 0 0
0 0 0
0 0 0
0 0 0
0 0 0
0 0 0
179 179 179
179 179 179
179 179 179
179 179 179
179 179 179
179 179 179
179 179 179
179 179 179
179 179 179
179 179 179
179 179 179
179 179 179
179 179 179
179 179 179
179 179 179
179 179 179
179 179 179
179 179 179
179 179 179
179 179 179
179 179 179
179 179 179
179 179 179
179 179 179
179 179 179
179 179 179
179 179 179
179 179 179
179 179 179
179 179 179
179 179 179
179 179 179
179 179 179
179 179 179
179 179 179
179 179 179
179 179 179
179 179 179
179 179 179
179 179 179
179 179 179
179 179 179
179 179 179
179 179 179
179 179 179
179 179 179
179 179 179
179 179 179
179 179 179
179 179 179
179 179 179
179 179 179
179 179 179
179 179 179
179 179 179
179 179 179
179 179 179
179 179 179
179 179 179
179 179 179
179 179 179
179 179 179
179 179 179
179 179 179
179 179 179
179 179 179
179 179 179
179 179 179
179 179 179
179 179 179
179 179 179
179 179 179
179 179 179
179 179 179
179 179 179
179 179 179
179 179 179
179 179 179
179 179 179
179 179 179
179 179 179
179 179 179
179 179 179
179 179 179
179 179 179
179 179 179
179 179 179
179 179 179
179 179 179
179 179 179
179 179 179
179 179 179
179 179 179
23 59 153
30 55 167
36 52 175
42 49 181
47 46 186
53 44 189
58 41 192
64 38 194
69 36 195
74 34 196
79 31 196
84 29 196
89 27 196
93 24 195
98 22 194
103 20 193
107 18 191
112 16 189
117 14 186
121 12 183
126 10 179
130 8 174
134 7 169
139 5 162
143 3 153
147 1 139
179 179 179
179 179 179
179 179 179
179 179 179
179 179 179
179 179 179
179 179 179
179 179 179
179 179 179
179 179 179
179 179 179
179 179 179
179 179 179
179 179 179
179 179 179
179 179 179
179 179 179
179 179 179
179 179 179
179 179 179
179 179 179
179 179 179
179 179 179
179 179 179
179 179 179
179 179 179
179 179 179
179 179 179
179 179 179
179 179 179
179 179 179
179 179 179
179 179 179
179 179 179
179 179 179
179 179 179
179 179 179
179 179 179
179 179 179
179 179 179
179 179 179
179 179 179
179 179 179
179 179 179
179 179 179
179 179 179
179 179 179
179 179 179
179 179 179
179 179 179
179 179 179
179 179 179
179 179 179
179 179 179
179 179 179
179 179 179
179 179 179
179 179 179
179 179 179
179 179 179
179 179 179
179 179 179
179 179 179
179 179 179
179 179 179
179 179 179
179 179 179
179 179 179
179 179 179
179 179 179
179 179 179
179 179 179
179 179 179
179 179 179
179 179 179
179 179 179
179 179 179
179 179 179
179 179 179
179 179 179
179 179 179
179 179 179
179 179 179
179 179 179
179 179 179
179 179 179
179 179 179
179 179 179
179 179 179
179 179 179
179 179 179
179 179 179
179 179 179
179 179 179
179 179 179
179 179 179
179 179 179
179 179 179
179 179 179
179 179 179
179 179 179
179 179 179
179 179 179
179 179 179
179 179 179
179 179 179
179 179 179
179 179 179
179 179 179
179 179 179
179 179 179
179 179 179
179 179 179
179 179 179
179 179 179
179 179 179
179 179 179
179 179 179
179 179 179
179 179 179
179 179 179
179 179 179
179 179 179
179 179 179
179 179 179
179 179 179
179 179 179
179 179 179
179 179 179
179 179 179
0 0 0
0 0 0
0 0 0
0 0 0
0 0 0
0 0 0
0 0 0
0 0 0
0 0 0
0 0 0
0 0 0
0 0 0
0 0 0
0 0 0
0 0 0
0 0 0
0 0 0
0 0 0
0 0 0
0 0 0
0 0 0
0 0 0
0 0 0
0 0 0
0 0 0
0 0 0
0 0 0
0 0 0
0 0 0
0 0 0
0 0 0
0 0 0
0 0 0
0 0 0
0 0 0
0 0 0
0 0 0
0 0 0
0 0 0
0 0 0
0 0 0
0 0 0
0 0 0
0 0 0
0 0 0
0 0 0
0 0 0
0 0 0
0 0 0
0 0 0
0 0 0
0 0 0
0 0 0
0 0 0
0 0 0
0 0 0
0 0 0
0 0 0
0 0 0
0 0 0
0 0 0
0 0 0
0 0 0
0 0 0
0 0 0
0 0 0
0 0 0
0 0 0
0 0 0
0 0 0
0 0 0
0 0 0
0 0 0
0 0 0
0 0 0
0 0 0
0 0 0
0 0 0
0 0 0
0 0 0
0 0 0
0 0 0
0 0 0
0 0 0
0 0 0
0 0 0
0 0 0
0 0 0
0 0 0
0 0 0
0 0 0
0 0 0
0 0 0
0 0 0
0 0 0
0 0 0
0 0 0
0 0 0
0 0 0
0 0 0
0 0 0
0 0 0
0 0 0
0 0 0
0 0 0
0 0 0
0 0 0
0 0 0
0 0 0
0 0 0
0 0 0
0 0 0
0 0 0
0 0 0
0 0 0
0 0 0
0 0 0
0 0 0
0 0 0
0 0 0
0 0 0
0 0 0
0 0 0
0 0 0
0 0 0
0 0 0
0 0 0
0 0 0
0 0 0
0 0 0
0 0 0
0 0 0
0 0 0
0 0 0
0 0 0
0 0 0
0 0 0
0 0 0
0 0 0
0 0 0
0 0 0
0 0 0
0 0 0
0 0 0
0 0 0
0 0 0
0 0 0
0 0 0
0 0 0
0 0 0
179 179 179
179 179 179
179 179 179
179 179 179
179 179 179
179 179 179
179 179 179
179 179 179
179 179 179
179 179 179
179 179 179
179 179 179
179 179 179
179 179 179
179 179 179
179 179 179
179 179 179
179 179 179
179 179 179
179 179 179
179 179 179
179 179 179
179 179 179
179 179 179
179 179 179
179 179 179
179 179 179
179 179 179
179 179 179
179 179 179
179 179 179
179 179 179
179 179 179
179 179 179
179 179 179
179 179 179
179 179 179
179 179 179
179 179 179
179 179 179
179 179 179
179 179 179
179 179 179
179 179 179
179 179 179
179 179 179
179 179 179
179 179 179
179 179 179
179 179 179
179 179 179
179 179 179
179 179 179
179 179 179
179 179 179
179 179 179
179 179 179
179 179 179
179 179 179
179 179 179
179 179 179
179 179 179
179 179 179
179 179 179
179 179 179
179 179 179
179 179 179
179 179 179
179 179 179
179 179 179
179 179 179
179 179 179
179 179 179
179 179 179
179 179 179
179 179 179
179 179 179
179 179 179
179 179 179
179 179 179
179 179 179
179 179 179
179 179 179
179 179 179
179 179 179
179 179 179
179 179 179
179 179 179
179 179 179
179 179 179
179 179 179
179 179 179
179 179 179
19 62 145
27 58 165
33 55 174
39 52 180
45 49 185
50 46 189
56 43 192
61 41 194
66 38 195
71 36 197
76 33 197
81 31 197
86 28 197
91 26 197
96 24 196
100 22 195
105 20 193
110 18 191
114 16 188
119 14 185
123 12 182
128 10 178
132 8 173
136 6 167
141 4 160
145 3 150
179 179 179
179 179 179
179 179 179
179 179 179
179 179 179
179 179 179
179 179 179
179 179 179
179 179 179
179 179 179
179 179 179
179 179 179
179 179 179
179 179 179
179 179 179
179 179 179
179 179 179
179 179 179
179 179 179
179 179 179
179 179 179
179 179 179
179 179 179
179 179 179
179 179 179
179 179 179
179 179 179
179 179 179
179 179 179
179 179 179
179 179 179
179 179 179
179 179 179
179 179 179
179 179 179
179 179 179
179 179 179
179 179 179
179 179 179
179 179 179
179 179 179
179 179 179
179 179 179
179 179 179
179 179 179
179 179 179
179 179 179
179 179 179
179 179 179
179 179 179
179 179 179
179 179 179
179 179 179
179 179 179
179 179 179
179 179 179
179 179 179
179 179 179
179 179 179
179 179 179
179 179 179
179 179 179
179 179 179
179 179 179
179 179 179
179 179 179
179 179 179
179 179 179
179 179 179
179 179 179
179 179 179
179 179 179
179 179 179
179 179 179
179 179 179
179 179 179
179 179 179
179 179 179
179 179 179
179 179 179
179 179 179
179 179 179
179 179 179
179 179 179
179 179 179
179 179 179
179 179 179
179 179 179
179 179 179
179 179 179
179 179 179
179 179 179
179 179 179
179 179 179
179 179 179
179 179 179
179 179 179
179 179 179
179 179 179
179 179 179
179 179 179
179 179 179
179 179 179
179 179 179
179 179 179
179 179 179
179 179 179
179 179 179
179 179 179
179 179 179
179 179 179
179 179 179
179 179 179
179 179 179
179 179 179
179 179 179
179 179 179
179 179 179
179 179 179
179 179 179
179 179 179
179 179 179
179 179 179
179 179 179
179 179 179
179 179 179
179 179 179
179 179 179
179 179 179
179 179 179
179 179 179
179 179 179
0 0 0
0 0 0
0 0 0
0 0 0
0 0 0
0 0 0
0 0 0
0 0 0
0 0 0
0 0 0
0 0 0
0 0 0
0 0 0
0 0 0
0 0 0
0 0 0
0 0 0
0 0 0
0 0 0
0 0 0
0 0 0
0 0 0
0 0 0
0 0 0
0 0 0
0 0 0
0 0 0
0 0 0
0 0 0
0 0 0
0 0 0
0 0 0
0 0 0
0 0 0
0 0 0
0 0 0
0 0 0
0 0 0
0 0 0
0 0 0
0 0 0
0 0 0
0 0 0
0 0 0
0 0 0
0 0 0
0 0 0
0 0 0
0 0 0
0 0 0
0 0 0
0 0 0
0 0 0
0 0 0
0 0 0
0 0 0
0 0 0
0 0 0
0 0 0
0 0 0
0 0 0
0 0 0
0 0 0
0 0 0
0 0 0
0 0 0
0 0 0
0 0 0
0 0 0
0 0 0
0 0 0
0 0 0
0 0 0
0 0 0
0 0 0
0 0 0
0 0 0
0 0 0
0 0 0
0 0 0
0 0 0
0 0 0
0 0 0
0 0 0
0 0 0
0 0 0
0 0 0
0 0 0
0 0 0
0 0 0
0 0 0
0 0 0
0 0 0
0 0 0
0 0 0
0 0 0
0 0 0
0 0 0
0 0 0
0 0 0
0 0 0
0 0 0
0 0 0
0 0 0
0 0 0
0 0 0
0 0 0
0 0 0
0 0 0
0 0 0
0 0 0
0 0 0
0 0 0
0 0 0
0 0 0
0 0 0
0 0 0
0 0 0
0 0 0
0 0 0
0 0 0
0 0 0
0 0 0
0 0 0
0 0 0
0 0 0
0 0 0
0 0 0
0 0 0
0 0 0
0 0 0
0 0 0
0 0 0
0 0 0
0 0 0
0 0 0
0 0 0
0 0 0
0 0 0
0 0 0
0 0 0
0 0 0
0 0 0
0 0 0
0 0 0
0 0 0
0 0 0
0 0 0
179 179 179
179 179 179
179 179 179
179 179 179
179 179 179
179 179 179
179 179 179
179 179 179
179 179 179
179 179 179
179 179 179
179 179 179
179 179 179
179 179 179
179 179 179
179 179 179
179 179 179
179 179 179
179 179 179
179 179 179
179 179 179
179 179 179
179 179 179
179 179 179
179 179 179
179 179 179
179 179 179
179 179 179
179 179 179
179 179 179
179 179 179
179 179 179
179 179 179
179 179 179
179 179 179
179 179 179
179 179 179
179 179 179
179 179 179
179 179 179
179 179 179
179 179 179
179 179 179
179 179 179
179 179 179
179 179 179
179 179 179
179 179 179
179 179 179
179 179 179
179 179 179
179 179 179
179 179 179
179 179 179
179 179 179
179 179 179
179 179 179
179 179 179
179 179 179
179 179 179
179 179 179
179 179 179
179 179 179
179 179 179
179 179 179
179 179 179
179 179 179
179 179 179
179 179 179
179 179 179
179 179 179
179 179 179
179 179 179
179 179 179
179 179 179
179 179 179
179 179 179
179 179 179
179 179 179
179 179 179
179 179 179
179 179 179
179 179 179
179 179 179
179 179 179
179 179 179
179 179 179
179 179 179
179 179 179
179 179 179
179 179 179
179 179 179
179 179 179
179 179 179
24 60 162
31 57 172
37 54 179
42 51 185
48 48 189
53 45 192
59 43 194
64 40 196
69 38 197
74 35 198
79 33 198
84 30 198
88 28 198
93 26 197
98 24 196
103 21 195
107 19 193
112 17 191
147 236 192
121 13 185
125 11 181
130 9 177
134 7 171
138 6 165
142 4 157
146 2 145
179 179 179
179 179 179
179 179 179
179 179 179
179 179 179
179 179 179
179 179 179
179 179 179
179 179 179
179 179 179
179 179 179
179 179 179
179 179 179
179 179 179
179 179 179
179 179 179
179 179 179
179 179 179
179 179 179
179 179 179
179 179 179
179 179 179
179 179 179
179 179 179
179 179 179
179 179 179
179 179 179
179 179 179
179 179 179
179 179 179
179 179 179
179 179 179
179 179 179
179 179 179
179 179 179
179 179 179
179 179 179
179 179 179
179 179 179
179 179 179
179 179 179
179 179 179
179 179 179
179 179 179
179 179 179
179 179 179
179 179 179
179 179 179
179 179 179
179 179 179
179 179 179
179 179 179
179 179 179
179 179 179
179 179 179
179 179 179
179 179 179
179 179 179
179 179 179
179 179 179
179 179 179
179 179 179
179 179 179
179 179 179
179 179 179
179 179 179
179 179 179
179 179 179
179 179 179
179 179 179
179 179 179
179 179 179
179 179 179
179 179 179
179 179 179
179 179 179
179 179 179
179 179 179
179 179 179
179 179 179
179 179 179
179 179 179
179 179 179
179 179 179
179 179 179
179 179 179
179 179 179
179 179 179
179 179 179
179 179 179
179 179 179
179 179 179
179 179 179
179 179 179
179 179 179
179 179 179
179 179 179
179 179 179
179 179 179
179 179 179
179 179 179
179 179 179
179 179 179
179 179 179
179 179 179
179 179 179
179 179 179
179 179 179
179 179 179
179 179 179
179 179 179
179 179 179
179 179 179
179 179 179
179 179 179
179 179 179
179 179 179
179 179 179
179 179 179
179 179 179
179 179 179
179 179 179
179 179 179
179 179 179
179 179 179
179 179 179
179 179 179
179 179 179
179 179 179
179 179 179
179 179 179
179 179 179
179 179 179
0 0 0
0 0 0
0 0 0
0 0 0
0 0 0
0 0 0
0 0 0
0 0 0
0 0 0
0 0 0
0 0 0
0 0 0
0 0 0
0 0 0
0 0 0
0 0 0
0 0 0
0 0 0
0 0 0
0 0 0
0 0 0
0 0 0
0 0 0
0 0 0
0 0 0
0 0 0
0 0 0
0 0 0
0 0 0
0 0 0
0 0 0
0 0 0
0 0 0
0 0 0
0 0 0
0 0 0
0 0 0
0 0 0
0 0 0
0 0 0
0 0 0
0 0 0
0 0 0
0 0 0
0 0 0
0 0 0
0 0 0
0 0 0
0 0 0
0 0 0
0 0 0
0 0 0
0 0 0
0 0 0
0 0 0
0 0 0
0 0 0
0 0 0
0 0 0
0 0 0
0 0 0
0 0 0
0 0 0
0 0 0
0 0 0
0 0 0
0 0 0
0 0 0
0 0 0
0 0 0
0 0 0
0 0 0
0 0 0
0 0 0
0 0 0
0 0 0
0 0 0
0 0 0
0 0 0
0 0 0
0 0 0
0 0 0
0 0 0
0 0 0
0 0 0
0 0 0
0 0 0
0 0 0
0 0 0
0 0 0
0 0 0
0 0 0
0 0 0
0 0 0
0 0 0
0 0 0
0 0 0
0 0 0
0 0 0
0 0 0
0 0 0
0 0 0
0 0 0
0 0 0
0 0 0
0 0 0
0 0 0
0 0 0
0 0 0
0 0 0
0 0 0
0 0 0
0 0 0
0 0 0
0 0 0
0 0 0
0 0 0
0 0 0
0 0 0
0 0 0
0 0 0
0 0 0
0 0 0
0 0 0
0 0 0
0 0 0
0 0 0
0 0 0
0 0 0
0 0 0
0 0 0
0 0 0
0 0 0
0 0 0
0 0 0
0 0 0
0 0 0
0 0 0
0 0 0
0 0 0
0 0 0
0 0 0
0 0 0
0 0 0
0 0 0
0 0 0
179 179 179
179 179 179
179 179 179
179 179 179
179 179 179
179 179 179
179 179 179
179 179 179
179 179 179
179 179 179
179 179 179
179 179 179
179 179 179
179 179 179
179 179 179
179 179 179
179 179 179
179 179 179
179 179 179
179 179 179
179 179 179
179 179 179
179 179 179
179 179 179
179 179 179
179 179 179
179 179 179
179 179 179
179 179 179
179 179 179
179 179 179
179 179 179
179 179 179
179 179 179
179 179 179
179 179 179
179 179 179
179 179 179
179 179 179
179 179 179
179 179 179
179 179 179
179 179 179
179 179 179
179 179 179
179 179 179
179 179 179
179 179 179
179 179 179
179 179 179
179 179 179
179 179 179
179 179 179
179 179 179
179 179 179
179 179 179
179 179 179
179 179 179
179 179 179
179 179 179
179 179 179
179 179 179
179 179 179
179 179 179
179 179 179
179 179 179
179 179 179
179 179 179
179 179 179
179 179 179
179 179 179
179 179 179
179 179 179
179 179 179
179 179 179
179 179 179
179 179 179
179 179 179
179 179 179
179 179 179
179 179 179
179 179 179
179 179 179
179 179 179
179 179 179
179 179 179
179 179 179
179 179 179
179 179 179
179 179 179
179 179 179
179 179 179
179 179 179
179 179 179
21 63 158
28 60 171
34 56 178
40 53 184
45 50 188
51 48 192
56 45 194
61 42 196
66 40 198
71 37 199
76 35 199
81 32 199
86 30 199
91 28 199
95 25 198
100 23 196
105 21 195
109 19 193
114 17 190
118 15 187
123 13 184
127 11 180
131 9 175
136 7 170
140 5 163
144 3 154
148 2 139
179 179 179
179 179 179
179 179 179
179 179 179
179 179 179
179 179 179
179 179 179
179 179 179
179 179 179
179 179 179
179 179 179
179 179 179
179 179 179
179 179 179
179 179 179
179 179 179
179 179 179
179 179 179
179 179 179
179 179 179
179 179 179
179 179 179
179 179 179
179 179 179
179 179 179
179 179 179
179 179 179
179 179 179
179 179 179
179 179 179
179 179 179
179 179 179
179 179 179
179 179 179
179 179 179
179 179 179
179 179 179
179 179 179
179 179 179
179 179 179
179 179 179
179 179 179
179 179 179
179 179 179
179 179 179
179 179 179
179 179 179
179 179 179
179 179 179
179 179 179
179 179 179
179 179 179
179 179 179
179 179 179
179 179 179
179 179 179
179 179 179
179 179 179
179 179 179
179 179 179
179 179 179
179 179 179
179 179 179
179 179 179
179 179 179
179 179 179
179 179 179
179 179 179
179 179 179
179 179 179
179 179 179
179 179 179
179 179 179
179 179 179
179 179 179
179 179 179
179 179 179
179 179 179
179 179 179
179 179 179
179 179 179
179 179 179
179 179 179
179 179 179
179 179 179
179 179 179
179 179 179
179 179 179
179 179 179
179 179 179
179 179 179
179 179 179
179 179 179
179 179 179
179 179 179
179 179 179
179 179 179
179 179 179
179 179 179
179 179 179
179 179 179
179 179 179
179 179 179
179 179 179
179 179 179
179 179 179
179 179 179
179 179 179
179 179 179
179 179 179
179 179 179
179 179 179
179 179 179
179 179 179
179 179 179
179 179 179
179 179 179
179 179 179
179 179 179
179 179 179
179 179 179
179 179 179
179 179 179
179 179 179
179 179 179
179 179 179
179 179 179
179 179 179
179 179 179
179 179 179
179 179 179
179 179 179
179 179 179
179 179 179
0 0 0
0 0 0
0 0 0
0 0 0
0 0 0
0 0 0
0 0 0
0 0 0
0 0 0
0 0 0
0 0 0
0 0 0
0 0 0
0 0 0
0 0 0
0 0 0
0 0 0
0 0 0
0 0 0
0 0 0
0 0 0
0 0 0
0 0 0
0 0 0
0 0 0
0 0 0
0 0 0
0 0 0
0 0 0
0 0 0
0 0 0
0 0 0
0 0 0
0 0 0
0 0 0
0 0 0
0 0 0
0 0 0
0 0 0
0 0 0
0 0 0
0 0 0
0 0 0
0 0 0
0 0 0
0 0 0
0 0 0
0 0 0
0 0 0
0 0 0
0 0 0
0 0 0
0 0 0
0 0 0
0 0 0
0 0 0
0 0 0
0 0 0
0 0 0
0 0 0
0 0 0
0 0 0
0 0 0
0 0 0
0 0 0
0 0 0
0 0 0
0 0 0
0 0 0
0 0 0
0 0 0
0 0 0
0 0 0
0 0 0
0 0 0
0 0 0
0 0 0
0 0 0
0 0 0
0 0 0
0 0 0
0 0 0
0 0 0
0 0 0
0 0 0
0 0 0
0 0 0
0 0 0
0 0 0
0 0 0
0 0 0
0 0 0
0 0 0
0 0 0
0 0 0
0 0 0
0 0 0
0 0 0
0 0 0
0 0 0
0 0 0
0 0 0
0 0 0
0 0 0
0 0 0
0 0 0
0 0 0
0 0 0
0 0 0
0 0 0
0 0 0
0 0 0
0 0 0
0 0 0
0 0 0
0 0 0
0 0 0
0 0 0
0 0 0
0 0 0
0 0 0
0 0 0
0 0 0
0 0 0
0 0 0
0 0 0
0 0 0
0 0 0
0 0 0
0 0 0
0 0 0
0 0 0
0 0 0
0 0 0
0 0 0
0 0 0
0 0 0
0 0 0
0 0 0
0 0 0
0 0 0
0 0 0
0 0 0
0 0 0
179 179 179
179 179 179
179 179 179
179 179 179
179 179 179
179 179 179
179 179 179
179 179 179
179 179 179
179 179 179
179 179 179
179 179 179
179 179 179
179 179 179
179 179 179
179 179 179
179 179 179
179 179 179
179 179 179
179 179 179
179 179 179
179 179 179
179 179 179
179 179 179
179 179 179
179 179 179
179 179 179
179 179 179
179 179 179
179 179 179
179 179 179
179 179 179
179 179 179
179 179 179
179 179 179
179 179 179
179 179 179
179 179 179
179 179 179
179 179 179
179 179 179
179 179 179
179 179 179
179 179 179
179 179 179
179 179 179
179 179 179
179 179 179
179 179 179
179 179 179
179 179 179
179 179 179
179 179 179
179 179 179
179 179 179
179 179 179
179 179 179
179 179 179
179 179 179
179 179 179
179 179 179
179 179 179
179 179 179
179 179 179
179 179 179
179 179 179
179 179 179
179 179 179
179 179 179
179 179 179
179 179 179
179 179 179
179 179 179
179 179 179
179 179 179
179 179 179
179 179 179
179 179 179
179 179 179
179 179 179
179 179 179
179 179 179
179 179 179
179 179 179
179 179 179
179 179 179
179 179 179
179 179 179
179 179 179
179 179 179
179 179 179
179 179 179
179 179 179
179 179 179
18 66 154
25 62 169
32 59 177
37 56 183
43 53 188
48 50 191
54 47 194
59 44 196
64 42 198
69 39 199
74 37 200
79 34 200
84 32 200
88 29 200
93 27 199
98 25 198
102 23 196
107 20 195
111 18 192
116 16 190
120 14 187
125 12 183
129 10 179
133 8 174
138 6 168
142 5 160
146 3 150
179 179 179
179 179 179
179 179 179
179 179 179
179 179 179
179 179 179
179 179 179
179 179 179
179 179 179
179 179 179
179 179 179
179 179 179
179 179 179
179 179 179
179 179 179
179 179 179
179 179 179
179 179 179
179 179 179
179 179 179
179 179 179
179 179 179
179 179 179
179 179 179
179 179 179
179 179 179
179 179 179
179 179 179
179 179 179
179 179 179
179 179 179
179 179 179
179 179 179
179 179 179
179 179 179
179 179 179
179 179 179
179 179 179
179 179 179
179 179 179
179 179 179
179 179 179
179 179 179
179 179 179
179 179 179
179 179 179
179 179 179
179 179 179
179 179 179
179 179 179
179 179 179
179 179 179
179 179 179
179 179 179
179 179 179
179 179 179
179 179 179
179 179 179
179 179 179
179 179 179
179 179 179
179 179 179
179 179 179
179 179 179
179 179 179
179 179 179
179 179 179
179 179 179
179 179 179
179 179 179
179 179 179
179 179 179
179 179 179
179 179 179
179 179 179
179 179 179
179 179 179
179 179 179
179 179 179
179 179 179
179 179 179
179 179 179
179 179 179
179 179 179
179 179 179
179 179 179
179 179 179
179 179 179
179 179 179
179 179 179
179 179 179
179 179 179
179 179 179
179 179 179
179 179 179
179 179 179
179 179 179
179 179 179
179 179 179
179 179 179
179 179 179
179 179 179
179 179 179
179 179 179
179 179 179
179 179 179
179 179 179
179 179 179
179 179 179
179 179 179
179 179 179
179 179 179
179 179 179
179 179 179
179 179 179
179 179 179
179 179 179
179 179 179
179 179 179
179 179 179
179 179 179
179 179 179
179 179 179
179 179 179
179 179 179
179 179 179
179 179 179
179 179 179
179 179 179
179 179 179
179 179 179
179 179 179
179 179 179
179 179 179
179 179 179
179 179 179
0 0 0
0 0 0
0 0 0
0 0 0
0 0 0
0 0 0
0 0 0
0 0 0
0 0 0
0 0 0
0 0 0
0 0 0
0 0 0
0 0 0
0 0 0
0 0 0
0 0 0
0 0 0
0 0 0
0 0 0
0 0 0
0 0 0
0 0 0
0 0 0
0 0 0
0 0 0
0 0 0
0 0 0
0 0 0
0 0 0
0 0 0
0 0 0
0 0 0
0 0 0
0 0 0
0 0 0
0 0 0
0 0 0
0 0 0
0 0 0
0 0 0
0 0 0
0 0 0
0 0 0
0 0 0
0 0 0
0 0 0
0 0 0
0 0 0
0 0 0
0 0 0
0 0 0
0 0 0
0 0 0
0 0 0
0 0 0
0 0 0
0 0 0
0 0 0
0 0 0
0 0 0
0 0 0
0 0 0
0 0 0
0 0 0
0 0 0
0 0 0
0 0 0
0 0 0
0 0 0
0 0 0
0 0 0
0 0 0
0 0 0
0 0 0
0 0 0
0 0 0
0 0 0
0 0 0
0 0 0
0 0 0
0 0 0
0 0 0
0 0 0
0 0 0
0 0 0
0 0 0
0 0 0
0 0 0
0 0 0
0 0 0
0 0 0
0 0 0
0 0 0
0 0 0
0 0 0
0 0 0
0 0 0
0 0 0
0 0 0
0 0 0
0 0 0
0 0 0
0 0 0
0 0 0
0 0 0
0 0 0
0 0 0
0 0 0
0 0 0
0 0 0
0 0 0
0 0 0
0 0 0
0 0 0
0 0 0
0 0 0
0 0 0
0 0 0
0 0 0
0 0 0
0 0 0
0 0 0
0 0 0
0 0 0
0 0 0
0 0 0
0 0 0
0 0 0
0 0 0
0 0 0
0 0 0
0 0 0
0 0 0
0 0 0
0 0 0
0 0 0
0 0 0
0 0 0
0 0 0
0 0 0
0 0 0
179 179 179
179 179 179
179 179 179
179 179 179
179 179 179
179 179 179
179 179 179
179 179 179
179 179 179
179 179 179
179 179 179
179 179 179
179 179 179
179 179 179
179 179 179
179 179 179
179 179 179
179 179 179
179 179 179
179 179 179
179 179 179
179 179 179
179 179 179
179 179 179
179 179 179
179 179 179
179 179 179
179 179 179
179 179 179
179 179 179
179 179 179
179 179 179
179 179 179
179 179 179
179 179 179
179 179 179
179 179 179
179 179 179
179 179 179
179 179 179
179 179 179
179 179 179
179 179 179
179 179 179
179 179 179
179 179 179
179 179 179
179 179 179
179 179 179
179 179 179
179 179 179
179 179 179
179 179 179
179 179 179
179 179 179
179 179 179
179 179 179
179 179 179
179 179 179
179 179 179
179 179 179
179 179 179
179 179 179
179 179 179
179 179 179
179 179 179
179 179 179
179 179 179
179 179 179
179 179 179
179 179 179
179 179 179
179 179 179
179 179 179
179 179 179
179 179 179
179 179 179
179 179 179
179 179 179
179 179 179
179 179 179
179 179 179
179 179 179
179 179 179
179 179 179
179 179 179
179 179 179
179 179 179
179 179 179
179 179 179
179 179 179
179 179 179
179 179 179
179 179 179
15 69 146
23 65 166
29 61 176
35 58 182
41 55 187
46 52 191
51 49 194
57 46 197
62 44 198
67 41 200
72 39 201
77 36 201
81 34 201
86 31 201
91 29 200
95 27 199
100 24 198
105 22 196
109 20 194
114 18 192
118 16 189
122 14 186
127 12 182
130 243 183
135 8 172
140 6 165
144 4 157
148 2 145
179 179 179
179 179 179
179 179 179
179 179 179
179 179 179
179 179 179
179 179 179
179 179 179
179 179 179
179 179 179
179 179 179
179 179 179
179 179 179
179 179 179
179 179 179
179 179 179
179 179 179
179 179 179
179 179 179
179 179 179
179 179 179
179 179 179
179 179 179
179 179 179
179 179 179
179 179 179
179 179 179
179 179 179
179 179 179
179 179 179
179 179 179
179 179 179
179 179 179
179 179 179
179 179 179
179 179 179
179 179 179
179 179 179
179 179 179
179 179 179
179 179 179
179 179 179
179 179 179
179 179 179
179 179 179
179 179 179
179 179 179
179 179 179
179 179 179
179 179 179
179 179 179
179 179 179
179 179 179
179 179 179
179 179 179
179 179 179
179 179 179
179 179 179
179 179 179
179 179 179
179 179 179
179 179 179
179 179 179
179 179 179
179 179 179
179 179 179
179 179 179
179 179 179
179 179 179
179 179 179
179 179 179
179 179 179
179 179 179
179 179 179
179 179 179
179 179 179
179 179 179
179 179 179
179 179 179
179 179 179
179 179 179
179 179 179
179 179 179
179 179 179
179 179 179
179 179 179
179 179 179
179 179 179
179 179 179
179 179 179
179 179 179
179 179 179
179 179 179
179 179 179
179 179 179
179 179 179
179 179 179
179 179 179
179 179 179
179 179 179
179 179 179
179 179 179
179 179 179
179 179 179
179 179 179
179 179 179
179 179 179
179 179 179
179 179 179
179 179 179
179 179 179
179 179 179
179 179 179
179 179 179
179 179 179
179 179 179
179 179 179
179 179 179
179 179 179
179 179 179
179 179 179
179 179 179
179 179 179
179 179 179
179 179 179
179 179 179
179 179 179
179 179 179
179 179 179
179 179 179
179 179 179
179 179 179
179 179 179
179 179 179
179 179 179
179 179 179
179 179 179
179 179 179
0 0 0
0 0 0
0 0 0
0 0 0
0 0 0
0 0 0
0 0 0
0 0 0
0 0 0
0 0 0
0 0 0
0 0 0
0 0 0
0 0 0
0 0 0
0 0 0
0 0 0
0 0 0
0 0 0
0 0 0
0 0 0
0 0 0
0 0 0
0 0 0
0 0 0
0 0 0
0 0 0
0 0 0
0 0 0
0 0 0
0 0 0
0 0 0
0 0 0
0 0 0
0 0 0
0 0 0
0 0 0
0 0 0
0 0 0
0 0 0
0 0 0
0 0 0
0 0 0
0 0 0
0 0 0
0 0 0
0 0 0
0 0 0
0 0 0
0 0 0
0 0 0
0 0 0
0 0 0
0 0 0
0 0 0
0 0 0
0 0 0
0 0 0
0 0 0
0 0 0
0 0 0
0 0 0
0 0 0
0 0 0
0 0 0
0 0 0
0 0 0
0 0 0
0 0 0
0 0 0
0 0 0
0 0 0
0 0 0
0 0 0
0 0 0
0 0 0
0 0 0
0 0 0
0 0 0
0 0 0
0 0 0
0 0 0
0 0 0
0 0 0
0 0 0
0 0 0
0 0 0
0 0 0
0 0 0
0 0 0
0 0 0
0 0 0
0 0 0
0 0 0
0 0 0
0 0 0
0 0 0
0 0 0
0 0 0
0 0 0
0 0 0
0 0 0
0 0 0
0 0 0
0 0 0
0 0 0
0 0 0
0 0 0
0 0 0
0 0 0
0 0 0
0 0 0
0 0 0
0 0 0
0 0 0
0 0 0
0 0 0
0 0 0
0 0 0
0 0 0
0 0 0
0 0 0
0 0 0
0 0 0
0 0 0
0 0 0
0 0 0
0 0 0
0 0 0
0 0 0
0 0 0
0 0 0
0 0 0
0 0 0
0 0 0
0 0 0
0 0 0
0 0 0
179 179 179
179 179 179
179 179 179
179 179 179
179 179 179
179 179 179
179 179 179
179 179 179
179 179 179
179 179 179
179 179 179
179 179 179
179 179 179
179 179 179
179 179 179
179 179 179
179 179 179
179 179 179
179 179 179
179 179 179
179 179 179
179 179 179
179 179 179
179 179 179
179 179 179
179 179 179
179 179 179
179 179 179
179 179 179
179 179 179
179 179 179
179 179 179
179 179 179
179 179 179
179 179 179
179 179 179
179 179 179
179 179 179
179 179 179
179 179 179
179 179 179
179 179 179
179 179 179
179 179 179
179 179 179
179 179 179
179 179 179
179 179 179
179 179 179
179 179 179
179 179 179
179 179 179
179 179 179
179 179 179
179 179 179
179 179 179
179 179 179
179 179 179
179 179 179
179 179 179
179 179 179
179 179 179
179 179 179
179 179 179
179 179 179
179 179 179
179 179 179
179 179 179
179 179 179
179 179 179
179 179 179
179 179 179
179 179 179
179 179 179
179 179 179
179 179 179
179 179 179
179 179 179
179 179 179
179 179 179
179 179 179
179 179 179
179 179 179
179 179 179
179 179 179
179 179 179
179 179 179
179 179 179
179 179 179
179 179 179
179 179 179
179 179 179
179 179 179
179 179 179
179 179 179
179 179 179
20 68 164
27 64 174
33 61 181
38 57 187
44 54 191
49 51 194
54 49 197
59 46 199
64 43 200
69 41 201
74 38 202
79 35 202
84 33 202
89 31 202
93 28 201
98 26 200
102 24 198
107 22 196
111 19 194
116 17 191
120 15 188
124 13 185
129 11 181
133 9 176
137 7 170
141 5 163
146 3 154
149 2 138
179 179 179
179 179 179
179 179 179
179 179 179
179 179 179
179 179 179
179 179 179
179 179 179
179 179 179
179 179 179
179 179 179
179 179 179
179 179 179
179 179 179
179 179 179
179 179 179
179 179 179
179 179 179
179 179 179
179 179 179
179 179 179
179 179 179
179 179 179
179 179 179
179 179 179
179 179 179
179 179 179
179 179 179
179 179 179
179 179 179
179 179 179
179 179 179
179 179 179
179 179 179
179 179 179
179 179 179
179 179 179
179 179 179
179 179 179
179 179 179
179 179 179
179 179 179
179 179 179
179 179 179
179 179 179
179 179 179
179 179 179
179 179 179
179 179 179
179 179 179
179 179 179
179 179 179
179 179 179
179 179 179
179 179 179
179 179 179
179 179 179
179 179 179
179 179 179
179 179 179
179 179 179
179 179 179
179 179 179
179 179 179
179 179 179
179 179 179
179 179 179
179 179 179
179 179 179
179 179 179
179 179 179
179 179 179
179 179 179
179 179 179
179 179 179
179 179 179
179 179 179
179 179 179
179 179 179
179 179 179
179 179 179
179 179 179
179 179 179
179 179 179
179 179 179
179 179 179
179 179 179
179 179 179
179 179 179
179 179 179
179 179 179
179 179 179
179 179 179
179 179 179
179 179 179
179 179 179
179 179 179
179 179 179
179 179 179
179 179 179
179 179 179
179 179 179
179 179 179
179 179 179
179 179 179
179 179 179
179 179 179
179 179 179
179 179 179
179 179 179
179 179 179
179 179 179
179 179 179
179 179 179
179 179 179
179 179 179
179 179 179
179 179 179
179 179 179
179 179 179
179 179 179
179 179 179
179 179 179
179 179 179
179 179 179
179 179 179
179 179 179
179 179 179
179 179 179
179 179 179
179 179 179
179 179 179
179 179 179
179 179 179
179 179 179
179 179 179
179 179 179
179 179 179
179 179 179
0 0 0
0 0 0
0 0 0
0 0 0
0 0 0
0 0 0
0 0 0
0 0 0
0 0 0
0 0 0
0 0 0
0 0 0
0 0 0
0 0 0
0 0 0
0 0 0
0 0 0
0 0 0
0 0 0
0 0 0
0 0 0
0 0 0
0 0 0
0 0 0
0 0 0
0 0 0
0 0 0
0 0 0
0 0 0
0 0 0
0 0 0
0 0 0
0 0 0
0 0 0
0 0 0
0 0 0
0 0 0
0 0 0
0 0 0
0 0 0
0 0 0
0 0 0
0 0 0
0 0 0
0 0 0
0 0 0
0 0 0
0 0 0
0 0 0
0 0 0
0 0 0
0 0 0
0 0 0
0 0 0
0 0 0
0 0 0
0 0 0
0 0 0
0 0 0
0 0 0
0 0 0
0 0 0
0 0 0
0 0 0
0 0 0
0 0 0
0 0 0
0 0 0
0 0 0
0 0 0
0 0 0
0 0 0
0 0 0
0 0 0
0 0 0
0 0 0
0 0 0
0 0 0
0 0 0
0 0 0
0 0 0
0 0 0
0 0 0
0 0 0
0 0 0
0 0 0
0 0 0
0 0 0
0 0 0
0 0 0
0 0 0
0 0 0
0 0 0
0 0 0
0 0 0
0 0 0
0 0 0
0 0 0
0 0 0
0 0 0
0 0 0
0 0 0
0 0 0
0 0 0
0 0 0
0 0 0
0 0 0
0 0 0
0 0 0
0 0 0
0 0 0
0 0 0
0 0 0
0 0 0
0 0 0
0 0 0
0 0 0
0 0 0
0 0 0
0 0 0
0 0 0
0 0 0
0 0 0
0 0 0
0 0 0
0 0 0
0 0 0
0 0 0
0 0 0
0 0 0
0 0 0
0 0 0
0 0 0
0 0 0
0 0 0
0 0 0
179 179 179
179 179 179
179 179 179
179 179 179
179 179 179
179 179 179
179 179 179
179 179 179
179 179 179
179 179 179
179 179 179
179 179 179
179 179 179
179 179 179
179 179 179
179 179 179
179 179 179
179 179 179
179 179 179
179 179 179
179 179 179
179 179 179
179 179 179
179 179 179
179 179 179
179 179 179
179 179 179
179 179 179
179 179 179
179 179 179
179 179 179
179 179 179
179 179 179
179 179 179
179 179 179
179 179 179
179 179 179
179 179 179
179 179 179
179 179 179
179 179 179
179 179 179
179 179 179
179 179 179
179 179 179
179 179 179
179 179 179
179 179 179
179 179 179
179 179 179
179 179 179
179 179 179
179 179 179
179 179 179
179 179 179
179 179 179
179 179 179
179 179 179
179 179 179
179 179 179
179 179 179
179 179 179
179 179 179
179 179 179
179 179 179
179 179 179
179 179 179
179 179 179
179 179 179
179 179 179
179 179 179
179 179 179
179 179 179
179 179 179
179 179 179
179 179 179
179 179 179
179 179 179
179 179 179
179 179 179
179 179 179
179 179 179
179 179 179
179 179 179
179 179 179
179 179 179
179 179 179
179 179 179
179 179 179
179 179 179
179 179 179
179 179 179
179 179 179
179 179 179
179 179 179
179 179 179
18 70 160
24 66 173
30 63 180
36 60 186
42 57 191
47 54 194
52 51 197
57 48 199
62 45 201
67 43 202
72 40 203
77 37 203
82 35 203
86 32 203
91 30 202
96 28 201
100 25 200
105 23 198
109 21 196
114 19 194
118 17 191
122 15 187
127 12 184
131 10 179
135 9 174
139 7 168
143 5 160
147 3 149
179 179 179
179 179 179
179 179 179
179 179 179
179 179 179
179 179 179
179 179 179
179 179 179
179 179 179
179 179 179
179 179 179
179 179 179
179 179 179
179 179 179
179 179 179
179 179 179
179 179 179
179 179 179
179 179 179
179 179 179
179 179 179
179 179 179
179 179 179
179 179 179
179 179 179
179 179 179
179 179 179
179 179 179
179 179 179
179 179 179
179 179 179
179 179 179
179 179 179
179 179 179
179 179 179
179 179 179
179 179 179
179 179 179
179 179 179
179 179 179
179 179 179
179 179 179
179 179 179
179 179 179
179 179 179
179 179 179
179 179 179
179 179 179
179 179 179
179 179 179
179 179 179
179 179 179
179 179 179
179 179 179
179 179 179
179 179 179
179 179 179
179 179 179
179 179 179
179 179 179
179 179 179
179 179 179
179 179 179
179 179 179
179 179 179
179 179 179
179 179 179
179 179 179
179 179 179
179 179 179
179 179 179
179 179 179
179 179 179
179 179 179
179 179 179
179 179 179
179 179 179
179 179 179
179 179 179
179 179 179
179 179 179
179 179 179
179 179 179
179 179 179
179 179 179
179 179 179
179 179 179
179 179 179
179 179 179
179 179 179
179 179 179
179 179 179
179 179 179
179 179 179
179 179 179
179 179 179
179 179 179
179 179 179
179 179 179
179 179 179
179 179 179
179 179 179
179 179 179
179 179 179
179 179 179
179 179 179
179 179 179
179 179 179
179 179 179
179 179 179
179 179 179
179 179 179
179 179 179
179 179 179
179 179 179
179 179 179
179 179 179
179 179 179
179 179 179
179 179 179
179 179 179
179 179 179
179 179 179
179 179 179
179 179 179
179 179 179
179 179 179
179 179 179
179 179 179
179 179 179
179 179 179
179 179 179
179 179 179
179 179 179
179 179 179
179 179 179
179 179 179
179 179 179
179 179 179
179 179 179
179 179 179
0 0 0
0 0 0
0 0 0
0 0 0
0 0 0
0 0 0
0 0 0
0 0 0
0 0 0
0 0 0
0 0 0
0 0 0
0 0 0
0 0 0
0 0 0
0 0 0
0 0 0
0 0 0
0 0 0
0 0 0
0 0 0
0 0 0
0 0 0
0 0 0
0 0 0
0 0 0
0 0 0
0 0 0
0 0 0
0 0 0
0 0 0
0 0 0
0 0 0
0 0 0
0 0 0
0 0 0
0 0 0
0 0 0
0 0 0
0 0 0
0 0 0
0 0 0
0 0 0
0 0 0
0 0 0
0 0 0
0 0 0
0 0 0
0 0 0
0 0 0
0 0 0
0 0 0
0 0 0
0 0 0
0 0 0
0 0 0
0 0 0
0 0 0
0 0 0
0 0 0
0 0 0
0 0 0
0 0 0
0 0 0
0 0 0
0 0 0
0 0 0
0 0 0
0 0 0
0 0 0
0 0 0
0 0 0
0 0 0
0 0 0
0 0 0
0 0 0
0 0 0
0 0 0
0 0 0
0 0 0
0 0 0
0 0 0
0 0 0
0 0 0
0 0 0
0 0 0
0 0 0
0 0 0
0 0 0
0 0 0
0 0 0
0 0 0
0 0 0
0 0 0
0 0 0
0 0 0
0 0 0
0 0 0
0 0 0
0 0 0
0 0 0
0 0 0
0 0 0
0 0 0
0 0 0
0 0 0
0 0 0
0 0 0
0 0 0
0 0 0
0 0 0
0 0 0
0 0 0
0 0 0
0 0 0
0 0 0
0 0 0
0 0 0
0 0 0
0 0 0
0 0 0
0 0 0
0 0 0
0 0 0
0 0 0
0 0 0
0 0 0
0 0 0
0 0 0
0 0 0
0 0 0
0 0 0
0 0 0
0 0 0
179 179 179
179 179 179
179 179 179
179 179 179
179 179 179
179 179 179
179 179 179
179 179 179
179 179 179
179 179 179
179 179 179
179 179 179
179 179 179
179 179 179
179 179 179
179 179 179
179 179 179
179 179 179
179 179 179
179 179 179
179 179 179
179 179 179
179 179 179
179 179 179
179 179 179
179 179 179
179 179 179
179 179 179
179 179 179
179 179 179
179 179 179
179 179 179
179 179 179
179 179 179
179 179 179
179 179 179
179 179 179
179 179 179
179 179 179
179 179 179
179 179 179
179 179 179
179 179 179
179 179 179
179 179 179
179 179 179
179 179 179
179 179 179
179 179 179
179 179 179
179 179 179
179 179 179
179 179 179
179 179 179
179 179 179
179 179 179
179 179 179
179 179 179
179 179 179
179 179 179
179 179 179
179 179 179
179 179 179
179 179 179
179 179 179
179 179 179
179 179 179
179 179 179
179 179 179
179 179 179
179 179 179
179 179 179
179 179 179
179 179 179
179 179 179
179 179 179
179 179 179
179 179 179
179 179 179
179 179 179
179 179 179
179 179 179
179 179 179
179 179 179
179 179 179
179 179 179
179 179 179
179 179 179
179 179 179
179 179 179
179 179 179
179 179 179
179 179 179
179 179 179
179 179 179
179 179 179
15 73 156
22 69 171
28 66 179
34 62 186
40 59 190
45 56 194
50 53 197
55 50 199
60 47 201
65 45 202
70 42 203
75 39 204
80 37 204
84 34 204
89 32 203
93 29 202
98 27 201
102 25 200
107 23 198
111 20 196
116 18 193
120 16 190
124 14 186
129 12 182
133 10 178
137 8 172
141 6 165
145 4 157
149 2 143
179 179 179
179 179 179
179 179 179
179 179 179
179 179 179
179 179 179
179 179 179
179 179 179
179 179 179
179 179 179
179 179 179
179 179 179
179 179 179
179 179 179
179 179 179
179 179 179
179 179 179
179 179 179
179 179 179
179 179 179
179 179 179
179 179 179
179 179 179
179 179 179
179 179 179
179 179 179
179 179 179
179 179 179
179 179 179
179 179 179
179 179 179
179 179 179
179 179 179
179 179 179
179 179 179
179 179 179
179 179 179
179 179 179
179 179 179
179 179 179
179 179 179
179 179 179
179 179 179
179 179 179
179 179 179
179 179 179
179 179 179
179 179 179
179 179 179
179 179 179
179 179 179
179 179 179
179 179 179
179 179 179
179 179 179
179 179 179
179 179 179
179 179 179
179 179 179
179 179 179
179 179 179
179 179 179
179 179 179
179 179 179
179 179 179
179 179 179
179 179 179
179 179 179
179 179 179
179 179 179
179 179 179
179 179 179
179 179 179
179 179 179
179 179 179
179 179 179
179 179 179
179 179 179
179 179 179
179 179 179
179 179 179
179 179 179
179 179 179
179 179 179
179 179 179
179 179 179
179 179 179
179 179 179
179 179 179
179 179 179
179 179 179
179 179 179
179 179 179
179 179 179
179 179 179
179 179 179
179 179 179
179 179 179
179 179 179
179 179 179
179 179 179
179 179 179
179 179 179
179 179 179
179 179 179
179 179 179
179 179 179
179 179 179
179 179 179
179 179 179
179 179 179
179 179 179
179 179 179
179 179 179
179 179 179
179 179 179
179 179 179
179 179 179
179 179 179
179 179 179
179 179 179
179 179 179
179 179 179
179 179 179
179 179 179
179 179 179
179 179 179
179 179 179
179 179 179
179 179 179
179 179 179
179 179 179
179 179 179
179 179 179
179 179 179
179 179 179
179 179 179
179 179 179
179 179 179
179 179 179
179 179 179
179 179 179
0 0 0
0 0 0
0 0 0
0 0 0
0 0 0
0 0 0
0 0 0
0 0 0
0 0 0
0 0 0
0 0 0
0 0 0
0 0 0
0 0 0
0 0 0
0 0 0
0 0 0
0 0 0
0 0 0
0 0 0
0 0 0
0 0 0
0 0 0
0 0 0
0 0 0
0 0 0
0 0 0
0 0 0
0 0 0
0 0 0
0 0 0
0 0 0
0 0 0
0 0 0
0 0 0
0 0 0
0 0 0
0 0 0
0 0 0
0 0 0
0 0 0
0 0 0
0 0 0
0 0 0
0 0 0
0 0 0
0 0 0
0 0 0
0 0 0
0 0 0
0 0 0
0 0 0
0 0 0
0 0 0
0 0 0
0 0 0
0 0 0
0 0 0
0 0 0
0 0 0
0 0 0
0 0 0
0 0 0
0 0 0
0 0 0
0 0 0
0 0 0
0 0 0
0 0 0
0 0 0
0 0 0
0 0 0
0 0 0
0 0 0
0 0 0
0 0 0
0 0 0
0 0 0
0 0 0
0 0 0
0 0 0
0 0 0
0 0 0
0 0 0
0 0 0
0 0 0
0 0 0
0 0 0
0 0 0
0 0 0
0 0 0
0 0 0
0 0 0
0 0 0
0 0 0
0 0 0
0 0 0
0 0 0
0 0 0
0 0 0
0 0 0
0 0 0
0 0 0
0 0 0
0 0 0
0 0 0
0 0 0
0 0 0
0 0 0
0 0 0
0 0 0
0 0 0
0 0 0
0 0 0
0 0 0
0 0 0
0 0 0
0 0 0
0 0 0
0 0 0
0 0 0
0 0 0
0 0 0
0 0 0
0 0 0
0 0 0
0 0 0
0 0 0
0 0 0
0 0 0
0 0 0
0 0 0
179 179 179
179 179 179
179 179 179
179 179 179
179 179 179
179 179 179
179 179 179
179 179 179
179 179 179
179 179 179
179 179 179
179 179 179
179 179 179
179 179 179
179 179 179
179 179 179
179 179 179
179 179 179
179 179 179
179 179 179
179 179 179
179 179 179
179 179 179
179 179 179
179 179 179
179 179 179
179 179 179
179 179 179
179 179 179
179 179 179
179 179 179
179 179 179
179 179 179
179 179 179
179 179 179
179 179 179
179 179 179
179 179 179
179 179 179
179 179 179
179 179 179
179 179 179
179 179 179
179 179 179
179 179 179
179 179 179
179 179 179
179 179 179
179 179 179
179 179 179
179 179 179
179 179 179
179 179 179
179 179 179
179 179 179
179 179 179
179 179 179
179 179 179
179 179 179
179 179 179
179 179 179
179 179 179
179 179 179
179 179 179
179 179 179
179 179 179
179 179 179
179 179 179
179 179 179
179 179 179
179 179 179
179 179 179
179 179 179
179 179 179
179 179 179
179 179 179
179 179 179
179 179 179
179 179 179
179 179 179
179 179 179
179 179 179
179 179 179
179 179 179
179 179 179
179 179 179
179 179 179
179 179 179
179 179 179
179 179 179
179 179 179
179 179 179
179 179 179
179 179 179
179 179 179
179 179 179
13 76 151
20 72 169
26 68 178
32 65 185
37 61 190
43 58 194
48 55 197
53 52 200
58 49 201
63 47 203
68 44 204
73 41 205
77 39 205
82 36 205
87 34 204
91 31 204
96 29 203
100 26 201
105 24 200
109 22 197
114 20 195
118 18 192
122 15 189
126 13 185
131 11 181
135 9 176
139 7 170
143 5 162
147 3 152
151 2 134
179 179 179
179 179 179
179 179 179
179 179 179
179 179 179
179 179 179
179 179 179
179 179 179
179 179 179
179 179 179
179 179 179
179 179 179
179 179 179
179 179 179
179 179 179
179 179 179
179 179 179
179 179 179
179 179 179
179 179 179
179 179 179
179 179 179
179 179 179
179 179 179
179 179 179
179 179 179
179 179 179
179 179 179
179 179 179
179 179 179
179 179 179
179 179 179
179 179 179
179 179 179
179 179 179
179 179 179
179 179 179
179 179 179
179 179 179
179 179 179
179 179 179
179 179 179
179 179 179
179 179 179
179 179 179
179 179 179
179 179 179
179 179 179
179 179 179
179 179 179
179 179 179
179 179 179
179 179 179
179 179 179
179 179 179
179 179 179
179 179 179
179 179 179
179 179 179
179 179 179
179 179 179
179 179 179
179 179 179
179 179 179
179 179 179
179 179 179
179 179 179
179 179 179
179 179 179
179 179 179
179 179 179
179 179 179
179 179 179
179 179 179
179 179 179
179 179 179
179 179 179
179 179 179
179 179 179
179 179 179
179 179 179
179 179 179
179 179 179
179 179 179
179 179 179
179 179 179
179 179 179
179 179 179
179 179 179
179 179 179
179 179 179
179 179 179
179 179 179
179 179 179
179 179 179
179 179 179
179 179 179
179 179 179
179 179 179
179 179 179
179 179 179
179 179 179
179 179 179
179 179 179
179 179 179
179 179 179
179 179 179
179 179 179
179 179 179
179 179 179
179 179 179
179 179 179
179 179 179
179 179 179
179 179 179
179 179 179
179 179 179
179 179 179
179 179 179
179 179 179
179 179 179
179 179 179
179 179 179
179 179 179
179 179 179
179 179 179
179 179 179
179 179 179
179 179 179
179 179 179
179 179 179
179 179 179
179 179 179
179 179 179
179 179 179
179 179 179
179 179 179
179 179 179
179 179 179
179 179 179
179 179 179
179 179 179
179 179 179
179 179 179
0 0 0
0 0 0
0 0 0
0 0 0
0 0 0
0 0 0
0 0 0
0 0 0
0 0 0
0 0 0
0 0 0
0 0 0
0 0 0
0 0 0
0 0 0
0 0 0
0 0 0
0 0 0
0 0 0
0 0 0
0 0 0
0 0 0
0 0 0
0 0 0
0 0 0
0 0 0
0 0 0
0 0 0
0 0 0
0 0 0
0 0 0
0 0 0
0 0 0
0 0 0
0 0 0
0 0 0
0 0 0
0 0 0
0 0 0
0 0 0
0 0 0
0 0 0
0 0 0
0 0 0
0 0 0
0 0 0
0 0 0
0 0 0
0 0 0
0 0 0
0 0 0
0 0 0
0 0 0
0 0 0
0 0 0
0 0 0
0 0 0
0 0 0
0 0 0
0 0 0
0 0 0
0 0 0
0 0 0
0 0 0
0 0 0
0 0 0
0 0 0
0 0 0
0 0 0
0 0 0
0 0 0
0 0 0
0 0 0
0 0 0
0 0 0
0 0 0
0 0 0
0 0 0
0 0 0
0 0 0
0 0 0
0 0 0
0 0 0
0 0 0
0 0 0
0 0 0
0 0 0
0 0 0
0 0 0
0 0 0
0 0 0
0 0 0
0 0 0
0 0 0
0 0 0
0 0 0
0 0 0
0 0 0
0 0 0
0 0 0
0 0 0
0 0 0
0 0 0
0 0 0
0 0 0
0 0 0
0 0 0
0 0 0
0 0 0
0 0 0
0 0 0
0 0 0
0 0 0
0 0 0
0 0 0
0 0 0
0 0 0
0 0 0
0 0 0
0 0 0
0 0 0
0 0 0
0 0 0
0 0 0
0 0 0
0 0 0
0 0 0
0 0 0
179 179 179
179 179 179
179 179 179
179 179 179
179 179 179
179 179 179
179 179 179
179 179 179
179 179 179
179 179 179
179 179 179
179 179 179
179 179 179
179 179 179
179 179 179
179 179 179
179 179 179
179 179 179
179 179 179
179 179 179
179 179 179
179 179 179
179 179 179
179 179 179
179 179 179
179 179 179
179 179 179
179 179 179
179 179 179
179 179 179
179 179 179
179 179 179
179 179 179
179 179 179
179 179 179
179 179 179
179 179 179
179 179 179
179 179 179
179 179 179
179 179 179
179 179 179
179 179 179
179 179 179
179 179 179
179 179 179
179 179 179
179 179 179
179 179 179
179 179 179
179 179 179
179 179 179
179 179 179
179 179 179
179 179 179
179 179 179
179 179 179
179 179 179
179 179 179
179 179 179
179 179 179
179 179 179
179 179 179
179 179 179
179 179 179
179 179 179
179 179 179
179 179 179
179 179 179
179 179 179
179 179 179
179 179 179
179 179 179
179 179 179
179 179 179
179 179 179
179 179 179
179 179 179
179 179 179
179 179 179
179 179 179
179 179 179
179 179 179
179 179 179
179 179 179
179 179 179
179 179 179
179 179 179
179 179 179
179 179 179
179 179 179
179 179 179
179 179 179
179 179 179
179 179 179
179 179 179
179 179 179
179 179 179
18 74 167
24 71 177
30 67 184
35 64 189
41 61 194
46 57 197
51 54 200
56 51 202
61 49 203
66 46 205
71 43 205
75 41 206
80 38 206
85 35 205
89 33 205
94 31 204
98 28 203
103 26 201
107 24 199
111 21 197
116 19 194
120 17 191
124 15 188
134 239 190
133 11 179
124 244 181
141 7 167
145 5 159
149 3 147
179 179 179
179 179 179
179 179 179
179 179 179
179 179 179
179 179 179
179 179 179
179 179 179
179 179 179
179 179 179
179 179 179
179 179 179
179 179 179
179 179 179
179 179 179
179 179 179
179 179 179
179 179 179
179 179 179
179 179 179
179 179 179
179 179 179
179 179 179
179 179 179
179 179 179
179 179 179
179 179 179
179 179 179
179 179 179
179 179 179
179 179 179
179 179 179
179 179 179
179 179 179
179 179 179
179 179 179
179 179 179
179 179 179
179 179 179
179 179 179
179 179 179
179 179 179
179 179 179
179 179 179
179 179 179
179 179 179
179 179 179
179 179 179
179 179 179
179 179 179
179 179 179
179 179 179
179 179 179
179 179 179
179 179 179
179 179 179
179 179 179
179 179 179
179 179 179
179 179 179
179 179 179
179 179 179
179 179 179
179 179 179
179 179 179
179 179 179
179 179 179
179 179 179
179 179 179
179 179 179
179 179 179
179 179 179
179 179 179
179 179 179
179 179 179
179 179 179
179 179 179
179 179 179
179 179 179
179 179 179
179 179 179
179 179 179
179 179 179
179 179 179
179 179 179
179 179 179
179 179 179
179 179 179
179 179 179
179 179 179
179 179 179
179 179 179
179 179 179
179 179 179
179 179 179
179 179 179
179 179 179
179 179 179
179 179 179
179 179 179
179 179 179
179 179 179
179 179 179
179 179 179
179 179 179
179 179 179
179 179 179
179 179 179
179 179 179
179 179 179
179 179 179
179 179 179
179 179 179
179 179 179
179 179 179
179 179 179
179 179 179
179 179 179
179 179 179
179 179 179
179 179 179
179 179 179
179 179 179
179 179 179
179 179 179
179 179 179
179 179 179
179 179 179
179 179 179
179 179 179
179 179 179
179 179 179
179 179 179
179 179 179
179 179 179
179 179 179
179 179 179
179 179 179
179 179 179
179 179 179
179 179 179
179 179 179
179 179 179
179 179 179
179 179 179
179 179 179
0 0 0
0 0 0
0 0 0
0 0 0
0 0 0
0 0 0
0 0 0
0 0 0
0 0 0
0 0 0
0 0 0
0 0 0
0 0 0
0 0 0
0 0 0
0 0 0
0 0 0
0 0 0
0 0 0
0 0 0
0 0 0
0 0 0
0 0 0
0 0 0
0 0 0
0 0 0
0 0 0
0 0 0
0 0 0
0 0 0
0 0 0
0 0 0
0 0 0
0 0 0
0 0 0
0 0 0
0 0 0
0 0 0
0 0 0
0 0 0
0 0 0
0 0 0
0 0 0
0 0 0
0 0 0
0 0 0
0 0 0
0 0 0
0 0 0
0 0 0
0 0 0
0 0 0
0 0 0
0 0 0
0 0 0
0 0 0
0 0 0
0 0 0
0 0 0
0 0 0
0 0 0
0 0 0
0 0 0
0 0 0
0 0 0
0 0 0
0 0 0
0 0 0
0 0 0
0 0 0
0 0 0
0 0 0
0 0 0
0 0 0
0 0 0
0 0 0
0 0 0
0 0 0
0 0 0
0 0 0
0 0 0
0 0 0
0 0 0
0 0 0
0 0 0
0 0 0
0 0 0
0 0 0
0 0 0
0 0 0
0 0 0
0 0 0
0 0 0
0 0 0
0 0 0
0 0 0
0 0 0
0 0 0
0 0 0
0 0 0
0 0 0
0 0 0
0 0 0
0 0 0
0 0 0
0 0 0
0 0 0
0 0 0
0 0 0
0 0 0
0 0 0
0 0 0
0 0 0
0 0 0
0 0 0
0 0 0
0 0 0
0 0 0
0 0 0
0 0 0
0 0 0
0 0 0
0 0 0
0 0 0
0 0 0
0 0 0
179 179 179
179 179 179
179 179 179
179 179 179
179 179 179
179 179 179
179 179 179
179 179 179
179 179 179
179 179 179
179 179 179
179 179 179
179 179 179
179 179 179
179 179 179
179 179 179
179 179 179
179 179 179
179 179 179
179 179 179
179 179 179
179 179 179
179 179 179
179 179 179
179 179 179
179 179 179
179 179 179
179 179 179
179 179 179
179 179 179
179 179 179
179 179 179
179 179 179
179 179 179
179 179 179
179 179 179
179 179 179
179 179 179
179 179 179
179 179 179
179 179 179
179 179 179
179 179 179
179 179 179
179 179 179
179 179 179
179 179 179
179 179 179
179 179 179
179 179 179
179 179 179
179 179 179
179 179 179
179 179 179
179 179 179
179 179 179
179 179 179
179 179 179
179 179 179
179 179 179
179 179 179
179 179 179
179 179 179
179 179 179
179 179 179
179 179 179
179 179 179
179 179 179
179 179 179
179 179 179
179 179 179
179 179 179
179 179 179
179 179 179
179 179 179
179 179 179
179 179 179
179 179 179
179 179 179
179 179 179
179 179 179
179 179 179
179 179 179
179 179 179
179 179 179
179 179 179
179 179 179
179 179 179
179 179 179
179 179 179
179 179 179
179 179 179
179 179 179
179 179 179
179 179 179
179 179 179
179 179 179
179 179 179
16 77 164
22 73 176
28 70 183
34 66 189
39 63 193
44 60 197
49 57 200
54 54 202
59 51 204
64 48 205
69 45 206
73 42 206
78 40 207
83 37 206
87 35 206
92 32 205
96 30 204
101 27 203
105 25 201
109 23 199
114 21 197
118 18 194
122 16 190
127 14 187
131 12 183
135 10 178
139 8 172
143 6 165
147 4 155
151 2 140
179 179 179
179 179 179
179 179 179
179 179 179
179 179 179
179 179 179
179 179 179
179 179 179
179 179 179
179 179 179
179 179 179
179 179 179
179 179 179
179 179 179
179 179 179
179 179 179
179 179 179
179 179 179
179 179 179
179 179 179
179 179 179
179 179 179
179 179 179
179 179 179
179 179 179
179 179 179
179 179 179
179 179 179
179 179 179
179 179 179
179 179 179
179 179 179
179 179 179
179 179 179
179 179 179
179 179 179
179 179 179
179 179 179
179 179 179
179 179 179
179 179 179
179 179 179
179 179 179
179 179 179
179 179 179
179 179 179
179 179 179
179 179 179
179 179 179
179 179 179
179 179 179
179 179 179
179 179 179
179 179 179
179 179 179
179 179 179
179 179 179
179 179 179
179 179 179
179 179 179
179 179 179
179 179 179
179 179 179
179 179 179
179 179 179
179 179 179
179 179 179
179 179 179
179 179 179
179 179 179
179 179 179
179 179 179
179 179 179
179 179 179
179 179 179
179 179 179
179 179 179
179 179 179
179 179 179
179 179 179
179 179 179
179 179 179
179 179 179
179 179 179
179 179 179
179 179 179
179 179 179
179 179 179
179 179 179
179 179 179
179 179 179
179 179 179
179 179 179
179 179 179
179 179 179
179 179 179
179 179 179
179 179 179
179 179 179
179 179 179
179 179 179
179 179 179
179 179 179
179 179 179
179 179 179
179 179 179
179 179 179
179 179 179
179 179 179
179 179 179
179 179 179
179 179 179
179 179 179
179 179 179
179 179 179
179 179 179
179 179 179
179 179 179
179 179 179
179 179 179
179 179 179
179 179 179
179 179 179
179 179 179
179 179 179
179 179 179
179 179 179
179 179 179
179 179 179
179 179 179
179 179 179
179 179 179
179 179 179
179 179 179
179 179 179
179 179 179
179 179 179
179 179 179
179 179 179
179 179 179
179 179 179
179 179 179
179 179 179
179 179 179
179 179 179
179 179 179
179 179 179
0 0 0
0 0 0
0 0 0
0 0 0
0 0 0
0 0 0
0 0 0
0 0 0
0 0 0
0 0 0
0 0 0
0 0 0
0 0 0
0 0 0
0 0 0
0 0 0
0 0 0
0 0 0
0 0 0
0 0 0
0 0 0
0 0 0
0 0 0
0 0 0
0 0 0
0 0 0
0 0 0
0 0 0
0 0 0
0 0 0
0 0 0
0 0 0
0 0 0
0 0 0
0 0 0
0 0 0
0 0 0
0 0 0
0 0 0
0 0 0
0 0 0
0 0 0
0 0 0
0 0 0
0 0 0
0 0 0
0 0 0
0 0 0
0 0 0
0 0 0
0 0 0
0 0 0
0 0 0
0 0 0
0 0 0
0 0 0
0 0 0
0 0 0
0 0 0
0 0 0
0 0 0
0 0 0
0 0 0
0 0 0
0 0 0
0 0 0
0 0 0
0 0 0
0 0 0
0 0 0
0 0 0
0 0 0
0 0 0
0 0 0
0 0 0
0 0 0
0 0 0
0 0 0
0 0 0
0 0 0
0 0 0
0 0 0
0 0 0
0 0 0
0 0 0
0 0 0
0 0 0
0 0 0
0 0 0
0 0 0
0 0 0
0 0 0
0 0 0
0 0 0
0 0 0
0 0 0
0 0 0
0 0 0
0 0 0
0 0 0
0 0 0
0 0 0
0 0 0
0 0 0
0 0 0
0 0 0
0 0 0
0 0 0
0 0 0
0 0 0
0 0 0
0 0 0
0 0 0
0 0 0
0 0 0
0 0 0
0 0 0
0 0 0
0 0 0
0 0 0
0 0 0
0 0 0
0 0 0
0 0 0
179 179 179
179 179 179
179 179 179
179 179 179
179 179 179
179 179 179
179 179 179
179 179 179
179 179 179
179 179 179
179 179 179
179 179 179
179 179 179
179 179 179
179 179 179
179 179 179
179 179 179
179 179 179
179 179 179
179 179 179
179 179 179
179 179 179
179 179 179
179 179 179
179 179 179
179 179 179
179 179 179
179 179 179
179 179 179
179 179 179
179 179 179
179 179 179
179 179 179
179 179 179
179 179 179
179 179 179
179 179 179
179 179 179
179 179 179
179 179 179
179 179 179
179 179 179
179 179 179
179 179 179
179 179 179
179 179 179
179 179 179
179 179 179
179 179 179
179 179 179
179 179 179
179 179 179
179 179 179
179 179 179
179 179 179
179 179 179
179 179 179
179 179 179
179 179 179
179 179 179
179 179 179
179 179 179
179 179 179
179 179 179
179 179 179
179 179 179
179 179 179
179 179 179
179 179 179
179 179 179
179 179 179
179 179 179
179 179 179
179 179 179
179 179 179
179 179 179
179 179 179
179 179 179
179 179 179
179 179 179
179 179 179
179 179 179
179 179 179
179 179 179
179 179 179
179 179 179
179 179 179
179 179 179
179 179 179
179 179 179
179 179 179
179 179 179
179 179 179
179 179 179
179 179 179
179 179 179
179 179 179
179 179 179
14 80 161
20 76 174
26 72 182
32 69 188
37 65 193
42 62 197
47 59 200
52 56 202
57 53 204
62 50 206
67 47 207
72 44 207
76 42 207
81 39 207
85 37 207
90 34 206
94 32 205
99 29 204
103 27 203
107 24 201
112 22 198
116 20 196
120 18 193
124 15 189
129 13 185
133 11 181
137 9 176
141 7 169
145 5 161
149 3 150
179 179 179
179 179 179
179 179 179
179 179 179
179 179 179
179 179 179
179 179 179
179 179 179
179 179 179
179 179 179
179 179 179
179 179 179
179 179 179
179 179 179
179 179 179
179 179 179
179 179 179
179 179 179
179 179 179
179 179 179
179 179 179
179 179 179
179 179 179
179 179 179
179 179 179
179 179 179
179 179 179
179 179 179
179 179 179
179 179 179
179 179 179
179 179 179
179 179 179
179 179 179
179 179 179
179 179 179
179 179 179
179 179 179
179 179 179
179 179 179
179 179 179
179 179 179
179 179 179
179 179 179
179 179 179
179 179 179
179 179 179
179 179 179
179 179 179
179 179 179
179 179 179
179 179 179
179 179 179
179 179 179
179 179 179
179 179 179
179 179 179
179 179 179
179 179 179
179 179 179
179 179 179
179 179 179
179 179 179
179 179 179
179 179 179
179 179 179
179 179 179
179 179 179
179 179 179
179 179 179
179 179 179
179 179 179
179 179 179
179 179 179
179 179 179
179 179 179
179 179 179
179 179 179
179 179 179
179 179 179
179 179 179
179 179 179
179 179 179
179 179 179
179 179 179
179 179 179
179 179 179
179 179 179
179 179 179
179 179 179
179 179 179
179 179 179
179 179 179
179 179 179
179 179 179
179 179 179
179 179 179
179 179 179
179 179 179
179 179 179
179 179 179
179 179 179
179 179 179
179 179 179
179 179 179
179 179 179
179 179 179
179 179 179
179 179 179
179 179 179
179 179 179
179 179 179
179 179 179
179 179 179
179 179 179
179 179 179
179 179 179
179 179 179
179 179 179
179 179 179
179 179 179
179 179 179
179 179 179
179 179 179
179 179 179
179 179 179
179 179 179
179 179 179
179 179 179
179 179 179
179 179 179
179 179 179
179 179 179
179 179 179
179 179 179
179 179 179
179 179 179
179 179 179
179 179 179
179 179 179
179 179 179
179 179 179
179 179 179
179 179 179
179 179 179
179 179 179
179 179 179
179 179 179
179 179 179
179 179 179
0 0 0
0 0 0
0 0 0
0 0 0
0 0 0
0 0 0
0 0 0
0 0 0
0 0 0
0 0 0
0 0 0
0 0 0
0 0 0
0 0 0
0 0 0
0 0 0
0 0 0
0 0 0
0 0 0
0 0 0
0 0 0
0 0 0
0 0 0
0 0 0
0 0 0
0 0 0
0 0 0
0 0 0
0 0 0
0 0 0
0 0 0
0 0 0
0 0 0
0 0 0
0 0 0
0 0 0
0 0 0
0 0 0
0 0 0
0 0 0
0 0 0
0 0 0
0 0 0
0 0 0
0 0 0
0 0 0
0 0 0
0 0 0
0 0 0
0 0 0
0 0 0
0 0 0
0 0 0
0 0 0
0 0 0
0 0 0
0 0 0
0 0 0
0 0 0
0 0 0
0 0 0
0 0 0
0 0 0
0 0 0
0 0 0
0 0 0
0 0 0
0 0 0
0 0 0
0 0 0
0 0 0
0 0 0
0 0 0
0 0 0
0 0 0
0 0 0
0 0 0
0 0 0
0 0 0
0 0 0
0 0 0
0 0 0
0 0 0
0 0 0
0 0 0
0 0 0
0 0 0
0 0 0
0 0 0
0 0 0
0 0 0
0 0 0
0 0 0
0 0 0
0 0 0
0 0 0
0 0 0
0 0 0
0 0 0
0 0 0
0 0 0
0 0 0
0 0 0
0 0 0
0 0 0
0 0 0
0 0 0
0 0 0
0 0 0
0 0 0
0 0 0
0 0 0
0 0 0
0 0 0
0 0 0
0 0 0
0 0 0
0 0 0
0 0 0
0 0 0
179 179 179
179 179 179
179 179 179
179 179 179
179 179 179
179 179 179
179 179 179
179 179 179
179 179 179
179 179 179
179 179 179
179 179 179
179 179 179
179 179 179
179 179 179
179 179 179
179 179 179
179 179 179
179 179 179
179 179 179
179 179 179
179 179 179
179 179 179
179 179 179
179 179 179
179 179 179
179 179 179
179 179 179
179 179 179
179 179 179
179 179 179
179 179 179
179 179 179
179 179 179
179 179 179
179 179 179
179 179 179
179 179 179
179 179 179
179 179 179
179 179 179
179 179 179
179 179 179
179 179 179
179 179 179
179 179 179
179 179 179
179 179 179
179 179 179
179 179 179
179 179 179
179 179 179
179 179 179
179 179 179
179 179 179
179 179 179
179 179 179
179 179 179
179 179 179
179 179 179
179 179 179
179 179 179
179 179 179
179 179 179
179 179 179
179 179 179
179 179 179
179 179 179
179 179 179
179 179 179
179 179 179
179 179 179
179 179 179
179 179 179
179 179 179
179 179 179
179 179 179
179 179 179
179 179 179
179 179 179
179 179 179
179 179 179
179 179 179
179 179 179
179 179 179
179 179 179
179 179 179
179 179 179
179 179 179
179 179 179
179 179 179
179 179 179
179 179 179
179 179 179
179 179 179
179 179 179
179 179 179
179 179 179
179 179 179
11 83 158
18 78 173
241 175 162
30 71 188
233 180 177
40 64 197
46 61 200
51 58 203
55 55 205
60 52 206
65 49 207
70 46 208
74 44 208
79 41 208
83 38 208
88 36 208
92 33 207
97 31 206
101 28 204
105 26 202
110 24 200
114 21 198
118 19 195
122 17 192
127 15 188
131 13 184
135 11 179
139 9 173
143 7 166
147 5 157
151 3 144
179 179 179
179 179 179
179 179 179
179 179 179
179 179 179
179 179 179
179 179 179
179 179 179
179 179 179
179 179 179
179 179 179
179 179 179
179 179 179
179 179 179
179 179 179
179 179 179
179 179 179
179 179 179
179 179 179
179 179 179
179 179 179
179 179 179
179 179 179
179 179 179
179 179 179
179 179 179
179 179 179
179 179 179
179 179 179
179 179 179
179 179 179
179 179 179
179 179 179
179 179 179
179 179 179
179 179 179
179 179 179
179 179 179
179 179 179
179 179 179
179 179 179
179 179 179
179 179 179
179 179 179
179 179 179
179 179 179
179 179 179
179 179 179
179 179 179
179 179 179
179 179 179
179 179 179
179 179 179
179 179 179
179 179 179
179 179 179
179 179 179
179 179 179
179 179 179
179 179 179
179 179 179
179 179 179
179 179 179
179 179 179
179 179 179
179 179 179
179 179 179
179 179 179
179 179 179
179 179 179
179 179 179
179 179 179
179 179 179
179 179 179
179 179 179
179 179 179
179 179 179
179 179 179
179 179 179
179 179 179
179 179 179
179 179 179
179 179 179
179 179 179
179 179 179
179 179 179
179 179 179
179 179 179
179 179 179
179 179 179
179 179 179
179 179 179
179 179 179
179 179 179
179 179 179
179 179 179
179 179 179
179 179 179
179 179 179
179 179 179
179 179 179
179 179 179
179 179 179
179 179 179
179 179 179
179 179 179
179 179 179
179 179 179
179 179 179
179 179 179
179 179 179
179 179 179
179 179 179
179 179 179
179 179 179
179 179 179
179 179 179
179 179 179
179 179 179
179 179 179
179 179 179
179 179 179
179 179 179
179 179 179
179 179 179
179 179 179
179 179 179
179 179 179
179 179 179
179 179 179
179 179 179
179 179 179
179 179 179
179 179 179
179 179 179
179 179 179
179 179 179
179 179 179
179 179 179
179 179 179
179 179 179
179 179 179
179 179 179
179 179 179
179 179 179
179 179 179
179 179 179
179 179 179
179 179 179
179 179 179
179 179 179
0 0 0
0 0 0
0 0 0
0 0 0
0 0 0
0 0 0
0 0 0
0 0 0
0 0 0
0 0 0
0 0 0
0 0 0
0 0 0
0 0 0
0 0 0
0 0 0
0 0 0
0 0 0
0 0 0
0 0 0
0 0 0
0 0 0
0 0 0
0 0 0
0 0 0
0 0 0
0 0 0
0 0 0
0 0 0
0 0 0
0 0 0
0 0 0
0 0 0
0 0 0
0 0 0
0 0 0
0 0 0
0 0 0
0 0 0
0 0 0
0 0 0
0 0 0
0 0 0
0 0 0
0 0 0
0 0 0
0 0 0
0 0 0
0 0 0
0 0 0
0 0 0
0 0 0
0 0 0
0 0 0
0 0 0
0 0 0
0 0 0
0 0 0
0 0 0
0 0 0
0 0 0
0 0 0
0 0 0
0 0 0
0 0 0
0 0 0
0 0 0
0 0 0
0 0 0
0 0 0
0 0 0
0 0 0
0 0 0
0 0 0
0 0 0
0 0 0
0 0 0
0 0 0
0 0 0
0 0 0
0 0 0
0 0 0
0 0 0
0 0 0
0 0 0
0 0 0
0 0 0
0 0 0
0 0 0
0 0 0
0 0 0
0 0 0
0 0 0
0 0 0
0 0 0
0 0 0
0 0 0
0 0 0
0 0 0
0 0 0
0 0 0
0 0 0
0 0 0
0 0 0
0 0 0
0 0 0
0 0 0
0 0 0
0 0 0
0 0 0
0 0 0
0 0 0
0 0 0
0 0 0
0 0 0
0 0 0
0 0 0
0 0 0
179 179 179
179 179 179
179 179 179
179 179 179
179 179 179
179 179 179
179 179 179
179 179 179
179 179 179
179 179 179
179 179 179
179 179 179
179 179 179
179 179 179
179 179 179
179 179 179
179 179 179
179 179 179
179 179 179
179 179 179
179 179 179
179 179 179
179 179 179
179 179 179
179 179 179
179 179 179
179 179 179
179 179 179
179 179 179
179 179 179
179 179 179
179 179 179
179 179 179
179 179 179
179 179 179
179 179 179
179 179 179
179 179 179
179 179 179
179 179 179
179 179 179
179 179 179
179 179 179
179 179 179
179 179 179
179 179 179
179 179 179
179 179 179
179 179 179
179 179 179
179 179 179
179 179 179
179 179 179
179 179 179
179 179 179
179 179 179
179 179 179
179 179 179
179 179 179
179 179 179
179 179 179
179 179 179
179 179 179
179 179 179
179 179 179
179 179 179
179 179 179
179 179 179
179 179 179
179 179 179
179 179 179
179 179 179
179 179 179
179 179 179
179 179 179
179 179 179
179 179 179
179 179 179
179 179 179
179 179 179
179 179 179
179 179 179
179 179 179
179 179 179
179 179 179
179 179 179
179 179 179
179 179 179
179 179 179
179 179 179
179 179 179
179 179 179
179 179 179
179 179 179
179 179 179
179 179 179
179 179 179
179 179 179
179 179 179
9 86 153
16 81 171
23 77 181
28 73 187
34 70 193
39 67 197
44 63 200
49 60 203
54 57 205
59 54 206
63 51 208
68 48 209
73 46 209
77 43 209
82 40 209
86 38 209
91 35 208
95 33 207
99 30 206
104 28 204
108 25 202
112 23 200
116 21 197
144 232 199
139 235 197
129 14 187
133 12 182
137 10 177
141 8 171
145 6 163
149 4 153
152 2 134
179 179 179
179 179 179
179 179 179
179 179 179
179 179 179
179 179 179
179 179 179
179 179 179
179 179 179
179 179 179
179 179 179
179 179 179
179 179 179
179 179 179
179 179 179
179 179 179
179 179 179
179 179 179
179 179 179
179 179 179
179 179 179
179 179 179
179 179 179
179 179 179
179 179 179
179 179 179
179 179 179
179 179 179
179 179 179
179 179 179
179 179 179
179 179 179
179 179 179
179 179 179
179 179 179
179 179 179
179 179 179
179 179 179
179 179 179
179 179 179
179 179 179
179 179 179
179 179 179
179 179 179
179 179 179
179 179 179
179 179 179
179 179 179
179 179 179
179 179 179
179 179 179
179 179 179
179 179 179
179 179 179
179 179 179
179 179 179
179 179 179
179 179 179
179 179 179
179 179 179
179 179 179
179 179 179
179 179 179
179 179 179
179 179 179
179 179 179
179 179 179
179 179 179
179 179 179
179 179 179
179 179 179
179 179 179
179 179 179
179 179 179
179 179 179
179 179 179
179 179 179
179 179 179
179 179 179
179 179 179
179 179 179
179 179 179
179 179 179
179 179 179
179 179 179
179 179 179
179 179 179
179 179 179
179 179 179
179 179 179
179 179 179
179 179 179
179 179 179
179 179 179
179 179 179
179 179 179
179 179 179
179 179 179
179 179 179
179 179 179
179 179 179
179 179 179
179 179 179
179 179 179
179 179 179
179 179 179
179 179 179
179 179 179
179 179 179
179 179 179
179 179 179
179 179 179
179 179 179
179 179 179
179 179 179
179 179 179
179 179 179
179 179 179
179 179 179
179 179 179
179 179 179
179 179 179
179 179 179
179 179 179
179 179 179
179 179 179
179 179 179
179 179 179
179 179 179
179 179 179
179 179 179
179 179 179
179 179 179
179 179 179
179 179 179
179 179 179
179 179 179
179 179 179
179 179 179
179 179 179
179 179 179
179 179 179
179 179 179
179 179 179
179 179 179
179 179 179
179 179 179
179 179 179
179 179 179
179 179 179
179 179 179
179 179 179
179 179 179
0 0 0
0 0 0
0 0 0
0 0 0
0 0 0
0 0 0
0 0 0
0 0 0
0 0 0
0 0 0
0 0 0
0 0 0
0 0 0
0 0 0
0 0 0
0 0 0
0 0 0
0 0 0
0 0 0
0 0 0
0 0 0
0 0 0
0 0 0
0 0 0
0 0 0
0 0 0
0 0 0
0 0 0
0 0 0
0 0 0
0 0 0
0 0 0
0 0 0
0 0 0
0 0 0
0 0 0
0 0 0
0 0 0
0 0 0
0 0 0
0 0 0
0 0 0
0 0 0
0 0 0
0 0 0
0 0 0
0 0 0
0 0 0
0 0 0
0 0 0
0 0 0
0 0 0
0 0 0
0 0 0
0 0 0
0 0 0
0 0 0
0 0 0
0 0 0
0 0 0
0 0 0
0 0 0
0 0 0
0 0 0
0 0 0
0 0 0
0 0 0
0 0 0
0 0 0
0 0 0
0 0 0
0 0 0
0 0 0
0 0 0
0 0 0
0 0 0
0 0 0
0 0 0
0 0 0
0 0 0
0 0 0
0 0 0
0 0 0
0 0 0
0 0 0
0 0 0
0 0 0
0 0 0
0 0 0
0 0 0
0 0 0
0 0 0
0 0 0
0 0 0
0 0 0
0 0 0
0 0 0
0 0 0
0 0 0
0 0 0
0 0 0
0 0 0
0 0 0
0 0 0
0 0 0
0 0 0
0 0 0
0 0 0
0 0 0
0 0 0
0 0 0
0 0 0
0 0 0
0 0 0
179 179 179
179 179 179
179 179 179
179 179 179
179 179 179
179 179 179
179 179 179
179 179 179
179 179 179
179 179 179
179 179 179
179 179 179
179 179 179
179 179 179
179 179 179
179 179 179
179 179 179
179 179 179
179 179 179
179 179 179
179 179 179
179 179 179
179 179 179
179 179 179
179 179 179
179 179 179
179 179 179
179 179 179
179 179 179
179 179 179
179 179 179
179 179 179
179 179 179
179 179 179
179 179 179
179 179 179
179 179 179
179 179 179
179 179 179
179 179 179
179 179 179
179 179 179
179 179 179
179 179 179
179 179 179
179 179 179
179 179 179
179 179 179
179 179 179
179 179 179
179 179 179
179 179 179
179 179 179
179 179 179
179 179 179
179 179 179
179 179 179
179 179 179
179 179 179
179 179 179
179 179 179
179 179 179
179 179 179
179 179 179
179 179 179
179 179 179
179 179 179
179 179 179
179 179 179
179 179 179
179 179 179
179 179 179
179 179 179
179 179 179
179 179 179
179 179 179
179 179 179
179 179 179
179 179 179
179 179 179
179 179 179
179 179 179
179 179 179
179 179 179
179 179 179
179 179 179
179 179 179
179 179 179
179 179 179
179 179 179
179 179 179
179 179 179
179 179 179
179 179 179
179 179 179
179 179 179
179 179 179
179 179 179
179 179 179
179 179 179
7 89 146
15 84 169
21 80 180
27 76 187
32 72 192
37 69 197
42 65 200
47 62 203
52 59 205
57 56 207
62 53 208
66 50 209
71 47 210
75 45 210
80 42 210
84 39 210
89 37 209
93 34 208
97 32 207
102 29 205
106 27 204
110 24 202
115 22 199
119 20 196
123 18 193
127 15 189
131 13 185
135 11 180
139 9 175
143 7 168
147 5 159
151 3 147
179 179 179
179 179 179
179 179 179
179 179 179
179 179 179
179 179 179
179 179 179
179 179 179
179 179 179
179 179 179
179 179 179
179 179 179
179 179 179
179 179 179
179 179 179
179 179 179
179 179 179
179 179 179
179 179 179
179 179 179
179 179 179
179 179 179
179 179 179
179 179 179
179 179 179
179 179 179
179 179 179
179 179 179
179 179 179
179 179 179
179 179 179
179 179 179
179 179 179
179 179 179
179 179 179
179 179 179
179 179 179
179 179 179
179 179 179
179 179 179
179 179 179
179 179 179
179 179 179
179 179 179
179 179 179
179 179 179
179 179 179
179 179 179
179 179 179
179 179 179
179 179 179
179 179 179
179 179 179
179 179 179
179 179 179
179 179 179
179 179 179
179 179 179
179 179 179
179 179 179
179 179 179
179 179 179
179 179 179
179 179 179
179 179 179
179 179 179
179 179 179
179 179 179
179 179 179
179 179 179
179 179 179
179 179 179
179 179 179
179 179 179
179 179 179
179 179 179
179 179 179
179 179 179
179 179 179
179 179 179
179 179 179
179 179 179
179 179 179
179 179 179
179 179 179
179 179 179
179 179 179
179 179 179
179 179 179
179 179 179
179 179 179
179 179 179
179 179 179
179 179 179
179 179 179
179 179 179
179 179 179
179 179 179
179 179 179
179 179 179
179 179 179
179 179 179
179 179 179
179 179 179
179 179 179
179 179 179
179 179 179
179 179 179
179 179 179
179 179 179
179 179 179
179 179 179
179 179 179
179 179 179
179 179 179
179 179 179
179 179 179
179 179 179
179 179 179
179 179 179
179 179 179
179 179 179
179 179 179
179 179 179
179 179 179
179 179 179
179 179 179
179 179 179
179 179 179
179 179 179
179 179 179
179 179 179
179 179 179
179 179 179
179 179 179
179 179 179
179 179 179
179 179 179
179 179 179
179 179 179
179 179 179
179 179 179
179 179 179
179 179 179
179 179 179
179 179 179
179 179 179
179 179 179
179 179 179
179 179 179
179 179 179
179 179 179
179 179 179
179 179 179
179 179 179
0 0 0
0 0 0
0 0 0
0 0 0
0 0 0
0 0 0
0 0 0
0 0 0
0 0 0
0 0 0
0 0 0
0 0 0
0 0 0
0 0 0
0 0 0
0 0 0
0 0 0
0 0 0
0 0 0
0 0 0
0 0 0
0 0 0
0 0 0
0 0 0
0 0 0
0 0 0
0 0 0
0 0 0
0 0 0
0 0 0
0 0 0
0 0 0
0 0 0
0 0 0
0 0 0
0 0 0
0 0 0
0 0 0
0 0 0
0 0 0
0 0 0
0 0 0
0 0 0
0 0 0
0 0 0
0 0 0
0 0 0
0 0 0
0 0 0
0 0 0
0 0 0
0 0 0
0 0 0
0 0 0
0 0 0
0 0 0
0 0 0
0 0 0
0 0 0
0 0 0
0 0 0
0 0 0
0 0 0
0 0 0
0 0 0
0 0 0
0 0 0
0 0 0
0 0 0
0 0 0
0 0 0
0 0 0
0 0 0
0 0 0
0 0 0
0 0 0
0 0 0
0 0 0
0 0 0
0 0 0
0 0 0
0 0 0
0 0 0
0 0 0
0 0 0
0 0 0
0 0 0
0 0 0
0 0 0
0 0 0
0 0 0
0 0 0
0 0 0
0 0 0
0 0 0
0 0 0
0 0 0
0 0 0
0 0 0
0 0 0
0 0 0
0 0 0
0 0 0
0 0 0
0 0 0
0 0 0
0 0 0
0 0 0
0 0 0
0 0 0
0 0 0
0 0 0
179 179 179
179 179 179
179 179 179
179 179 179
179 179 179
179 179 179
179 179 179
179 179 179
179 179 179
179 179 179
179 179 179
179 179 179
179 179 179
179 179 179
179 179 179
179 179 179
179 179 179
179 179 179
179 179 179
179 179 179
179 179 179
179 179 179
179 179 179
179 179 179
179 179 179
179 179 179
179 179 179
179 179 179
179 179 179
179 179 179
179 179 179
179 179 179
179 179 179
179 179 179
179 179 179
179 179 179
179 179 179
179 179 179
179 179 179
179 179 179
179 179 179
179 179 179
179 179 179
179 179 179
179 179 179
179 179 179
179 179 179
179 179 179
179 179 179
179 179 179
179 179 179
179 179 179
179 179 179
179 179 179
179 179 179
179 179 179
179 179 179
179 179 179
179 179 179
179 179 179
179 179 179
179 179 179
179 179 179
179 179 179
179 179 179
179 179 179
179 179 179
179 179 179
179 179 179
179 179 179
179 179 179
179 179 179
179 179 179
179 179 179
179 179 179
179 179 179
179 179 179
179 179 179
179 179 179
179 179 179
179 179 179
179 179 179
179 179 179
179 179 179
179 179 179
179 179 179
179 179 179
179 179 179
179 179 179
179 179 179
179 179 179
179 179 179
179 179 179
179 179 179
179 179 179
179 179 179
179 179 179
179 179 179
179 179 179
179 179 179
179 179 179
13 86 167
19 82 179
25 78 186
30 75 192
36 71 196
41 68 200
46 64 203
50 61 205
55 58 207
60 55 209
65 52 210
69 49 210
74 47 211
78 44 211
83 41 211
87 39 210
91 36 209
96 33 208
100 31 207
104 28 205
108 26 203
113 24 201
117 21 198
121 19 195
125 17 192
129 15 188
133 12 183
137 10 178
141 8 172
145 6 165
149 4 155
153 2 139
179 179 179
179 179 179
179 179 179
179 179 179
179 179 179
179 179 179
179 179 179
179 179 179
179 179 179
179 179 179
179 179 179
179 179 179
179 179 179
179 179 179
179 179 179
179 179 179
179 179 179
179 179 179
179 179 179
179 179 179
179 179 179
179 179 179
179 179 179
179 179 179
179 179 179
179 179 179
179 179 179
179 179 179
179 179 179
179 179 179
179 179 179
179 179 179
179 179 179
179 179 179
179 179 179
179 179 179
179 179 179
179 179 179
179 179 179
179 179 179
179 179 179
179 179 179
179 179 179
179 179 179
179 179 179
179 179 179
179 179 179
179 179 179
179 179 179
179 179 179
179 179 179
179 179 179
179 179 179
179 179 179
179 179 179
179 179 179
179 179 179
179 179 179
179 179 179
179 179 179
179 179 179
179 179 179
179 179 179
179 179 179
179 179 179
179 179 179
179 179 179
179 179 179
179 179 179
179 179 179
179 179 179
179 179 179
179 179 179
179 179 179
179 179 179
179 179 179
179 179 179
179 179 179
179 179 179
179 179 179
179 179 179
179 179 179
179 179 179
179 179 179
179 179 179
179 179 179
179 179 179
179 179 179
179 179 179
179 179 179
179 179 179
179 179 179
179 179 179
179 179 179
179 179 179
179 179 179
179 179 179
179 179 179
179 179 179
179 179 179
179 179 179
179 179 179
179 179 179
179 179 179
179 179 179
179 179 179
179 179 179
179 179 179
179 179 179
179 179 179
179 179 179
179 179 179
179 179 179
179 179 179
179 179 179
179 179 179
179 179 179
179 179 179
179 179 179
179 179 179
179 179 179
179 179 179
179 179 179
179 179 179
179 179 179
179 179 179
179 179 179
179 179 179
179 179 179
179 179 179
179 179 179
179 179 179
179 179 179
179 179 179
179 179 179
179 179 179
179 179 179
179 179 179
179 179 179
179 179 179
179 179 179
179 179 179
179 179 179
179 179 179
179 179 179
179 179 179
179 179 179
179 179 179
179 179 179
179 179 179
179 179 179
179 179 179
179 179 179
179 179 179
179 179 179
179 179 179
179 179 179
0 0 0
0 0 0
0 0 0
0 0 0
0 0 0
0 0 0
0 0 0
0 0 0
0 0 0
0 0 0
0 0 0
0 0 0
0 0 0
0 0 0
0 0 0
0 0 0
0 0 0
0 0 0
0 0 0
0 0 0
0 0 0
0 0 0
0 0 0
0 0 0
0 0 0
0 0 0
0 0 0
0 0 0
0 0 0
0 0 0
0 0 0
0 0 0
0 0 0
0 0 0
0 0 0
0 0 0
0 0 0
0 0 0
0 0 0
0 0 0
0 0 0
0 0 0
0 0 0
0 0 0
0 0 0
0 0 0
0 0 0
0 0 0
0 0 0
0 0 0
0 0 0
0 0 0
0 0 0
0 0 0
0 0 0
0 0 0
0 0 0
0 0 0
0 0 0
0 0 0
0 0 0
0 0 0
0 0 0
0 0 0
0 0 0
0 0 0
0 0 0
0 0 0
0 0 0
0 0 0
0 0 0
0 0 0
0 0 0
0 0 0
0 0 0
0 0 0
0 0 0
0 0 0
0 0 0
0 0 0
0 0 0
0 0 0
0 0 0
0 0 0
0 0 0
0 0 0
0 0 0
0 0 0
0 0 0
0 0 0
0 0 0
0 0 0
0 0 0
0 0 0
0 0 0
0 0 0
0 0 0
0 0 0
0 0 0
0 0 0
0 0 0
0 0 0
0 0 0
0 0 0
0 0 0
0 0 0
0 0 0
0 0 0
179 179 179
179 179 179
179 179 179
179 179 179
179 179 179
179 179 179
179 179 179
179 179 179
179 179 179
179 179 179
179 179 179
179 179 179
179 179 179
179 179 179
179 179 179
179 179 179
179 179 179
179 179 179
179 179 179
179 179 179
179 179 179
179 179 179
179 179 179
179 179 179
179 179 179
179 179 179
179 179 179
179 179 179
179 179 179
179 179 179
179 179 179
179 179 179
179 179 179
179 179 179
179 179 179
179 179 179
179 179 179
179 179 179
179 179 179
179 179 179
179 179 179
179 179 179
179 179 179
179 179 179
179 179 179
179 179 179
179 179 179
179 179 179
179 179 179
179 179 179
179 179 179
179 179 179
179 179 179
179 179 179
179 179 179
179 179 179
179 179 179
179 179 179
179 179 179
179 179 179
179 179 179
179 179 179
179 179 179
179 179 179
179 179 179
179 179 179
179 179 179
179 179 179
179 179 179
179 179 179
179 179 179
179 179 179
179 179 179
179 179 179
179 179 179
179 179 179
179 179 179
179 179 179
179 179 179
179 179 179
179 179 179
179 179 179
179 179 179
179 179 179
179 179 179
179 179 179
179 179 179
179 179 179
179 179 179
179 179 179
179 179 179
179 179 179
179 179 179
179 179 179
179 179 179
179 179 179
179 179 179
179 179 179
179 179 179
179 179 179
179 179 179
179 179 179
11 89 165
18 85 178
23 81 186
29 77 192
34 73 196
39 70 200
44 67 203
49 63 206
54 60 208
58 57 209
63 54 210
68 51 211
72 49 212
77 46 212
81 43 212
85 40 211
90 38 210
94 35 209
98 33 208
103 30 207
107 28 205
111 25 203
115 23 200
119 21 197
123 18 194
127 16 190
131 14 186
135 12 181
139 10 176
143 7 169
147 5 161
151 4 149
179 179 179
179 179 179
179 179 179
179 179 179
179 179 179
179 179 179
179 179 179
179 179 179
179 179 179
179 179 179
179 179 179
179 179 179
179 179 179
179 179 179
179 179 179
179 179 179
179 179 179
179 179 179
179 179 179
179 179 179
179 179 179
179 179 179
179 179 179
179 179 179
179 179 179
179 179 179
179 179 179
179 179 179
179 179 179
179 179 179
179 179 179
179 179 179
179 179 179
179 179 179
179 179 179
179 179 179
179 179 179
179 179 179
179 179 179
179 179 179
179 179 179
179 179 179
179 179 179
179 179 179
179 179 179
179 179 179
179 179 179
179 179 179
179 179 179
179 179 179
179 179 179
179 179 179
179 179 179
179 179 179
179 179 179
179 179 179
179 179 179
179 179 179
179 179 179
179 179 179
179 179 179
179 179 179
179 179 179
179 179 179
179 179 179
179 179 179
179 179 179
179 179 179
179 179 179
179 179 179
179 179 179
179 179 179
179 179 179
179 179 179
179 179 179
179 179 179
179 179 179
179 179 179
179 179 179
179 179 179
179 179 179
179 179 179
179 179 179
179 179 179
179 179 179
179 179 179
179 179 179
179 179 179
179 179 179
179 179 179
179 179 179
179 179 179
179 179 179
179 179 179
179 179 179
179 179 179
179 179 179
179 179 179
179 179 179
179 179 179
179 179 179
179 179 179
179 179 179
179 179 179
179 179 179
179 179 179
179 179 179
179 179 179
179 179 179
179 179 179
179 179 179
179 179 179
179 179 179
179 179 179
179 179 179
179 179 179
179 179 179
179 179 179
179 179 179
179 179 179
179 179 179
179 179 179
179 179 179
179 179 179
179 179 179
179 179 179
179 179 179
179 179 179
179 179 179
179 179 179
179 179 179
179 179 179
179 179 179
179 179 179
179 179 179
179 179 179
179 179 179
179 179 179
179 179 179
179 179 179
179 179 179
179 179 179
179 179 179
179 179 179
179 179 179
179 179 179
179 179 179
179 179 179
179 179 179
179 179 179
179 179 179
179 179 179
179 179 179
179 179 179
179 179 179
179 179 179
179 179 179
179 179 179
179 179 179
179 179 179
0 0 0
0 0 0
0 0 0
0 0 0
0 0 0
0 0 0
0 0 0
0 0 0
0 0 0
0 0 0
0 0 0
0 0 0
0 0 0
0 0 0
0 0 0
0 0 0
0 0 0
0 0 0
0 0 0
0 0 0
0 0 0
0 0 0
0 0 0
0 0 0
0 0 0
0 0 0
0 0 0
0 0 0
0 0 0
0 0 0
0 0 0
0 0 0
0 0 0
0 0 0
0 0 0
0 0 0
0 0 0
0 0 0
0 0 0
0 0 0
0 0 0
0 0 0
0 0 0
0 0 0
0 0 0
0 0 0
0 0 0
0 0 0
0 0 0
0 0 0
0 0 0
0 0 0
0 0 0
0 0 0
0 0 0
0 0 0
0 0 0
0 0 0
0 0 0
0 0 0
0 0 0
0 0 0
0 0 0
0 0 0
0 0 0
0 0 0
0 0 0
0 0 0
0 0 0
0 0 0
0 0 0
0 0 0
0 0 0
0 0 0
0 0 0
0 0 0
0 0 0
0 0 0
0 0 0
0 0 0
0 0 0
0 0 0
0 0 0
0 0 0
0 0 0
0 0 0
0 0 0
0 0 0
0 0 0
0 0 0
0 0 0
0 0 0
0 0 0
0 0 0
0 0 0
0 0 0
0 0 0
0 0 0
0 0 0
0 0 0
0 0 0
0 0 0
0 0 0
0 0 0
179 179 179
179 179 179
179 179 179
179 179 179
179 179 179
179 179 179
179 179 179
179 179 179
179 179 179
179 179 179
179 179 179
179 179 179
179 179 179
179 179 179
179 179 179
179 179 179
179 179 179
179 179 179
179 179 179
179 179 179
179 179 179
179 179 179
179 179 179
179 179 179
179 179 179
179 179 179
179 179 179
179 179 179
179 179 179
179 179 179
179 179 179
179 179 179
179 179 179
179 179 179
179 179 179
179 179 179
179 179 179
179 179 179
179 179 179
179 179 179
179 179 179
179 179 179
179 179 179
179 179 179
179 179 179
179 179 179
179 179 179
179 179 179
179 179 179
179 179 179
179 179 179
179 179 179
179 179 179
179 179 179
179 179 179
179 179 179
179 179 179
179 179 179
179 179 179
179 179 179
179 179 179
179 179 179
179 179 179
179 179 179
179 179 179
179 179 179
179 179 179
179 179 179
179 179 179
179 179 179
179 179 179
179 179 179
179 179 179
179 179 179
179 179 179
179 179 179
179 179 179
179 179 179
179 179 179
179 179 179
179 179 179
179 179 179
179 179 179
179 179 179
179 179 179
179 179 179
179 179 179
179 179 179
179 179 179
179 179 179
179 179 179
179 179 179
179 179 179
179 179 179
179 179 179
179 179 179
179 179 179
179 179 179
179 179 179
179 179 179
179 179 179
179 179 179
179 179 179
10 92 163
16 87 176
22 83 185
27 79 191
33 76 196
38 72 200
43 69 203
48 66 206
52 62 208
57 59 210
62 56 211
66 53 212
71 50 212
75 48 213
79 45 213
84 42 212
88 39 212
92 37 211
97 34 210
101 32 208
105 29 206
109 27 204
113 24 202
117 22 199
122 20 196
126 17 193
130 15 189
134 13 184
138 11 179
141 9 173
145 7 166
149 5 156
153 3 141
179 179 179
179 179 179
179 179 179
179 179 179
179 179 179
179 179 179
179 179 179
179 179 179
179 179 179
179 179 179
179 179 179
179 179 179
179 179 179
179 179 179
179 179 179
179 179 179
179 179 179
179 179 179
179 179 179
179 179 179
179 179 179
179 179 179
179 179 179
179 179 179
179 179 179
179 179 179
179 179 179
179 179 179
179 179 179
179 179 179
179 179 179
179 179 179
179 179 179
179 179 179
179 179 179
179 179 179
179 179 179
179 179 179
179 179 179
179 179 179
179 179 179
179 179 179
179 179 179
179 179 179
179 179 179
179 179 179
179 179 179
179 179 179
179 179 179
179 179 179
179 179 179
179 179 179
179 179 179
179 179 179
179 179 179
179 179 179
179 179 179
179 179 179
179 179 179
179 179 179
179 179 179
179 179 179
179 179 179
179 179 179
179 179 179
179 179 179
179 179 179
179 179 179
179 179 179
179 179 179
179 179 179
179 179 179
179 179 179
179 179 179
179 179 179
179 179 179
179 179 179
179 179 179
179 179 179
179 179 179
179 179 179
179 179 179
179 179 179
179 179 179
179 179 179
179 179 179
179 179 179
179 179 179
179 179 179
179 179 179
179 179 179
179 179 179
179 179 179
179 179 179
179 179 179
179 179 179
179 179 179
179 179 179
179 179 179
179 179 179
179 179 179
179 179 179
179 179 179
179 179 179
179 179 179
179 179 179
179 179 179
179 179 179
179 179 179
179 179 179
179 179 179
179 179 179
179 179 179
179 179 179
179 179 179
179 179 179
179 179 179
179 179 179
179 179 179
179 179 179
179 179 179
179 179 179
179 179 179
179 179 179
179 179 179
179 179 179
179 179 179
179 179 179
179 179 179
179 179 179
179 179 179
179 179 179
179 179 179
179 179 179
179 179 179
179 179 179
179 179 179
179 179 179
179 179 179
179 179 179
179 179 179
179 179 179
179 179 179
179 179 179
179 179 179
179 179 179
179 179 179
179 179 179
179 179 179
179 179 179
179 179 179
179 179 179
179 179 179
179 179 179
179 179 179
179 179 179
179 179 179
179 179 179
179 179 179
179 179 179
179 179 179
179 179 179
0 0 0
0 0 0
0 0 0
0 0 0
0 0 0
0 0 0
0 0 0
0 0 0
0 0 0
0 0 0
0 0 0
0 0 0
0 0 0
0 0 0
0 0 0
0 0 0
0 0 0
0 0 0
0 0 0
0 0 0
0 0 0
0 0 0
0 0 0
0 0 0
0 0 0
0 0 0
0 0 0
0 0 0
0 0 0
0 0 0
0 0 0
0 0 0
0 0 0
0 0 0
0 0 0
0 0 0
0 0 0
0 0 0
0 0 0
0 0 0
0 0 0
0 0 0
0 0 0
0 0 0
0 0 0
0 0 0
0 0 0
0 0 0
0 0 0
0 0 0
0 0 0
0 0 0
0 0 0
0 0 0
0 0 0
0 0 0
0 0 0
0 0 0
0 0 0
0 0 0
0 0 0
0 0 0
0 0 0
0 0 0
0 0 0
0 0 0
0 0 0
0 0 0
0 0 0
0 0 0
0 0 0
0 0 0
0 0 0
0 0 0
0 0 0
0 0 0
0 0 0
0 0 0
0 0 0
0 0 0
0 0 0
0 0 0
0 0 0
0 0 0
0 0 0
0 0 0
0 0 0
0 0 0
0 0 0
0 0 0
0 0 0
0 0 0
0 0 0
0 0 0
0 0 0
0 0 0
0 0 0
0 0 0
0 0 0
0 0 0
179 179 179
179 179 179
179 179 179
179 179 179
179 179 179
179 179 179
179 179 179
179 179 179
179 179 179
179 179 179
179 179 179
179 179 179
179 179 179
179 179 179
179 179 179
179 179 179
179 179 179
179 179 179
179 179 179
179 179 179
179 179 179
179 179 179
179 179 179
179 179 179
179 179 179
179 179 179
179 179 179
179 179 179
179 179 179
179 179 179
179 179 179
179 179 179
179 179 179
179 179 179
179 179 179
179 179 179
179 179 179
179 179 179
179 179 179
179 179 179
179 179 179
179 179 179
179 179 179
179 179 179
179 179 179
179 179 179
179 179 179
179 179 179
179 179 179
179 179 179
179 179 179
179 179 179
179 179 179
179 179 179
179 179 179
179 179 179
179 179 179
179 179 179
179 179 179
179 179 179
179 179 179
179 179 179
179 179 179
179 179 179
179 179 179
179 179 179
179 179 179
179 179 179
179 179 179
179 179 179
179 179 179
179 179 179
179 179 179
179 179 179
179 179 179
179 179 179
179 179 179
179 179 179
179 179 179
179 179 179
179 179 179
179 179 179
179 179 179
179 179 179
179 179 179
179 179 179
179 179 179
179 179 179
179 179 179
179 179 179
179 179 179
179 179 179
179 179 179
179 179 179
179 179 179
179 179 179
179 179 179
179 179 179
179 179 179
179 179 179
179 179 179
179 179 179
179 179 179
179 179 179
8 94 161
15 90 175
21 86 184
26 82 191
31 78 196
36 75 200
41 71 203
46 68 206
51 65 208
56 61 210
60 58 211
65 55 212
69 52 213
74 49 213
78 47 213
82 44 213
87 41 213
91 38 212
95 36 211
99 33 209
103 31 208
108 28 206
112 26 204
116 23 201
120 21 198
124 19 195
128 17 191
132 14 187
136 12 182
140 10 177
144 8 170
147 6 162
151 4 151
179 179 179
179 179 179
179 179 179
179 179 179
179 179 179
179 179 179
179 179 179
179 179 179
179 179 179
179 179 179
179 179 179
179 179 179
179 179 179
179 179 179
179 179 179
179 179 179
179 179 179
179 179 179
179 179 179
179 179 179
179 179 179
179 179 179
179 179 179
179 179 179
179 179 179
179 179 179
179 179 179
179 179 179
179 179 179
179 179 179
179 179 179
179 179 179
179 179 179
179 179 179
179 179 179
179 179 179
179 179 179
179 179 179
179 179 179
179 179 179
179 179 179
179 179 179
179 179 179
179 179 179
179 179 179
179 179 179
179 179 179
179 179 179
179 179 179
179 179 179
179 179 179
179 179 179
179 179 179
179 179 179
179 179 179
179 179 179
179 179 179
179 179 179
179 179 179
179 179 179
179 179 179
179 179 179
179 179 179
179 179 179
179 179 179
179 179 179
179 179 179
179 179 179
179 179 179
179 179 179
179 179 179
179 179 179
179 179 179
179 179 179
179 179 179
179 179 179
179 179 179
179 179 179
179 179 179
179 179 179
179 179 179
179 179 179
179 179 179
179 179 179
179 179 179
179 179 179
179 179 179
179 179 179
179 179 179
179 179 179
179 179 179
179 179 179
179 179 179
179 179 179
179 179 179
179 179 179
179 179 179
179 179 179
179 179 179
179 179 179
179 179 179
179 179 179
179 179 179
179 179 179
179 179 179
179 179 179
179 179 179
179 179 179
179 179 179
179 179 179
179 179 179
179 179 179
179 179 179
179 179 179
179 179 179
179 179 179
179 179 179
179 179 179
179 179 179
179 179 179
179 179 179
179 179 179
179 179 179
179 179 179
179 179 179
179 179 179
179 179 179
179 179 179
179 179 179
179 179 179
179 179 179
179 179 179
179 179 179
179 179 179
179 179 179
179 179 179
179 179 179
179 179 179
179 179 179
179 179 179
179 179 179
179 179 179
179 179 179
179 179 179
179 179 179
179 179 179
179 179 179
179 179 179
179 179 179
179 179 179
179 179 179
179 179 179
179 179 179
179 179 179
179 179 179
179 179 179
179 179 179
179 179 179
179 179 179
179 179 179
179 179 179
179 179 179
179 179 179
179 179 179
179 179 179
0 0 0
0 0 0
0 0 0
0 0 0
0 0 0
0 0 0
0 0 0
0 0 0
0 0 0
0 0 0
0 0 0
0 0 0
0 0 0
0 0 0
0 0 0
0 0 0
0 0 0
0 0 0
0 0 0
0 0 0
0 0 0
0 0 0
0 0 0
0 0 0
0 0 0
0 0 0
0 0 0
0 0 0
0 0 0
0 0 0
0 0 0
0 0 0
0 0 0
0 0 0
0 0 0
0 0 0
0 0 0
0 0 0
0 0 0
0 0 0
0 0 0
0 0 0
0 0 0
0 0 0
0 0 0
0 0 0
0 0 0
0 0 0
0 0 0
0 0 0
0 0 0
0 0 0
0 0 0
0 0 0
0 0 0
0 0 0
0 0 0
0 0 0
0 0 0
0 0 0
0 0 0
0 0 0
0 0 0
0 0 0
0 0 0
0 0 0
0 0 0
0 0 0
0 0 0
0 0 0
0 0 0
0 0 0
0 0 0
0 0 0
0 0 0
0 0 0
0 0 0
0 0 0
0 0 0
0 0 0
0 0 0
0 0 0
0 0 0
0 0 0
0 0 0
0 0 0
0 0 0
0 0 0
0 0 0
0 0 0
0 0 0
0 0 0
0 0 0
0 0 0
0 0 0
0 0 0
179 179 179
179 179 179
179 179 179
179 179 179
179 179 179
179 179 179
179 179 179
179 179 179
179 179 179
179 179 179
179 179 179
179 179 179
179 179 179
179 179 179
179 179 179
179 179 179
179 179 179
179 179 179
179 179 179
179 179 179
179 179 179
179 179 179
179 179 179
179 179 179
179 179 179
179 179 179
179 179 179
179 179 179
179 179 179
179 179 179
179 179 179
179 179 179
179 179 179
179 179 179
179 179 179
179 179 179
179 179 179
179 179 179
179 179 179
179 179 179
179 179 179
179 179 179
179 179 179
179 179 179
179 179 179
179 179 179
179 179 179
179 179 179
179 179 179
179 179 179
179 179 179
179 179 179
179 179 179
179 179 179
179 179 179
179 179 179
179 179 179
179 179 179
179 179 179
179 179 179
179 179 179
179 179 179
179 179 179
179 179 179
179 179 179
179 179 179
179 179 179
179 179 179
179 179 179
179 179 179
179 179 179
179 179 179
179 179 179
179 179 179
179 179 179
179 179 179
179 179 179
179 179 179
179 179 179
179 179 179
179 179 179
179 179 179
179 179 179
179 179 179
179 179 179
179 179 179
179 179 179
179 179 179
179 179 179
179 179 179
179 179 179
179 179 179
179 179 179
179 179 179
179 179 179
179 179 179
179 179 179
179 179 179
179 179 179
179 179 179
179 179 179
179 179 179
179 179 179
179 179 179
179 179 179
7 97 158
14 92 174
20 88 184
25 84 191
30 80 196
35 77 200
40 73 204
45 70 206
50 67 209
54 63 211
59 60 212
63 57 213
68 54 214
72 51 214
76 48 214
81 46 214
85 43 214
89 40 213
94 38 212
98 35 211
102 32 209
106 30 207
110 27 205
114 25 203
118 23 200
122 20 197
126 18 194
130 16 190
134 13 185
138 11 180
142 9 174
146 7 167
109 248 165
153 3 143
179 179 179
179 179 179
179 179 179
179 179 179
179 179 179
179 179 179
179 179 179
179 179 179
179 179 179
179 179 179
179 179 179
179 179 179
179 179 179
179 179 179
179 179 179
179 179 179
179 179 179
179 179 179
179 179 179
179 179 179
179 179 179
179 179 179
179 179 179
179 179 179
179 179 179
179 179 179
179 179 179
179 179 179
179 179 179
179 179 179
179 179 179
179 179 179
179 179 179
179 179 179
179 179 179
179 179 179
179 179 179
179 179 179
179 179 179
179 179 179
179 179 179
179 179 179
179 179 179
179 179 179
179 179 179
179 179 179
179 179 179
179 179 179
179 179 179
179 179 179
179 179 179
179 179 179
179 179 179
179 179 179
179 179 179
179 179 179
179 179 179
179 179 179
179 179 179
179 179 179
179 179 179
179 179 179
179 179 179
179 179 179
179 179 179
179 179 179
179 179 179
179 179 179
179 179 179
179 179 179
179 179 179
179 179 179
179 179 179
179 179 179
179 179 179
179 179 179
179 179 179
179 179 179
179 179 179
179 179 179
179 179 179
179 179 179
179 179 179
179 179 179
179 179 179
179 179 179
179 179 179
179 179 179
179 179 179
179 179 179
179 179 179
179 179 179
179 179 179
179 179 179
179 179 179
179 179 179
179 179 179
179 179 179
179 179 179
179 179 179
179 179 179
179 179 179
179 179 179
179 179 179
179 179 179
179 179 179
179 179 179
179 179 179
179 179 179
179 179 179
179 179 179
179 179 179
179 179 179
179 179 179
179 179 179
179 179 179
179 179 179
179 179 179
179 179 179
179 179 179
179 179 179
179 179 179
179 179 179
179 179 179
179 179 179
179 179 179
179 179 179
179 179 179
179 179 179
179 179 179
179 179 179
179 179 179
179 179 179
179 179 179
179 179 179
179 179 179
179 179 179
179 179 179
179 179 179
179 179 179
179 179 179
179 179 179
179 179 179
179 179 179
179 179 179
179 179 179
179 179 179
179 179 179
179 179 179
179 179 179
179 179 179
179 179 179
179 179 179
179 179 179
179 179 179
179 179 179
179 179 179
179 179 179
179 179 179
179 179 179
179 179 179
179 179 179
179 179 179
179 179 179
179 179 179
179 179 179
179 179 179
0 0 0
0 0 0
0 0 0
0 0 0
0 0 0
0 0 0
0 0 0
0 0 0
0 0 0
0 0 0
0 0 0
0 0 0
0 0 0
0 0 0
0 0 0
0 0 0
0 0 0
0 0 0
0 0 0
0 0 0
0 0 0
0 0 0
0 0 0
0 0 0
0 0 0
0 0 0
0 0 0
0 0 0
0 0 0
0 0 0
0 0 0
0 0 0
0 0 0
0 0 0
0 0 0
0 0 0
0 0 0
0 0 0
0 0 0
0 0 0
0 0 0
0 0 0
0 0 0
0 0 0
0 0 0
0 0 0
0 0 0
0 0 0
0 0 0
0 0 0
0 0 0
0 0 0
0 0 0
0 0 0
0 0 0
0 0 0
0 0 0
0 0 0
0 0 0
0 0 0
0 0 0
0 0 0
0 0 0
0 0 0
0 0 0
0 0 0
0 0 0
0 0 0
0 0 0
0 0 0
0 0 0
0 0 0
0 0 0
0 0 0
0 0 0
0 0 0
0 0 0
0 0 0
0 0 0
0 0 0
0 0 0
0 0 0
0 0 0
0 0 0
0 0 0
0 0 0
0 0 0
0 0 0
0 0 0
0 0 0
0 0 0
0 0 0
179 179 179
179 179 179
179 179 179
179 179 179
179 179 179
179 179 179
179 179 179
179 179 179
179 179 179
179 179 179
179 179 179
179 179 179
179 179 179
179 179 179
179 179 179
179 179 179
179 179 179
179 179 179
179 179 179
179 179 179
179 179 179
179 179 179
179 179 179
179 179 179
179 179 179
179 179 179
179 179 179
179 179 179
179 179 179
179 179 179
179 179 179
179 179 179
179 179 179
179 179 179
179 179 179
179 179 179
179 179 179
179 179 179
179 179 179
179 179 179
179 179 179
179 179 179
179 179 179
179 179 179
179 179 179
179 179 179
179 179 179
179 179 179
179 179 179
179 179 179
179 179 179
179 179 179
179 179 179
179 179 179
179 179 179
179 179 179
179 179 179
179 179 179
179 179 179
179 179 179
179 179 179
179 179 179
179 179 179
179 179 179
179 179 179
179 179 179
179 179 179
179 179 179
179 179 179
179 179 179
179 179 179
179 179 179
179 179 179
179 179 179
179 179 179
179 179 179
179 179 179
179 179 179
179 179 179
179 179 179
179 179 179
179 179 179
179 179 179
179 179 179
179 179 179
179 179 179
179 179 179
179 179 179
179 179 179
179 179 179
179 179 179
179 179 179
179 179 179
179 179 179
179 179 179
179 179 179
179 179 179
179 179 179
179 179 179
179 179 179
179 179 179
179 179 179
179 179 179
179 179 179
179 179 179
179 179 179
6 100 155
13 95 173
247 158 160
24 87 190
29 83 196
236 167 183
39 75 204
44 72 207
48 69 209
53 65 211
57 62 212
62 59 214
66 56 214
71 53 215
75 50 215
79 47 215
84 45 215
88 42 214
92 39 213
96 37 212
100 34 211
104 31 209
108 29 207
113 26 205
117 24 202
121 22 199
125 19 196
129 17 192
132 15 188
136 13 183
140 10 178
144 8 171
148 6 163
151 4 152
155 2 128
179 179 179
179 179 179
179 179 179
179 179 179
179 179 179
179 179 179
179 179 179
179 179 179
179 179 179
179 179 179
179 179 179
179 179 179
179 179 179
179 179 179
179 179 179
179 179 179
179 179 179
179 179 179
179 179 179
179 179 179
179 179 179
179 179 179
179 179 179
179 179 179
179 179 179
179 179 179
179 179 179
179 179 179
179 179 179
179 179 179
179 179 179
179 179 179
179 179 179
179 179 179
179 179 179
179 179 179
179 179 179
179 179 179
179 179 179
179 179 179
179 179 179
179 179 179
179 179 179
179 179 179
179 179 179
179 179 179
179 179 179
179 179 179
179 179 179
179 179 179
179 179 179
179 179 179
179 179 179
179 179 179
179 179 179
179 179 179
179 179 179
179 179 179
179 179 179
179 179 179
179 179 179
179 179 179
179 179 179
179 179 179
179 179 179
179 179 179
179 179 179
179 179 179
179 179 179
179 179 179
179 179 179
179 179 179
179 179 179
179 179 179
179 179 179
179 179 179
179 179 179
179 179 179
179 179 179
179 179 179
179 179 179
179 179 179
179 179 179
179 179 179
179 179 179
179 179 179
179 179 179
179 179 179
179 179 179
179 179 179
179 179 179
179 179 179
179 179 179
179 179 179
179 179 179
179 179 179
179 179 179
179 179 179
179 179 179
179 179 179
179 179 179
179 179 179
179 179 179
179 179 179
179 179 179
179 179 179
179 179 179
179 179 179
179 179 179
179 179 179
179 179 179
179 179 179
179 179 179
179 179 179
179 179 179
179 179 179
179 179 179
179 179 179
179 179 179
179 179 179
179 179 179
179 179 179
179 179 179
179 179 179
179 179 179
179 179 179
179 179 179
179 179 179
179 179 179
179 179 179
179 179 179
179 179 179
179 179 179
179 179 179
179 179 179
179 179 179
179 179 179
179 179 179
179 179 179
179 179 179
179 179 179
179 179 179
179 179 179
179 179 179
179 179 179
179 179 179
179 179 179
179 179 179
179 179 179
179 179 179
179 179 179
179 179 179
179 179 179
179 179 179
179 179 179
179 179 179
179 179 179
179 179 179
179 179 179
179 179 179
179 179 179
179 179 179
179 179 179
179 179 179
179 179 179
179 179 179
179 179 179
179 179 179
179 179 179
0 0 0
0 0 0
0 0 0
0 0 0
0 0 0
0 0 0
0 0 0
0 0 0
0 0 0
0 0 0
0 0 0
0 0 0
0 0 0
0 0 0
0 0 0
0 0 0
0 0 0
0 0 0
0 0 0
0 0 0
0 0 0
0 0 0
0 0 0
0 0 0
0 0 0
0 0 0
0 0 0
0 0 0
0 0 0
0 0 0
0 0 0
0 0 0
0 0 0
0 0 0
0 0 0
0 0 0
0 0 0
0 0 0
0 0 0
0 0 0
0 0 0
0 0 0
0 0 0
0 0 0
0 0 0
0 0 0
0 0 0
0 0 0
0 0 0
0 0 0
0 0 0
0 0 0
0 0 0
0 0 0
0 0 0
0 0 0
0 0 0
0 0 0
0 0 0
0 0 0
0 0 0
0 0 0
0 0 0
0 0 0
0 0 0
0 0 0
0 0 0
0 0 0
0 0 0
0 0 0
0 0 0
0 0 0
0 0 0
0 0 0
0 0 0
0 0 0
0 0 0
0 0 0
0 0 0
0 0 0
0 0 0
0 0 0
0 0 0
0 0 0
0 0 0
0 0 0
0 0 0
0 0 0
179 179 179
179 179 179
179 179 179
179 179 179
179 179 179
179 179 179
179 179 179
179 179 179
179 179 179
179 179 179
179 179 179
179 179 179
179 179 179
179 179 179
179 179 179
179 179 179
179 179 179
179 179 179
179 179 179
179 179 179
179 179 179
179 179 179
179 179 179
179 179 179
179 179 179
179 179 179
179 179 179
179 179 179
179 179 179
179 179 179
179 179 179
179 179 179
179 179 179
179 179 179
179 179 179
179 179 179
179 179 179
179 179 179
179 179 179
179 179 179
179 179 179
179 179 179
179 179 179
179 179 179
179 179 179
179 179 179
179 179 179
179 179 179
179 179 179
179 179 179
179 179 179
179 179 179
179 179 179
179 179 179
179 179 179
179 179 179
179 179 179
179 179 179
179 179 179
179 179 179
179 179 179
179 179 179
179 179 179
179 179 179
179 179 179
179 179 179
179 179 179
179 179 179
179 179 179
179 179 179
179 179 179
179 179 179
179 179 179
179 179 179
179 179 179
179 179 179
179 179 179
179 179 179
179 179 179
179 179 179
179 179 179
179 179 179
179 179 179
179 179 179
179 179 179
179 179 179
179 179 179
179 179 179
179 179 179
179 179 179
179 179 179
179 179 179
179 179 179
179 179 179
179 179 179
179 179 179
179 179 179
179 179 179
179 179 179
179 179 179
179 179 179
179 179 179
179 179 179
179 179 179
179 179 179
179 179 179
179 179 179
4 103 151
11 97 172
17 93 183
23 89 190
28 85 196
33 81 200
38 78 204
42 74 207
47 71 209
52 67 211
56 64 213
61 61 214
65 58 215
69 55 216
74 52 216
78 49 216
82 46 216
86 44 215
91 41 214
95 38 213
99 36 212
103 33 210
107 30 208
111 28 206
115 26 204
119 23 201
123 21 198
127 18 194
131 16 190
135 14 186
139 12 181
142 9 175
146 7 167
150 5 158
103 251 152
179 179 179
179 179 179
179 179 179
179 179 179
179 179 179
179 179 179
179 179 179
179 179 179
179 179 179
179 179 179
179 179 179
179 179 179
179 179 179
179 179 179
179 179 179
179 179 179
179 179 179
179 179 179
179 179 179
179 179 179
179 179 179
179 179 179
179 179 179
179 179 179
179 179 179
179 179 179
179 179 179
179 179 179
179 179 179
179 179 179
179 179 179
179 179 179
179 179 179
179 179 179
179 179 179
179 179 179
179 179 179
179 179 179
179 179 179
179 179 179
179 179 179
179 179 179
179 179 179
179 179 179
179 179 179
179 179 179
179 179 179
179 179 179
179 179 179
179 179 179
179 179 179
179 179 179
179 179 179
179 179 179
179 179 179
179 179 179
179 179 179
179 179 179
179 179 179
179 179 179
179 179 179
179 179 179
179 179 179
179 179 179
179 179 179
179 179 179
179 179 179
179 179 179
179 179 179
179 179 179
179 179 179
179 179 179
179 179 179
179 179 179
179 179 179
179 179 179
179 179 179
179 179 179
179 179 179
179 179 179
179 179 179
179 179 179
179 179 179
179 179 179
179 179 179
179 179 179
179 179 179
179 179 179
179 179 179
179 179 179
179 179 179
179 179 179
179 179 179
179 179 179
179 179 179
179 179 179
179 179 179
179 179 179
179 179 179
179 179 179
179 179 179
179 179 179
179 179 179
179 179 179
179 179 179
179 179 179
179 179 179
179 179 179
179 179 179
179 179 179
179 179 179
179 179 179
179 179 179
179 179 179
179 179 179
179 179 179
179 179 179
179 179 179
179 179 179
179 179 179
179 179 179
179 179 179
179 179 179
179 179 179
179 179 179
179 179 179
179 179 179
179 179 179
179 179 179
179 179 179
179 179 179
179 179 179
179 179 179
179 179 179
179 179 179
179 179 179
179 179 179
179 179 179
179 179 179
179 179 179
179 179 179
179 179 179
179 179 179
179 179 179
179 179 179
179 179 179
179 179 179
179 179 179
179 179 179
179 179 179
179 179 179
179 179 179
179 179 179
179 179 179
179 179 179
179 179 179
179 179 179
179 179 179
179 179 179
179 179 179
179 179 179
179 179 179
179 179 179
179 179 179
179 179 179
179 179 179
179 179 179
179 179 179
179 179 179
179 179 179
179 179 179
179 179 179
0 0 0
0 0 0
0 0 0
0 0 0
0 0 0
0 0 0
0 0 0
0 0 0
0 0 0
0 0 0
0 0 0
0 0 0
0 0 0
0 0 0
0 0 0
0 0 0
0 0 0
0 0 0
0 0 0
0 0 0
0 0 0
0 0 0
0 0 0
0 0 0
0 0 0
0 0 0
0 0 0
0 0 0
0 0 0
0 0 0
0 0 0
0 0 0
0 0 0
0 0 0
0 0 0
0 0 0
0 0 0
0 0 0
0 0 0
0 0 0
0 0 0
0 0 0
0 0 0
0 0 0
0 0 0
0 0 0
0 0 0
0 0 0
0 0 0
0 0 0
0 0 0
0 0 0
0 0 0
0 0 0
0 0 0
0 0 0
0 0 0
0 0 0
0 0 0
0 0 0
0 0 0
0 0 0
0 0 0
0 0 0
0 0 0
0 0 0
0 0 0
0 0 0
0 0 0
0 0 0
0 0 0
0 0 0
0 0 0
0 0 0
0 0 0
0 0 0
0 0 0
0 0 0
0 0 0
0 0 0
0 0 0
0 0 0
0 0 0
0 0 0
179 179 179
179 179 179
179 179 179
179 179 179
179 179 179
179 179 179
179 179 179
179 179 179
179 179 179
179 179 179
179 179 179
179 179 179
179 179 179
179 179 179
179 179 179
179 179 179
179 179 179
179 179 179
179 179 179
179 179 179
179 179 179
179 179 179
179 179 179
179 179 179
179 179 179
179 179 179
179 179 179
179 179 179
179 179 179
179 179 179
179 179 179
179 179 179
179 179 179
179 179 179
179 179 179
179 179 179
179 179 179
179 179 179
179 179 179
179 179 179
179 179 179
179 179 179
179 179 179
179 179 179
179 179 179
179 179 179
179 179 179
179 179 179
179 179 179
179 179 179
179 179 179
179 179 179
179 179 179
179 179 179
179 179 179
179 179 179
179 179 179
179 179 179
179 179 179
179 179 179
179 179 179
179 179 179
179 179 179
179 179 179
179 179 179
179 179 179
179 179 179
179 179 179
179 179 179
179 179 179
179 179 179
179 179 179
179 179 179
179 179 179
179 179 179
179 179 179
179 179 179
179 179 179
179 179 179
179 179 179
179 179 179
179 179 179
179 179 179
179 179 179
179 179 179
179 179 179
179 179 179
179 179 179
179 179 179
179 179 179
179 179 179
179 179 179
179 179 179
179 179 179
179 179 179
179 179 179
179 179 179
179 179 179
179 179 179
179 179 179
179 179 179
179 179 179
179 179 179
179 179 179
179 179 179
179 179 179
179 179 179
179 179 179
179 179 179
10 100 171
16 95 182
22 91 190
27 87 196
32 84 200
37 80 204
41 76 207
46 73 210
51 70 212
55 66 213
59 63 215
64 60 216
68 57 216
72 54 217
77 51 217
81 48 216
85 45 216
89 43 215
93 40 214
97 37 213
102 35 212
106 32 210
110 29 208
114 27 205
117 25 203
121 22 200
125 20 197
129 17 193
133 15 189
137 13 184
141 11 178
145 9 171
148 6 163
152 4 152
155 3 131
179 179 179
179 179 179
179 179 179
179 179 179
179 179 179
179 179 179
179 179 179
179 179 179
179 179 179
179 179 179
179 179 179
179 179 179
179 179 179
179 179 179
179 179 179
179 179 179
179 179 179
179 179 179
179 179 179
179 179 179
179 179 179
179 179 179
179 179 179
179 179 179
179 179 179
179 179 179
179 179 179
179 179 179
179 179 179
179 179 179
179 179 179
179 179 179
179 179 179
179 179 179
179 179 179
179 179 179
179 179 179
179 179 179
179 179 179
179 179 179
179 179 179
179 179 179
179 179 179
179 179 179
179 179 179
179 179 179
179 179 179
179 179 179
179 179 179
179 179 179
179 179 179
179 179 179
179 179 179
179 179 179
179 179 179
179 179 179
179 179 179
179 179 179
179 179 179
179 179 179
179 179 179
179 179 179
179 179 179
179 179 179
179 179 179
179 179 179
179 179 179
179 179 179
179 179 179
179 179 179
179 179 179
179 179 179
179 179 179
179 179 179
179 179 179
179 179 179
179 179 179
179 179 179
179 179 179
179 179 179
179 179 179
179 179 179
179 179 179
179 179 179
179 179 179
179 179 179
179 179 179
179 179 179
179 179 179
179 179 179
179 179 179
179 179 179
179 179 179
179 179 179
179 179 179
179 179 179
179 179 179
179 179 179
179 179 179
179 179 179
179 179 179
179 179 179
179 179 179
179 179 179
179 179 179
179 179 179
179 179 179
179 179 179
179 179 179
179 179 179
179 179 179
179 179 179
179 179 179
179 179 179
179 179 179
179 179 179
179 179 179
179 179 179
179 179 179
179 179 179
179 179 179
179 179 179
179 179 179
179 179 179
179 179 179
179 179 179
179 179 179
179 179 179
179 179 179
179 179 179
179 179 179
179 179 179
179 179 179
179 179 179
179 179 179
179 179 179
179 179 179
179 179 179
179 179 179
179 179 179
179 179 179
179 179 179
179 179 179
179 179 179
179 179 179
179 179 179
179 179 179
179 179 179
179 179 179
179 179 179
179 179 179
179 179 179
179 179 179
179 179 179
179 179 179
179 179 179
179 179 179
179 179 179
179 179 179
179 179 179
179 179 179
179 179 179
179 179 179
179 179 179
179 179 179
179 179 179
179 179 179
179 179 179
179 179 179
179 179 179
179 179 179
179 179 179
179 179 179
179 179 179
0 0 0
0 0 0
0 0 0
0 0 0
0 0 0
0 0 0
0 0 0
0 0 0
0 0 0
0 0 0
0 0 0
0 0 0
0 0 0
0 0 0
0 0 0
0 0 0
0 0 0
0 0 0
0 0 0
0 0 0
0 0 0
0 0 0
0 0 0
0 0 0
0 0 0
0 0 0
0 0 0
0 0 0
0 0 0
0 0 0
0 0 0
0 0 0
0 0 0
0 0 0
0 0 0
0 0 0
0 0 0
0 0 0
0 0 0
0 0 0
0 0 0
0 0 0
0 0 0
0 0 0
0 0 0
0 0 0
0 0 0
0 0 0
0 0 0
0 0 0
0 0 0
0 0 0
0 0 0
0 0 0
0 0 0
0 0 0
0 0 0
0 0 0
0 0 0
0 0 0
0 0 0
0 0 0
0 0 0
0 0 0
0 0 0
0 0 0
0 0 0
0 0 0
0 0 0
0 0 0
0 0 0
0 0 0
0 0 0
0 0 0
0 0 0
0 0 0
0 0 0
0 0 0
0 0 0
0 0 0
179 179 179
179 179 179
179 179 179
179 179 179
179 179 179
179 179 179
179 179 179
179 179 179
179 179 179
179 179 179
179 179 179
179 179 179
179 179 179
179 179 179
179 179 179
179 179 179
179 179 179
179 179 179
179 179 179
179 179 179
179 179 179
179 179 179
179 179 179
179 179 179
179 179 179
179 179 179
179 179 179
179 179 179
179 179 179
179 179 179
179 179 179
179 179 179
179 179 179
179 179 179
179 179 179
179 179 179
179 179 179
179 179 179
179 179 179
179 179 179
179 179 179
179 179 179
179 179 179
179 179 179
179 179 179
179 179 179
179 179 179
179 179 179
179 179 179
179 179 179
179 179 179
179 179 179
179 179 179
179 179 179
179 179 179
179 179 179
179 179 179
179 179 179
179 179 179
179 179 179
179 179 179
179 179 179
179 179 179
179 179 179
179 179 179
179 179 179
179 179 179
179 179 179
179 179 179
179 179 179
179 179 179
179 179 179
179 179 179
179 179 179
179 179 179
179 179 179
179 179 179
179 179 179
179 179 179
179 179 179
179 179 179
179 179 179
179 179 179
179 179 179
179 179 179
179 179 179
179 179 179
179 179 179
179 179 179
179 179 179
179 179 179
179 179 179
179 179 179
179 179 179
179 179 179
179 179 179
179 179 179
179 179 179
179 179 179
179 179 179
179 179 179
179 179 179
179 179 179
179 179 179
179 179 179
179 179 179
179 179 179
179 179 179
179 179 179
179 179 179
10 102 170
15 98 182
21 94 190
26 90 196
31 86 200
36 82 204
40 78 207
45 75 210
49 72 212
54 68 214
58 65 215
63 62 216
67 59 217
71 56 217
196 192 214
80 50 217
84 47 217
88 44 216
92 41 215
96 39 214
100 36 213
104 34 211
108 31 209
112 28 207
116 26 205
120 24 202
124 21 199
128 19 195
132 16 191
135 14 186
139 12 181
143 10 175
147 8 168
150 5 159
154 3 145
179 179 179
179 179 179
179 179 179
179 179 179
179 179 179
179 179 179
179 179 179
179 179 179
179 179 179
179 179 179
179 179 179
179 179 179
179 179 179
179 179 179
179 179 179
179 179 179
179 179 179
179 179 179
179 179 179
179 179 179
179 179 179
179 179 179
179 179 179
179 179 179
179 179 179
179 179 179
179 179 179
179 179 179
179 179 179
179 179 179
179 179 179
179 179 179
179 179 179
179 179 179
179 179 179
179 179 179
179 179 179
179 179 179
179 179 179
179 179 179
179 179 179
179 179 179
179 179 179
179 179 179
179 179 179
179 179 179
179 179 179
179 179 179
179 179 179
179 179 179
179 179 179
179 179 179
179 179 179
179 179 179
179 179 179
179 179 179
179 179 179
179 179 179
179 179 179
179 179 179
179 179 179
179 179 179
179 179 179
179 179 179
179 179 179
179 179 179
179 179 179
179 179 179
179 179 179
179 179 179
179 179 179
179 179 179
179 179 179
179 179 179
179 179 179
179 179 179
179 179 179
179 179 179
179 179 179
179 179 179
179 179 179
179 179 179
179 179 179
179 179 179
179 179 179
179 179 179
179 179 179
179 179 179
179 179 179
179 179 179
179 179 179
179 179 179
179 179 179
179 179 179
179 179 179
179 179 179
179 179 179
179 179 179
179 179 179
179 179 179
179 179 179
179 179 179
179 179 179
179 179 179
179 179 179
179 179 179
179 179 179
179 179 179
179 179 179
179 179 179
179 179 179
179 179 179
179 179 179
179 179 179
179 179 179
179 179 179
179 179 179
179 179 179
179 179 179
179 179 179
179 179 179
179 179 179
179 179 179
179 179 179
179 179 179
179 179 179
179 179 179
179 179 179
179 179 179
179 179 179
179 179 179
179 179 179
179 179 179
179 179 179
179 179 179
179 179 179
179 179 179
179 179 179
179 179 179
179 179 179
179 179 179
179 179 179
179 179 179
179 179 179
179 179 179
179 179 179
179 179 179
179 179 179
179 179 179
179 179 179
179 179 179
179 179 179
179 179 179
179 179 179
179 179 179
179 179 179
179 179 179
179 179 179
179 179 179
179 179 179
179 179 179
179 179 179
179 179 179
179 179 179
179 179 179
179 179 179
179 179 179
179 179 179
179 179 179
179 179 179
179 179 179
179 179 179
179 179 179
179 179 179
179 179 179
179 179 179
179 179 179
179 179 179
0 0 0
0 0 0
0 0 0
0 0 0
0 0 0
0 0 0
0 0 0
0 0 0
0 0 0
0 0 0
0 0 0
0 0 0
0 0 0
0 0 0
0 0 0
0 0 0
0 0 0
0 0 0
0 0 0
0 0 0
0 0 0
0 0 0
0 0 0
0 0 0
0 0 0
0 0 0
0 0 0
0 0 0
0 0 0
0 0 0
0 0 0
0 0 0
0 0 0
0 0 0
0 0 0
0 0 0
0 0 0
0 0 0
0 0 0
0 0 0
0 0 0
0 0 0
0 0 0
0 0 0
0 0 0
0 0 0
0 0 0
0 0 0
0 0 0
0 0 0
0 0 0
0 0 0
0 0 0
0 0 0
0 0 0
0 0 0
0 0 0
0 0 0
0 0 0
0 0 0
0 0 0
0 0 0
0 0 0
0 0 0
0 0 0
0 0 0
0 0 0
0 0 0
0 0 0
0 0 0
0 0 0
0 0 0
0 0 0
0 0 0
179 179 179
179 179 179
179 179 179
179 179 179
179 179 179
179 179 179
179 179 179
179 179 179
179 179 179
179 179 179
179 179 179
179 179 179
179 179 179
179 179 179
179 179 179
179 179 179
179 179 179
179 179 179
179 179 179
179 179 179
179 179 179
179 179 179
179 179 179
179 179 179
179 179 179
179 179 179
179 179 179
179 179 179
179 179 179
179 179 179
179 179 179
179 179 179
179 179 179
179 179 179
179 179 179
179 179 179
179 179 179
179 179 179
179 179 179
179 179 179
179 179 179
179 179 179
179 179 179
179 179 179
179 179 179
179 179 179
179 179 179
179 179 179
179 179 179
179 179 179
179 179 179
179 179 179
179 179 179
179 179 179
179 179 179
179 179 179
179 179 179
179 179 179
179 179 179
179 179 179
179 179 179
179 179 179
179 179 179
179 179 179
179 179 179
179 179 179
179 179 179
179 179 179
179 179 179
179 179 179
179 179 179
179 179 179
179 179 179
179 179 179
179 179 179
179 179 179
179 179 179
179 179 179
179 179 179
179 179 179
179 179 179
179 179 179
179 179 179
179 179 179
179 179 179
179 179 179
179 179 179
179 179 179
179 179 179
179 179 179
179 179 179
179 179 179
179 179 179
179 179 179
179 179 179
179 179 179
179 179 179
179 179 179
179 179 179
179 179 179
179 179 179
179 179 179
179 179 179
179 179 179
179 179 179
179 179 179
179 179 179
179 179 179
179 179 179
179 179 179
179 179 179
179 179 179
9 105 169
15 100 181
20 96 189
244 154 174
30 88 200
35 84 204
39 81 208
44 77 210
49 74 213
53 70 214
57 67 216
62 64 217
66 61 218
70 58 218
74 55 218
78 52 218
83 49 218
87 46 217
91 43 216
95 40 215
99 38 214
103 35 213
107 32 211
111 30 209
115 27 206
119 25 204
142 227 207
126 20 197
130 18 193
134 15 189
138 13 184
141 11 178
145 9 172
149 7 164
152 5 153
156 3 132
179 179 179
179 179 179
179 179 179
179 179 179
179 179 179
179 179 179
179 179 179
179 179 179
179 179 179
179 179 179
179 179 179
179 179 179
179 179 179
179 179 179
179 179 179
179 179 179
179 179 179
179 179 179
179 179 179
179 179 179
179 179 179
179 179 179
179 179 179
179 179 179
179 179 179
179 179 179
179 179 179
179 179 179
179 179 179
179 179 179
179 179 179
179 179 179
179 179 179
179 179 179
179 179 179
179 179 179
179 179 179
179 179 179
179 179 179
179 179 179
179 179 179
179 179 179
179 179 179
179 179 179
179 179 179
179 179 179
179 179 179
179 179 179
179 179 179
179 179 179
179 179 179
179 179 179
179 179 179
179 179 179
179 179 179
179 179 179
179 179 179
179 179 179
179 179 179
179 179 179
179 179 179
179 179 179
179 179 179
179 179 179
179 179 179
179 179 179
179 179 179
179 179 179
179 179 179
179 179 179
179 179 179
179 179 179
179 179 179
179 179 179
179 179 179
179 179 179
179 179 179
179 179 179
179 179 179
179 179 179
179 179 179
179 179 179
179 179 179
179 179 179
179 179 179
179 179 179
179 179 179
179 179 179
179 179 179
179 179 179
179 179 179
179 179 179
179 179 179
179 179 179
179 179 179
179 179 179
179 179 179
179 179 179
179 179 179
179 179 179
179 179 179
179 179 179
179 179 179
179 179 179
179 179 179
179 179 179
179 179 179
179 179 179
179 179 179
179 179 179
179 179 179
179 179 179
179 179 179
179 179 179
179 179 179
179 179 179
179 179 179
179 179 179
179 179 179
179 179 179
179 179 179
179 179 179
179 179 179
179 179 179
179 179 179
179 179 179
179 179 179
179 179 179
179 179 179
179 179 179
179 179 179
179 179 179
179 179 179
179 179 179
179 179 179
179 179 179
179 179 179
179 179 179
179 179 179
179 179 179
179 179 179
179 179 179
179 179 179
179 179 179
179 179 179
179 179 179
179 179 179
179 179 179
179 179 179
179 179 179
179 179 179
179 179 179
179 179 179
179 179 179
179 179 179
179 179 179
179 179 179
179 179 179
179 179 179
179 179 179
179 179 179
179 179 179
179 179 179
179 179 179
179 179 179
179 179 179
179 179 179
179 179 179
179 179 179
179 179 179
179 179 179
179 179 179
179 179 179
179 179 179
179 179 179
179 179 179
179 179 179
179 179 179
179 179 179
179 179 179
179 179 179
0 0 0
0 0 0
0 0 0
0 0 0
0 0 0
0 0 0
0 0 0
0 0 0
0 0 0
0 0 0
0 0 0
0 0 0
0 0 0
0 0 0
0 0 0
0 0 0
0 0 0
0 0 0
0 0 0
0 0 0
0 0 0
0 0 0
0 0 0
0 0 0
0 0 0
0 0 0
0 0 0
0 0 0
0 0 0
0 0 0
0 0 0
0 0 0
0 0 0
0 0 0
0 0 0
0 0 0
0 0 0
0 0 0
0 0 0
0 0 0
0 0 0
0 0 0
0 0 0
0 0 0
0 0 0
0 0 0
0 0 0
0 0 0
0 0 0
0 0 0
0 0 0
0 0 0
0 0 0
0 0 0
0 0 0
0 0 0
0 0 0
0 0 0
0 0 0
0 0 0
0 0 0
0 0 0
0 0 0
0 0 0
0 0 0
0 0 0
0 0 0
0 0 0
179 179 179
179 179 179
179 179 179
179 179 179
179 179 179
179 179 179
179 179 179
179 179 179
179 179 179
179 179 179
179 179 179
179 179 179
179 179 179
179 179 179
179 179 179
179 179 179
179 179 179
179 179 179
179 179 179
179 179 179
179 179 179
179 179 179
179 179 179
179 179 179
179 179 179
179 179 179
179 179 179
179 179 179
179 179 179
179 179 179
179 179 179
179 179 179
179 179 179
179 179 179
179 179 179
179 179 179
179 179 179
179 179 179
179 179 179
179 179 179
179 179 179
179 179 179
179 179 179
179 179 179
179 179 179
179 179 179
179 179 179
179 179 179
179 179 179
179 179 179
179 179 179
179 179 179
179 179 179
179 179 179
179 179 179
179 179 179
179 179 179
179 179 179
179 179 179
179 179 179
179 179 179
179 179 179
179 179 179
179 179 179
179 179 179
179 179 179
179 179 179
179 179 179
179 179 179
179 179 179
179 179 179
179 179 179
179 179 179
179 179 179
179 179 179
179 179 179
179 179 179
179 179 179
179 179 179
179 179 179
179 179 179
179 179 179
179 179 179
179 179 179
179 179 179
179 179 179
179 179 179
179 179 179
179 179 179
179 179 179
179 179 179
179 179 179
179 179 179
179 179 179
179 179 179
179 179 179
179 179 179
179 179 179
179 179 179
179 179 179
179 179 179
179 179 179
179 179 179
179 179 179
179 179 179
179 179 179
179 179 179
179 179 179
179 179 179
179 179 179
179 179 179
179 179 179
179 179 179
179 179 179
8 107 169
14 103 181
19 98 189
24 94 195
29 90 200
34 86 205
39 83 208
43 79 211
48 76 213
52 72 215
56 69 216
61 66 217
65 63 218
69 59 219
73 56 219
77 53 219
81 50 219
86 48 218
90 45 217
94 42 217
98 39 215
102 37 214
105 34 212
109 31 210
113 29 208
117 26 205
121 24 202
125 21 199
129 19 195
132 17 191
136 14 187
140 12 182
144 10 175
147 8 168
151 6 159
154 4 145
179 179 179
179 179 179
179 179 179
179 179 179
179 179 179
179 179 179
179 179 179
179 179 179
179 179 179
179 179 179
179 179 179
179 179 179
179 179 179
179 179 179
179 179 179
179 179 179
179 179 179
179 179 179
179 179 179
179 179 179
179 179 179
179 179 179
179 179 179
179 179 179
179 179 179
179 179 179
179 179 179
179 179 179
179 179 179
179 179 179
179 179 179
179 179 179
179 179 179
179 179 179
179 179 179
179 179 179
179 179 179
179 179 179
179 179 179
179 179 179
179 179 179
179 179 179
179 179 179
179 179 179
179 179 179
179 179 179
179 179 179
179 179 179
179 179 179
179 179 179
179 179 179
179 179 179
179 179 179
179 179 179
179 179 179
179 179 179
179 179 179
179 179 179
179 179 179
179 179 179
179 179 179
179 179 179
179 179 179
179 179 179
179 179 179
179 179 179
179 179 179
179 179 179
179 179 179
179 179 179
179 179 179
179 179 179
179 179 179
179 179 179
179 179 179
179 179 179
179 179 179
179 179 179
179 179 179
179 179 179
179 179 179
179 179 179
179 179 179
179 179 179
179 179 179
179 179 179
179 179 179
179 179 179
179 179 179
179 179 179
179 179 179
179 179 179
179 179 179
179 179 179
179 179 179
179 179 179
179 179 179
179 179 179
179 179 179
179 179 179
179 179 179
179 179 179
179 179 179
179 179 179
179 179 179
179 179 179
179 179 179
179 179 179
179 179 179
179 179 179
179 179 179
179 179 179
179 179 179
179 179 179
179 179 179
179 179 179
179 179 179
179 179 179
179 179 179
179 179 179
179 179 179
179 179 179
179 179 179
179 179 179
179 179 179
179 179 179
179 179 179
179 179 179
179 179 179
179 179 179
179 179 179
179 179 179
179 179 179
179 179 179
179 179 179
179 179 179
179 179 179
179 179 179
179 179 179
179 179 179
179 179 179
179 179 179
179 179 179
179 179 179
179 179 179
179 179 179
179 179 179
179 179 179
179 179 179
179 179 179
179 179 179
179 179 179
179 179 179
179 179 179
179 179 179
179 179 179
179 179 179
179 179 179
179 179 179
179 179 179
179 179 179
179 179 179
179 179 179
179 179 179
179 179 179
179 179 179
179 179 179
179 179 179
179 179 179
179 179 179
179 179 179
179 179 179
179 179 179
179 179 179
179 179 179
179 179 179
179 179 179
179 179 179
179 179 179
179 179 179
179 179 179
179 179 179
179 179 179
179 179 179
179 179 179
0 0 0
0 0 0
0 0 0
0 0 0
0 0 0
0 0 0
0 0 0
0 0 0
0 0 0
0 0 0
0 0 0
0 0 0
0 0 0
0 0 0
0 0 0
0 0 0
0 0 0
0 0 0
0 0 0
0 0 0
0 0 0
0 0 0
0 0 0
0 0 0
0 0 0
0 0 0
0 0 0
0 0 0
0 0 0
0 0 0
0 0 0
0 0 0
0 0 0
0 0 0
0 0 0
0 0 0
0 0 0
0 0 0
0 0 0
0 0 0
0 0 0
0 0 0
0 0 0
0 0 0
0 0 0
0 0 0
0 0 0
0 0 0
0 0 0
0 0 0
0 0 0
0 0 0
0 0 0
0 0 0
0 0 0
0 0 0
0 0 0
0 0 0
0 0 0
0 0 0
0 0 0
0 0 0
179 179 179
179 179 179
179 179 179
179 179 179
179 179 179
179 179 179
179 179 179
179 179 179
179 179 179
179 179 179
179 179 179
179 179 179
179 179 179
179 179 179
179 179 179
179 179 179
179 179 179
179 179 179
179 179 179
179 179 179
179 179 179
179 179 179
179 179 179
179 179 179
179 179 179
179 179 179
179 179 179
179 179 179
179 179 179
179 179 179
179 179 179
179 179 179
179 179 179
179 179 179
179 179 179
179 179 179
179 179 179
179 179 179
179 179 179
179 179 179
179 179 179
179 179 179
179 179 179
179 179 179
179 179 179
179 179 179
179 179 179
179 179 179
179 179 179
179 179 179
179 179 179
179 179 179
179 179 179
179 179 179
179 179 179
179 179 179
179 179 179
179 179 179
179 179 179
179 179 179
179 179 179
179 179 179
179 179 179
179 179 179
179 179 179
179 179 179
179 179 179
179 179 179
179 179 179
179 179 179
179 179 179
179 179 179
179 179 179
179 179 179
179 179 179
179 179 179
179 179 179
179 179 179
179 179 179
179 179 179
179 179 179
179 179 179
179 179 179
179 179 179
179 179 179
179 179 179
179 179 179
179 179 179
179 179 179
179 179 179
179 179 179
179 179 179
179 179 179
179 179 179
179 179 179
179 179 179
179 179 179
179 179 179
179 179 179
179 179 179
179 179 179
179 179 179
179 179 179
179 179 179
179 179 179
179 179 179
179 179 179
179 179 179
179 179 179
179 179 179
179 179 179
179 179 179
179 179 179
179 179 179
179 179 179
179 179 179
7 110 168
13 105 181
19 101 189
24 96 196
29 92 201
33 88 205
38 85 208
42 81 211
47 78 213
51 74 215
55 71 217
60 68 218
64 64 219
68 61 219
72 58 220
76 55 220
80 52 220
84 49 219
88 46 218
92 44 218
96 41 216
100 38 215
104 35 213
108 33 211
112 30 209
116 28 207
120 25 204
123 23 201
127 20 198
131 18 194
135 16 189
139 13 184
142 11 179
146 9 172
150 7 164
153 5 153
156 3 131
179 179 179
179 179 179
179 179 179
179 179 179
179 179 179
179 179 179
179 179 179
179 179 179
179 179 179
179 179 179
179 179 179
179 179 179
179 179 179
179 179 179
179 179 179
179 179 179
179 179 179
179 179 179
179 179 179
179 179 179
179 179 179
179 179 179
179 179 179
179 179 179
179 179 179
179 179 179
179 179 179
179 179 179
179 179 179
179 179 179
179 179 179
179 179 179
179 179 179
179 179 179
179 179 179
179 179 179
179 179 179
179 179 179
179 179 179
179 179 179
179 179 179
179 179 179
179 179 179
179 179 179
179 179 179
179 179 179
179 179 179
179 179 179
179 179 179
179 179 179
179 179 179
179 179 179
179 179 179
179 179 179
179 179 179
179 179 179
179 179 179
179 179 179
179 179 179
179 179 179
179 179 179
179 179 179
179 179 179
179 179 179
179 179 179
179 179 179
179 179 179
179 179 179
179 179 179
179 179 179
179 179 179
179 179 179
179 179 179
179 179 179
179 179 179
179 179 179
179 179 179
179 179 179
179 179 179
179 179 179
179 179 179
179 179 179
179 179 179
179 179 179
179 179 179
179 179 179
179 179 179
179 179 179
179 179 179
179 179 179
179 179 179
179 179 179
179 179 179
179 179 179
179 179 179
179 179 179
179 179 179
179 179 179
179 179 179
179 179 179
179 179 179
179 179 179
179 179 179
179 179 179
179 179 179
179 179 179
179 179 179
179 179 179
179 179 179
179 179 179
179 179 179
179 179 179
179 179 179
179 179 179
179 179 179
179 179 179
179 179 179
179 179 179
179 179 179
179 179 179
179 179 179
179 179 179
179 179 179
179 179 179
179 179 179
179 179 179
179 179 179
179 179 179
179 179 179
179 179 179
179 179 179
179 179 179
179 179 179
179 179 179
179 179 179
179 179 179
179 179 179
179 179 179
179 179 179
179 179 179
179 179 179
179 179 179
179 179 179
179 179 179
179 179 179
179 179 179
179 179 179
179 179 179
179 179 179
179 179 179
179 179 179
179 179 179
179 179 179
179 179 179
179 179 179
179 179 179
179 179 179
179 179 179
179 179 179
179 179 179
179 179 179
179 179 179
179 179 179
179 179 179
179 179 179
179 179 179
179 179 179
179 179 179
179 179 179
179 179 179
179 179 179
179 179 179
179 179 179
179 179 179
179 179 179
179 179 179
179 179 179
179 179 179
179 179 179
179 179 179
179 179 179
179 179 179
179 179 179
179 179 179
179 179 179
179 179 179
179 179 179
179 179 179
179 179 179
0 0 0
0 0 0
0 0 0
0 0 0
0 0 0
0 0 0
0 0 0
0 0 0
0 0 0
0 0 0
0 0 0
0 0 0
0 0 0
0 0 0
0 0 0
0 0 0
0 0 0
0 0 0
0 0 0
0 0 0
0 0 0
0 0 0
0 0 0
0 0 0
0 0 0
0 0 0
0 0 0
0 0 0
0 0 0
0 0 0
0 0 0
0 0 0
0 0 0
0 0 0
0 0 0
0 0 0
0 0 0
0 0 0
0 0 0
0 0 0
0 0 0
0 0 0
0 0 0
0 0 0
0 0 0
0 0 0
0 0 0
0 0 0
0 0 0
0 0 0
0 0 0
0 0 0
0 0 0
0 0 0
179 179 179
179 179 179
179 179 179
179 179 179
179 179 179
179 179 179
179 179 179
179 179 179
179 179 179
179 179 179
179 179 179
179 179 179
179 179 179
179 179 179
179 179 179
179 179 179
179 179 179
179 179 179
179 179 179
179 179 179
179 179 179
179 179 179
179 179 179
179 179 179
179 179 179
179 179 179
179 179 179
179 179 179
179 179 179
179 179 179
179 179 179
179 179 179
179 179 179
179 179 179
179 179 179
179 179 179
179 179 179
179 179 179
179 179 179
179 179 179
179 179 179
179 179 179
179 179 179
179 179 179
179 179 179
179 179 179
179 179 179
179 179 179
179 179 179
179 179 179
179 179 179
179 179 179
179 179 179
179 179 179
179 179 179
179 179 179
179 179 179
179 179 179
179 179 179
179 179 179
179 179 179
179 179 179
179 179 179
179 179 179
179 179 179
179 179 179
179 179 179
179 179 179
179 179 179
179 179 179
179 179 179
179 179 179
179 179 179
179 179 179
179 179 179
179 179 179
179 179 179
179 179 179
179 179 179
179 179 179
179 179 179
179 179 179
179 179 179
179 179 179
179 179 179
179 179 179
179 179 179
179 179 179
179 179 179
179 179 179
179 179 179
179 179 179
179 179 179
179 179 179
179 179 179
179 179 179
179 179 179
179 179 179
179 179 179
179 179 179
179 179 179
179 179 179
179 179 179
179 179 179
179 179 179
179 179 179
179 179 179
179 179 179
179 179 179
179 179 179
179 179 179
179 179 179
179 179 179
179 179 179
179 179 179
179 179 179
179 179 179
179 179 179
179 179 179
7 112 167
13 107 180
18 103 189
23 99 196
28 95 201
33 91 205
37 87 209
42 83 211
46 80 214
50 76 216
55 73 217
59 69 219
63 66 220
67 63 220
71 60 221
75 57 221
192 191 218
83 51 220
87 48 219
91 45 219
95 42 218
99 40 216
103 37 215
107 34 213
111 32 211
115 29 208
118 27 206
122 24 203
126 22 199
130 19 196
133 17 192
137 15 187
141 12 182
145 10 175
148 8 168
152 6 158
155 4 144
179 179 179
179 179 179
179 179 179
179 179 179
179 179 179
179 179 179
179 179 179
179 179 179
179 179 179
179 179 179
179 179 179
179 179 179
179 179 179
179 179 179
179 179 179
179 179 179
179 179 179
179 179 179
179 179 179
179 179 179
179 179 179
179 179 179
179 179 179
179 179 179
179 179 179
179 179 179
179 179 179
179 179 179
179 179 179
179 179 179
179 179 179
179 179 179
179 179 179
179 179 179
179 179 179
179 179 179
179 179 179
179 179 179
179 179 179
179 179 179
179 179 179
179 179 179
179 179 179
179 179 179
179 179 179
179 179 179
179 179 179
179 179 179
179 179 179
179 179 179
179 179 179
179 179 179
179 179 179
179 179 179
179 179 179
179 179 179
179 179 179
179 179 179
179 179 179
179 179 179
179 179 179
179 179 179
179 179 179
179 179 179
179 179 179
179 179 179
179 179 179
179 179 179
179 179 179
179 179 179
179 179 179
179 179 179
179 179 179
179 179 179
179 179 179
179 179 179
179 179 179
179 179 179
179 179 179
179 179 179
179 179 179
179 179 179
179 179 179
179 179 179
179 179 179
179 179 179
179 179 179
179 179 179
179 179 179
179 179 179
179 179 179
179 179 179
179 179 179
179 179 179
179 179 179
179 179 179
179 179 179
179 179 179
179 179 179
179 179 179
179 179 179
179 179 179
179 179 179
179 179 179
179 179 179
179 179 179
179 179 179
179 179 179
179 179 179
179 179 179
179 179 179
179 179 179
179 179 179
179 179 179
179 179 179
179 179 179
179 179 179
179 179 179
179 179 179
179 179 179
179 179 179
179 179 179
179 179 179
179 179 179
179 179 179
179 179 179
179 179 179
179 179 179
179 179 179
179 179 179
179 179 179
179 179 179
179 179 179
179 179 179
179 179 179
179 179 179
179 179 179
179 179 179
179 179 179
179 179 179
179 179 179
179 179 179
179 179 179
179 179 179
179 179 179
179 179 179
179 179 179
179 179 179
179 179 179
179 179 179
179 179 179
179 179 179
179 179 179
179 179 179
179 179 179
179 179 179
179 179 179
179 179 179
179 179 179
179 179 179
179 179 179
179 179 179
179 179 179
179 179 179
179 179 179
179 179 179
179 179 179
179 179 179
179 179 179
179 179 179
179 179 179
179 179 179
179 179 179
179 179 179
179 179 179
179 179 179
179 179 179
179 179 179
179 179 179
179 179 179
179 179 179
179 179 179
179 179 179
179 179 179
179 179 179
179 179 179
179 179 179
179 179 179
179 179 179
179 179 179
179 179 179
179 179 179
179 179 179
179 179 179
0 0 0
0 0 0
0 0 0
0 0 0
0 0 0
0 0 0
0 0 0
0 0 0
0 0 0
0 0 0
0 0 0
0 0 0
0 0 0
0 0 0
0 0 0
0 0 0
0 0 0
0 0 0
0 0 0
0 0 0
0 0 0
0 0 0
0 0 0
0 0 0
0 0 0
0 0 0
0 0 0
0 0 0
0 0 0
0 0 0
0 0 0
0 0 0
0 0 0
0 0 0
0 0 0
0 0 0
0 0 0
0 0 0
0 0 0
0 0 0
0 0 0
0 0 0
0 0 0
0 0 0
0 0 0
0 0 0
179 179 179
179 179 179
179 179 179
179 179 179
179 179 179
179 179 179
179 179 179
179 179 179
179 179 179
179 179 179
179 179 179
179 179 179
179 179 179
179 179 179
179 179 179
179 179 179
179 179 179
179 179 179
179 179 179
179 179 179
179 179 179
179 179 179
179 179 179
179 179 179
179 179 179
179 179 179
179 179 179
179 179 179
179 179 179
179 179 179
179 179 179
179 179 179
179 179 179
179 179 179
179 179 179
179 179 179
179 179 179
179 179 179
179 179 179
179 179 179
179 179 179
179 179 179
179 179 179
179 179 179
179 179 179
179 179 179
179 179 179
179 179 179
179 179 179
179 179 179
179 179 179
179 179 179
179 179 179
179 179 179
179 179 179
179 179 179
179 179 179
179 179 179
179 179 179
179 179 179
179 179 179
179 179 179
179 179 179
179 179 179
179 179 179
179 179 179
179 179 179
179 179 179
179 179 179
179 179 179
179 179 179
179 179 179
179 179 179
179 179 179
179 179 179
179 179 179
179 179 179
179 179 179
179 179 179
179 179 179
179 179 179
179 179 179
179 179 179
179 179 179
179 179 179
179 179 179
179 179 179
179 179 179
179 179 179
179 179 179
179 179 179
179 179 179
179 179 179
179 179 179
179 179 179
179 179 179
179 179 179
179 179 179
179 179 179
179 179 179
179 179 179
179 179 179
179 179 179
179 179 179
179 179 179
179 179 179
179 179 179
179 179 179
179 179 179
179 179 179
179 179 179
179 179 179
179 179 179
179 179 179
179 179 179
179 179 179
179 179 179
179 179 179
179 179 179
179 179 179
179 179 179
179 179 179
6 115 167
12 110 180
18 105 189
23 101 196
27 97 201
32 93 205
37 89 209
41 85 212
45 82 214
50 78 216
54 75 218
58 71 219
62 68 220
66 65 221
70 62 221
74 59 221
78 56 221
82 53 221
86 50 220
90 47 220
94 44 219
98 41 217
102 38 216
106 36 214
110 33 212
113 31 210
117 28 207
121 25 204
125 23 201
128 21 198
132 18 194
136 16 189
140 13 184
143 11 179
147 9 172
150 7 163
154 5 152
157 3 127
179 179 179
179 179 179
179 179 179
179 179 179
179 179 179
179 179 179
179 179 179
179 179 179
179 179 179
179 179 179
179 179 179
179 179 179
179 179 179
179 179 179
179 179 179
179 179 179
179 179 179
179 179 179
179 179 179
179 179 179
179 179 179
179 179 179
179 179 179
179 179 179
179 179 179
179 179 179
179 179 179
179 179 179
179 179 179
179 179 179
179 179 179
179 179 179
179 179 179
179 179 179
179 179 179
179 179 179
179 179 179
179 179 179
179 179 179
179 179 179
179 179 179
179 179 179
179 179 179
179 179 179
179 179 179
179 179 179
179 179 179
179 179 179
179 179 179
179 179 179
179 179 179
179 179 179
179 179 179
179 179 179
179 179 179
179 179 179
179 179 179
179 179 179
179 179 179
179 179 179
179 179 179
179 179 179
179 179 179
179 179 179
179 179 179
179 179 179
179 179 179
179 179 179
179 179 179
179 179 179
179 179 179
179 179 179
179 179 179
179 179 179
179 179 179
179 179 179
179 179 179
179 179 179
179 179 179
179 179 179
179 179 179
179 179 179
179 179 179
179 179 179
179 179 179
179 179 179
179 179 179
179 179 179
179 179 179
179 179 179
179 179 179
179 179 179
179 179 179
179 179 179
179 179 179
179 179 179
179 179 179
179 179 179
179 179 179
179 179 179
179 179 179
179 179 179
179 179 179
179 179 179
179 179 179
179 179 179
179 179 179
179 179 179
179 179 179
179 179 179
179 179 179
179 179 179
179 179 179
179 179 179
179 179 179
179 179 179
179 179 179
179 179 179
179 179 179
179 179 179
179 179 179
179 179 179
179 179 179
179 179 179
179 179 179
179 179 179
179 179 179
179 179 179
179 179 179
179 179 179
179 179 179
179 179 179
179 179 179
179 179 179
179 179 179
179 179 179
179 179 179
179 179 179
179 179 179
179 179 179
179 179 179
179 179 179
179 179 179
179 179 179
179 179 179
179 179 179
179 179 179
179 179 179
179 179 179
179 179 179
179 179 179
179 179 179
179 179 179
179 179 179
179 179 179
179 179 179
179 179 179
179 179 179
179 179 179
179 179 179
179 179 179
179 179 179
179 179 179
179 179 179
179 179 179
179 179 179
179 179 179
179 179 179
179 179 179
179 179 179
179 179 179
179 179 179
179 179 179
179 179 179
179 179 179
179 179 179
179 179 179
179 179 179
179 179 179
179 179 179
179 179 179
179 179 179
179 179 179
179 179 179
179 179 179
179 179 179
179 179 179
179 179 179
179 179 179
179 179 179
179 179 179
179 179 179
179 179 179
179 179 179
179 179 179
179 179 179
179 179 179
179 179 179
179 179 179
0 0 0
0 0 0
0 0 0
0 0 0
0 0 0
0 0 0
0 0 0
0 0 0
0 0 0
0 0 0
0 0 0
0 0 0
0 0 0
0 0 0
0 0 0
0 0 0
0 0 0
0 0 0
0 0 0
0 0 0
0 0 0
0 0 0
0 0 0
0 0 0
0 0 0
0 0 0
0 0 0
0 0 0
0 0 0
0 0 0
0 0 0
0 0 0
0 0 0
0 0 0
0 0 0
0 0 0
179 179 179
179 179 179
179 179 179
179 179 179
179 179 179
179 179 179
179 179 179
179 179 179
179 179 179
179 179 179
179 179 179
179 179 179
179 179 179
179 179 179
179 179 179
179 179 179
179 179 179
179 179 179
179 179 179
179 179 179
179 179 179
179 179 179
179 179 179
179 179 179
179 179 179
179 179 179
179 179 179
179 179 179
179 179 179
179 179 179
179 179 179
179 179 179
179 179 179
179 179 179
179 179 179
179 179 179
179 179 179
179 179 179
179 179 179
179 179 179
179 179 179
179 179 179
179 179 179
179 179 179
179 179 179
179 179 179
179 179 179
179 179 179
179 179 179
179 179 179
179 179 179
179 179 179
179 179 179
179 179 179
179 179 179
179 179 179
179 179 179
179 179 179
179 179 179
179 179 179
179 179 179
179 179 179
179 179 179
179 179 179
179 179 179
179 179 179
179 179 179
179 179 179
179 179 179
179 179 179
179 179 179
179 179 179
179 179 179
179 179 179
179 179 179
179 179 179
179 179 179
179 179 179
179 179 179
179 179 179
179 179 179
179 179 179
179 179 179
179 179 179
179 179 179
179 179 179
179 179 179
179 179 179
179 179 179
179 179 179
179 179 179
179 179 179
179 179 179
179 179 179
179 179 179
179 179 179
179 179 179
179 179 179
179 179 179
179 179 179
179 179 179
179 179 179
179 179 179
179 179 179
179 179 179
179 179 179
179 179 179
179 179 179
179 179 179
179 179 179
179 179 179
179 179 179
179 179 179
179 179 179
179 179 179
179 179 179
179 179 179
179 179 179
179 179 179
179 179 179
179 179 179
179 179 179
179 179 179
179 179 179
179 179 179
179 179 179
6 117 167
12 112 180
17 107 189
22 103 196
27 99 201
32 95 206
36 91 209
40 87 212
45 84 215
49 80 217
53 77 218
57 73 220
61 70 221
66 67 221
70 63 222
74 60 222
78 57 222
81 54 222
85 51 221
89 48 221
93 45 220
97 43 218
101 40 217
105 37 215
108 35 213
112 32 211
116 29 209
120 27 206
123 24 203
127 22 200
131 19 196
135 17 192
138 15 187
142 12 182
145 10 175
149 8 168
153 6 158
156 4 143
179 179 179
179 179 179
179 179 179
179 179 179
179 179 179
179 179 179
179 179 179
179 179 179
179 179 179
179 179 179
179 179 179
179 179 179
179 179 179
179 179 179
179 179 179
179 179 179
179 179 179
179 179 179
179 179 179
179 179 179
179 179 179
179 179 179
179 179 179
179 179 179
179 179 179
179 179 179
179 179 179
179 179 179
179 179 179
179 179 179
179 179 179
179 179 179
179 179 179
179 179 179
179 179 179
179 179 179
179 179 179
179 179 179
179 179 179
179 179 179
179 179 179
179 179 179
179 179 179
179 179 179
179 179 179
179 179 179
179 179 179
179 179 179
179 179 179
179 179 179
179 179 179
179 179 179
179 179 179
179 179 179
179 179 179
179 179 179
179 179 179
179 179 179
179 179 179
179 179 179
179 179 179
179 179 179
179 179 179
179 179 179
179 179 179
179 179 179
179 179 179
179 179 179
179 179 179
179 179 179
179 179 179
179 179 179
179 179 179
179 179 179
179 179 179
179 179 179
179 179 179
179 179 179
179 179 179
179 179 179
179 179 179
179 179 179
179 179 179
179 179 179
179 179 179
179 179 179
179 179 179
179 179 179
179 179 179
179 179 179
179 179 179
179 179 179
179 179 179
179 179 179
179 179 179
179 179 179
179 179 179
179 179 179
179 179 179
179 179 179
179 179 179
179 179 179
179 179 179
179 179 179
179 179 179
179 179 179
179 179 179
179 179 179
179 179 179
179 179 179
179 179 179
179 179 179
179 179 179
179 179 179
179 179 179
179 179 179
179 179 179
179 179 179
179 179 179
179 179 179
179 179 179
179 179 179
179 179 179
179 179 179
179 179 179
179 179 179
179 179 179
179 179 179
179 179 179
179 179 179
179 179 179
179 179 179
179 179 179
179 179 179
179 179 179
179 179 179
179 179 179
179 179 179
179 179 179
179 179 179
179 179 179
179 179 179
179 179 179
179 179 179
179 179 179
179 179 179
179 179 179
179 179 179
179 179 179
179 179 179
179 179 179
179 179 179
179 179 179
179 179 179
179 179 179
179 179 179
179 179 179
179 179 179
179 179 179
179 179 179
179 179 179
179 179 179
179 179 179
179 179 179
179 179 179
179 179 179
179 179 179
179 179 179
179 179 179
179 179 179
179 179 179
179 179 179
179 179 179
179 179 179
179 179 179
179 179 179
179 179 179
179 179 179
179 179 179
179 179 179
179 179 179
179 179 179
179 179 179
179 179 179
179 179 179
179 179 179
179 179 179
179 179 179
179 179 179
179 179 179
179 179 179
179 179 179
179 179 179
179 179 179
179 179 179
179 179 179
179 179 179
179 179 179
179 179 179
179 179 179
179 179 179
179 179 179
179 179 179
179 179 179
179 179 179
179 179 179
179 179 179
0 0 0
0 0 0
0 0 0
0 0 0
0 0 0
0 0 0
0 0 0
0 0 0
0 0 0
0 0 0
0 0 0
0 0 0
0 0 0
0 0 0
0 0 0
0 0 0
0 0 0
0 0 0
0 0 0
0 0 0
0 0 0
0 0 0
179 179 179
179 179 179
179 179 179
179 179 179
179 179 179
179 179 179
179 179 179
179 179 179
179 179 179
179 179 179
179 179 179
179 179 179
179 179 179
179 179 179
179 179 179
179 179 179
179 179 179
179 179 179
179 179 179
179 179 179
179 179 179
179 179 179
179 179 179
179 179 179
179 179 179
179 179 179
179 179 179
179 179 179
179 179 179
179 179 179
179 179 179
179 179 179
179 179 179
179 179 179
179 179 179
179 179 179
179 179 179
179 179 179
179 179 179
179 179 179
179 179 179
179 179 179
179 179 179
179 179 179
179 179 179
179 179 179
179 179 179
179 179 179
179 179 179
179 179 179
179 179 179
179 179 179
179 179 179
179 179 179
179 179 179
179 179 179
179 179 179
179 179 179
179 179 179
179 179 179
179 179 179
179 179 179
179 179 179
179 179 179
179 179 179
179 179 179
179 179 179
179 179 179
179 179 179
179 179 179
179 179 179
179 179 179
179 179 179
179 179 179
179 179 179
179 179 179
179 179 179
179 179 179
179 179 179
179 179 179
179 179 179
179 179 179
179 179 179
179 179 179
179 179 179
179 179 179
179 179 179
179 179 179
179 179 179
179 179 179
179 179 179
179 179 179
179 179 179
179 179 179
179 179 179
179 179 179
179 179 179
179 179 179
179 179 179
179 179 179
179 179 179
179 179 179
179 179 179
179 179 179
179 179 179
179 179 179
179 179 179
179 179 179
179 179 179
179 179 179
179 179 179
179 179 179
179 179 179
179 179 179
179 179 179
179 179 179
179 179 179
179 179 179
179 179 179
179 179 179
179 179 179
179 179 179
179 179 179
179 179 179
179 179 179
179 179 179
179 179 179
179 179 179
179 179 179
179 179 179
179 179 179
179 179 179
6 119 167
12 114 180
17 109 189
22 105 196
27 101 202
31 97 206
36 93 210
40 89 213
44 85 215
48 82 217
53 78 219
57 75 220
61 72 221
65 68 222
69 65 223
73 62 223
77 59 223
81 56 223
85 53 222
88 50 221
92 47 221
96 44 219
100 41 218
104 39 217
107 36 215
111 33 213
115 31 210
119 28 208
122 26 205
126 23 202
130 21 198
133 18 194
137 16 189
141 14 184
144 11 178
148 9 171
151 7 163
155 5 151
179 179 179
179 179 179
179 179 179
179 179 179
179 179 179
179 179 179
179 179 179
179 179 179
179 179 179
179 179 179
179 179 179
179 179 179
179 179 179
179 179 179
179 179 179
179 179 179
179 179 179
179 179 179
179 179 179
179 179 179
179 179 179
179 179 179
179 179 179
179 179 179
179 179 179
179 179 179
179 179 179
179 179 179
179 179 179
179 179 179
179 179 179
179 179 179
179 179 179
179 179 179
179 179 179
179 179 179
179 179 179
179 179 179
179 179 179
179 179 179
179 179 179
179 179 179
179 179 179
179 179 179
179 179 179
179 179 179
179 179 179
179 179 179
179 179 179
179 179 179
179 179 179
179 179 179
179 179 179
179 179 179
179 179 179
179 179 179
179 179 179
179 179 179
179 179 179
179 179 179
179 179 179
179 179 179
179 179 179
179 179 179
179 179 179
179 179 179
179 179 179
179 179 179
179 179 179
179 179 179
179 179 179
179 179 179
179 179 179
179 179 179
179 179 179
179 179 179
179 179 179
179 179 179
179 179 179
179 179 179
179 179 179
179 179 179
179 179 179
179 179 179
179 179 179
179 179 179
179 179 179
179 179 179
179 179 179
179 179 179
179 179 179
179 179 179
179 179 179
179 179 179
179 179 179
179 179 179
179 179 179
179 179 179
179 179 179
179 179 179
179 179 179
179 179 179
179 179 179
179 179 179
179 179 179
179 179 179
179 179 179
179 179 179
179 179 179
179 179 179
179 179 179
179 179 179
179 179 179
179 179 179
179 179 179
179 179 179
179 179 179
179 179 179
179 179 179
179 179 179
179 179 179
179 179 179
179 179 179
179 179 179
179 179 179
179 179 179
179 179 179
179 179 179
179 179 179
179 179 179
179 179 179
179 179 179
179 179 179
179 179 179
179 179 179
179 179 179
179 179 179
179 179 179
179 179 179
179 179 179
179 179 179
179 179 179
179 179 179
179 179 179
179 179 179
179 179 179
179 179 179
179 179 179
179 179 179
179 179 179
179 179 179
179 179 179
179 179 179
179 179 179
179 179 179
179 179 179
179 179 179
179 179 179
179 179 179
179 179 179
179 179 179
179 179 179
179 179 179
179 179 179
179 179 179
179 179 179
179 179 179
179 179 179
179 179 179
179 179 179
179 179 179
179 179 179
179 179 179
179 179 179
179 179 179
179 179 179
179 179 179
179 179 179
179 179 179
179 179 179
179 179 179
179 179 179
179 179 179
179 179 179
179 179 179
179 179 179
179 179 179
179 179 179
179 179 179
179 179 179
179 179 179
179 179 179
179 179 179
179 179 179
179 179 179
179 179 179
179 179 179
179 179 179
179 179 179
179 179 179
179 179 179
179 179 179
179 179 179
179 179 179
179 179 179
179 179 179
179 179 179
179 179 179
179 179 179
179 179 179
179 179 179
179 179 179
179 179 179
179 179 179
179 179 179
179 179 179
179 179 179
179 179 179
179 179 179
179 179 179
179 179 179
179 179 179
179 179 179
179 179 179
179 179 179
179 179 179
179 179 179
179 179 179
179 179 179
179 179 179
179 179 179
179 179 179
179 179 179
179 179 179
179 179 179
179 179 179
179 179 179
179 179 179
179 179 179
179 179 179
179 179 179
179 179 179
179 179 179
179 179 179
179 179 179
179 179 179
179 179 179
179 179 179
179 179 179
179 179 179
179 179 179
179 179 179
179 179 179
179 179 179
179 179 179
179 179 179
179 179 179
179 179 179
179 179 179
179 179 179
179 179 179
179 179 179
179 179 179
179 179 179
179 179 179
179 179 179
179 179 179
179 179 179
179 179 179
179 179 179
179 179 179
179 179 179
179 179 179
179 179 179
179 179 179
179 179 179
179 179 179
179 179 179
179 179 179
179 179 179
179 179 179
179 179 179
179 179 179
179 179 179
179 179 179
179 179 179
179 179 179
179 179 179
179 179 179
179 179 179
179 179 179
179 179 179
179 179 179
179 179 179
179 179 179
179 179 179
179 179 179
179 179 179
179 179 179
179 179 179
179 179 179
179 179 179
179 179 179
179 179 179
179 179 179
179 179 179
179 179 179
179 179 179
179 179 179
179 179 179
179 179 179
179 179 179
179 179 179
179 179 179
179 179 179
179 179 179
179 179 179
179 179 179
179 179 179
179 179 179
179 179 179
179 179 179
179 179 179
179 179 179
179 179 179
179 179 179
179 179 179
179 179 179
179 179 179
179 179 179
179 179 179
179 179 179
179 179 179
179 179 179
179 179 179
179 179 179
179 179 179
179 179 179
179 179 179
179 179 179
179 179 179
179 179 179
179 179 179
179 179 179
179 179 179
179 179 179
179 179 179
179 179 179
179 179 179
179 179 179
179 179 179
179 179 179
179 179 179
179 179 179
179 179 179
179 179 179
179 179 179
179 179 179
179 179 179
179 179 179
179 179 179
6 122 167
12 116 181
17 112 190
22 107 197
26 103 202
31 99 206
35 95 210
40 91 213
44 87 216
48 84 218
52 80 219
56 77 221
60 73 222
64 70 223
68 67 223
72 64 224
76 61 224
80 57 223
84 54 223
88 51 222
91 49 222
95 46 220
99 43 219
103 40 218
106 37 216
110 35 214
114 32 212
117 29 209
121 27 206
125 24 203
128 22 200
132 19 196
136 17 192
122 236 195
143 12 181
146 10 175
150 8 167
153 6 157
157 4 141
179 179 179
179 179 179
179 179 179
179 179 179
179 179 179
179 179 179
179 179 179
179 179 179
179 179 179
179 179 179
179 179 179
179 179 179
179 179 179
179 179 179
179 179 179
179 179 179
179 179 179
179 179 179
179 179 179
179 179 179
179 179 179
179 179 179
179 179 179
179 179 179
179 179 179
179 179 179
179 179 179
179 179 179
179 179 179
179 179 179
179 179 179
179 179 179
179 179 179
179 179 179
179 179 179
179 179 179
179 179 179
179 179 179
179 179 179
179 179 179
179 179 179
179 179 179
179 179 179
179 179 179
179 179 179
179 179 179
179 179 179
179 179 179
179 179 179
179 179 179
179 179 179
179 179 179
179 179 179
179 179 179
179 179 179
179 179 179
179 179 179
179 179 179
179 179 179
179 179 179
179 179 179
179 179 179
179 179 179
179 179 179
179 179 179
179 179 179
179 179 179
179 179 179
179 179 179
179 179 179
179 179 179
179 179 179
179 179 179
179 179 179
179 179 179
179 179 179
179 179 179
179 179 179
179 179 179
179 179 179
179 179 179
179 179 179
179 179 179
179 179 179
179 179 179
179 179 179
179 179 179
179 179 179
179 179 179
179 179 179
179 179 179
179 179 179
179 179 179
179 179 179
179 179 179
179 179 179
179 179 179
179 179 179
179 179 179
179 179 179
179 179 179
179 179 179
179 179 179
179 179 179
179 179 179
179 179 179
179 179 179
179 179 179
179 179 179
179 179 179
179 179 179
179 179 179
179 179 179
179 179 179
179 179 179
179 179 179
179 179 179
179 179 179
179 179 179
179 179 179
179 179 179
179 179 179
179 179 179
179 179 179
179 179 179
179 179 179
179 179 179
179 179 179
179 179 179
179 179 179
179 179 179
179 179 179
179 179 179
179 179 179
179 179 179
179 179 179
179 179 179
179 179 179
179 179 179
179 179 179
179 179 179
179 179 179
179 179 179
179 179 179
179 179 179
179 179 179
179 179 179
179 179 179
179 179 179
179 179 179
179 179 179
179 179 179
179 179 179
179 179 179
179 179 179
179 179 179
179 179 179
179 179 179
179 179 179
179 179 179
179 179 179
179 179 179
179 179 179
179 179 179
179 179 179
179 179 179
179 179 179
179 179 179
179 179 179
179 179 179
179 179 179
179 179 179
179 179 179
179 179 179
179 179 179
179 179 179
179 179 179
179 179 179
179 179 179
179 179 179
179 179 179
179 179 179
179 179 179
179 179 179
179 179 179
179 179 179
179 179 179
179 179 179
179 179 179
179 179 179
179 179 179
179 179 179
179 179 179
179 179 179
179 179 179
179 179 179
179 179 179
179 179 179
179 179 179
179 179 179
179 179 179
179 179 179
179 179 179
179 179 179
179 179 179
179 179 179
179 179 179
179 179 179
179 179 179
179 179 179
179 179 179
179 179 179
179 179 179
179 179 179
179 179 179
179 179 179
179 179 179
179 179 179
179 179 179
179 179 179
179 179 179
179 179 179
179 179 179
179 179 179
179 179 179
179 179 179
179 179 179
179 179 179
179 179 179
179 179 179
179 179 179
179 179 179
179 179 179
179 179 179
179 179 179
179 179 179
179 179 179
179 179 179
179 179 179
179 179 179
179 179 179
179 179 179
179 179 179
179 179 179
179 179 179
179 179 179
179 179 179
179 179 179
179 179 179
179 179 179
179 179 179
179 179 179
179 179 179
179 179 179
179 179 179
179 179 179
179 179 179
179 179 179
179 179 179
179 179 179
179 179 179
179 179 179
179 179 179
179 179 179
179 179 179
179 179 179
179 179 179
179 179 179
179 179 179
179 179 179
179 179 179
179 179 179
179 179 179
179 179 179
179 179 179
179 179 179
179 179 179
179 179 179
179 179 179
179 179 179
179 179 179
179 179 179
179 179 179
179 179 179
179 179 179
179 179 179
179 179 179
179 179 179
179 179 179
179 179 179
179 179 179
179 179 179
179 179 179
179 179 179
179 179 179
179 179 179
179 179 179
179 179 179
179 179 179
179 179 179
179 179 179
179 179 179
179 179 179
179 179 179
179 179 179
179 179 179
179 179 179
179 179 179
179 179 179
179 179 179
179 179 179
179 179 179
179 179 179
179 179 179
179 179 179
179 179 179
179 179 179
179 179 179
179 179 179
179 179 179
179 179 179
179 179 179
179 179 179
179 179 179
179 179 179
179 179 179
179 179 179
179 179 179
179 179 179
179 179 179
179 179 179
179 179 179
179 179 179
179 179 179
179 179 179
179 179 179
179 179 179
179 179 179
179 179 179
179 179 179
179 179 179
179 179 179
179 179 179
179 179 179
179 179 179
179 179 179
179 179 179
179 179 179
179 179 179
179 179 179
179 179 179
179 179 179
179 179 179
179 179 179
179 179 179
179 179 179
179 179 179
179 179 179
179 179 179
179 179 179
6 124 167
12 118 181
17 114 190
22 109 197
26 105 202
31 101 207
35 97 210
39 93 213
43 89 216
48 86 218
52 82 220
56 79 221
60 75 223
64 72 223
68 69 224
71 65 224
75 62 224
79 59 224
83 56 224
87 53 223
91 50 222
94 47 221
98 44 220
102 42 219
105 39 217
109 36 215
113 33 213
116 31 211
120 28 208
124 26 205
127 23 202
131 21 198
135 18 194
138 16 189
142 13 184
145 11 178
149 9 171
152 7 162
155 5 149
179 179 179
179 179 179
179 179 179
179 179 179
179 179 179
179 179 179
179 179 179
179 179 179
179 179 179
179 179 179
179 179 179
179 179 179
179 179 179
179 179 179
179 179 179
179 179 179
179 179 179
179 179 179
179 179 179
179 179 179
179 179 179
179 179 179
179 179 179
179 179 179
179 179 179
179 179 179
179 179 179
179 179 179
179 179 179
179 179 179
179 179 179
179 179 179
179 179 179
179 179 179
179 179 179
179 179 179
179 179 179
179 179 179
179 179 179
179 179 179
179 179 179
179 179 179
179 179 179
179 179 179
179 179 179
179 179 179
179 179 179
179 179 179
179 179 179
179 179 179
179 179 179
179 179 179
179 179 179
179 179 179
179 179 179
179 179 179
179 179 179
179 179 179
179 179 179
179 179 179
179 179 179
179 179 179
179 179 179
179 179 179
179 179 179
179 179 179
179 179 179
179 179 179
179 179 179
179 179 179
179 179 179
179 179 179
179 179 179
179 179 179
179 179 179
179 179 179
179 179 179
179 179 179
179 179 179
179 179 179
179 179 179
179 179 179
179 179 179
179 179 179
179 179 179
179 179 179
179 179 179
179 179 179
179 179 179
179 179 179
179 179 179
179 179 179
179 179 179
179 179 179
179 179 179
179 179 179
179 179 179
179 179 179
179 179 179
179 179 179
179 179 179
179 179 179
179 179 179
179 179 179
179 179 179
179 179 179
179 179 179
179 179 179
179 179 179
179 179 179
179 179 179
179 179 179
179 179 179
179 179 179
179 179 179
179 179 179
179 179 179
179 179 179
179 179 179
179 179 179
179 179 179
179 179 179
179 179 179
179 179 179
179 179 179
179 179 179
179 179 179
179 179 179
179 179 179
179 179 179
179 179 179
179 179 179
179 179 179
179 179 179
179 179 179
179 179 179
179 179 179
179 179 179
179 179 179
179 179 179
179 179 179
179 179 179
179 179 179
179 179 179
179 179 179
179 179 179
179 179 179
179 179 179
179 179 179
179 179 179
179 179 179
179 179 179
179 179 179
179 179 179
179 179 179
179 179 179
179 179 179
179 179 179
179 179 179
179 179 179
179 179 179
179 179 179
179 179 179
179 179 179
179 179 179
179 179 179
179 179 179
179 179 179
179 179 179
179 179 179
179 179 179
179 179 179
179 179 179
179 179 179
179 179 179
179 179 179
179 179 179
179 179 179
179 179 179
179 179 179
179 179 179
179 179 179
179 179 179
179 179 179
179 179 179
179 179 179
179 179 179
179 179 179
179 179 179
179 179 179
179 179 179
179 179 179
179 179 179
179 179 179
179 179 179
179 179 179
179 179 179
179 179 179
179 179 179
179 179 179
179 179 179
179 179 179
179 179 179
179 179 179
179 179 179
179 179 179
179 179 179
179 179 179
179 179 179
179 179 179
179 179 179
179 179 179
179 179 179
179 179 179
179 179 179
179 179 179
179 179 179
179 179 179
179 179 179
179 179 179
179 179 179
179 179 179
179 179 179
179 179 179
179 179 179
179 179 179
179 179 179
179 179 179
179 179 179
179 179 179
179 179 179
179 179 179
179 179 179
179 179 179
179 179 179
179 179 179
179 179 179
179 179 179
179 179 179
179 179 179
179 179 179
179 179 179
179 179 179
179 179 179
179 179 179
179 179 179
179 179 179
179 179 179
179 179 179
179 179 179
179 179 179
179 179 179
179 179 179
179 179 179
179 179 179
179 179 179
179 179 179
179 179 179
179 179 179
179 179 179
179 179 179
179 179 179
179 179 179
179 179 179
179 179 179
179 179 179
179 179 179
179 179 179
179 179 179
179 179 179
179 179 179
179 179 179
179 179 179
179 179 179
179 179 179
179 179 179
179 179 179
179 179 179
179 179 179
179 179 179
179 179 179
179 179 179
179 179 179
179 179 179
179 179 179
179 179 179
179 179 179
179 179 179
179 179 179
179 179 179
179 179 179
179 179 179
179 179 179
179 179 179
179 179 179
179 179 179
179 179 179
179 179 179
179 179 179
179 179 179
179 179 179
179 179 179
179 179 179
179 179 179
179 179 179
179 179 179
179 179 179
179 179 179
179 179 179
179 179 179
179 179 179
179 179 179
179 179 179
179 179 179
179 179 179
179 179 179
179 179 179
179 179 179
179 179 179
179 179 179
179 179 179
179 179 179
179 179 179
179 179 179
179 179 179
179 179 179
179 179 179
179 179 179
179 179 179
179 179 179
179 179 179
179 179 179
179 179 179
179 179 179
179 179 179
179 179 179
179 179 179
179 179 179
179 179 179
179 179 179
179 179 179
179 179 179
179 179 179
179 179 179
179 179 179
179 179 179
179 179 179
179 179 179
179 179 179
179 179 179
179 179 179
179 179 179
179 179 179
179 179 179
179 179 179
179 179 179
179 179 179
179 179 179
179 179 179
179 179 179
6 126 168
12 121 182
17 116 191
247 133 172
26 107 203
30 103 207
35 99 211
39 95 214
43 91 217
47 87 219
51 84 221
55 80 222
59 77 223
63 74 224
67 70 225
202 176 220
75 64 225
78 61 225
82 58 225
86 55 224
90 52 223
177 196 224
97 46 221
101 43 220
105 40 218
108 37 216
156 212 219
115 32 212
119 29 209
123 27 206
126 24 203
130 22 200
133 19 196
137 17 191
141 15 186
144 12 181
148 10 174
151 8 166
154 6 155
157 4 138
179 179 179
179 179 179
179 179 179
179 179 179
179 179 179
179 179 179
179 179 179
179 179 179
179 179 179
179 179 179
179 179 179
179 179 179
179 179 179
179 179 179
179 179 179
179 179 179
179 179 179
179 179 179
179 179 179
179 179 179
179 179 179
179 179 179
179 179 179
179 179 179
179 179 179
179 179 179
179 179 179
179 179 179
179 179 179
179 179 179
179 179 179
179 179 179
179 179 179
179 179 179
179 179 179
179 179 179
179 179 179
179 179 179
179 179 179
179 179 179
179 179 179
179 179 179
179 179 179
179 179 179
179 179 179
179 179 179
179 179 179
179 179 179
179 179 179
179 179 179
179 179 179
179 179 179
179 179 179
179 179 179
179 179 179
179 179 179
179 179 179
179 179 179
179 179 179
179 179 179
179 179 179
179 179 179
179 179 179
179 179 179
179 179 179
179 179 179
179 179 179
179 179 179
179 179 179
179 179 179
179 179 179
179 179 179
179 179 179
179 179 179
179 179 179
179 179 179
179 179 179
179 179 179
179 179 179
179 179 179
179 179 179
179 179 179
179 179 179
179 179 179
179 179 179
179 179 179
179 179 179
179 179 179
179 179 179
179 179 179
179 179 179
179 179 179
179 179 179
179 179 179
179 179 179
179 179 179
179 179 179
179 179 179
179 179 179
179 179 179
179 179 179
179 179 179
179 179 179
179 179 179
179 179 179
179 179 179
179 179 179
179 179 179
179 179 179
179 179 179
179 179 179
179 179 179
179 179 179
179 179 179
179 179 179
179 179 179
179 179 179
179 179 179
179 179 179
179 179 179
179 179 179
179 179 179
179 179 179
179 179 179
179 179 179
179 179 179
179 179 179
179 179 179
179 179 179
179 179 179
179 179 179
179 179 179
179 179 179
179 179 179
179 179 179
179 179 179
179 179 179
179 179 179
179 179 179
179 179 179
179 179 179
179 179 179
179 179 179
179 179 179
179 179 179
179 179 179
179 179 179
179 179 179
179 179 179
179 179 179
179 179 179
179 179 179
179 179 179
179 179 179
179 179 179
179 179 179
179 179 179
179 179 179
179 179 179
179 179 179
179 179 179
179 179 179
179 179 179
179 179 179
179 179 179
179 179 179
179 179 179
179 179 179
179 179 179
179 179 179
179 179 179
179 179 179
179 179 179
179 179 179
179 179 179
179 179 179
179 179 179
179 179 179
179 179 179
179 179 179
179 179 179
179 179 179
179 179 179
179 179 179
179 179 179
179 179 179
179 179 179
179 179 179
179 179 179
179 179 179
179 179 179
179 179 179
179 179 179
179 179 179
179 179 179
179 179 179
179 179 179
179 179 179
179 179 179
179 179 179
179 179 179
179 179 179
179 179 179
179 179 179
179 179 179
179 179 179
179 179 179
179 179 179
179 179 179
179 179 179
179 179 179
179 179 179
179 179 179
179 179 179
179 179 179
179 179 179
179 179 179
179 179 179
179 179 179
179 179 179
179 179 179
179 179 179
179 179 179
179 179 179
179 179 179
179 179 179
179 179 179
179 179 179
179 179 179
179 179 179
179 179 179
179 179 179
179 179 179
179 179 179
179 179 179
179 179 179
179 179 179
179 179 179
179 179 179
179 179 179
179 179 179
179 179 179
179 179 179
179 179 179
179 179 179
179 179 179
179 179 179
179 179 179
179 179 179
179 179 179
179 179 179
179 179 179
179 179 179
179 179 179
179 179 179
179 179 179
179 179 179
179 179 179
179 179 179
179 179 179
179 179 179
179 179 179
179 179 179
179 179 179
179 179 179
179 179 179
179 179 179
179 179 179
179 179 179
179 179 179
179 179 179
179 179 179
179 179 179
179 179 179
179 179 179
179 179 179
179 179 179
179 179 179
179 179 179
179 179 179
179 179 179
179 179 179
179 179 179
179 179 179
179 179 179
179 179 179
179 179 179
179 179 179
179 179 179
179 179 179
179 179 179
179 179 179
179 179 179
179 179 179
179 179 179
179 179 179
179 179 179
179 179 179
179 179 179
179 179 179
179 179 179
179 179 179
179 179 179
179 179 179
179 179 179
179 179 179
179 179 179
179 179 179
179 179 179
179 179 179
179 179 179
179 179 179
179 179 179
179 179 179
179 179 179
179 179 179
179 179 179
179 179 179
179 179 179
179 179 179
179 179 179
179 179 179
179 179 179
179 179 179
179 179 179
179 179 179
179 179 179
179 179 179
179 179 179
179 179 179
179 179 179
179 179 179
179 179 179
179 179 179
179 179 179
179 179 179
179 179 179
179 179 179
179 179 179
179 179 179
179 179 179
179 179 179
179 179 179
179 179 179
179 179 179
179 179 179
179 179 179
179 179 179
179 179 179
179 179 179
179 179 179
179 179 179
179 179 179
179 179 179
179 179 179
179 179 179
179 179 179
179 179 179
179 179 179
6 128 168
12 123 182
17 118 191
21 113 198
26 109 203
30 105 208
35 101 211
39 97 214
43 93 217
47 89 219
51 86 221
55 82 223
59 79 224
63 75 225
66 72 225
70 69 226
74 65 226
78 62 226
82 59 225
85 56 225
89 53 224
93 50 223
96 47 222
100 44 221
104 42 219
107 39 218
111 36 216
115 33 213
118 31 211
122 28 208
125 26 205
129 23 201
132 21 198
136 18 193
139 16 189
143 13 183
146 11 177
150 9 170
153 6 160
156 4 147
179 179 179
179 179 179
179 179 179
179 179 179
179 179 179
179 179 179
179 179 179
179 179 179
179 179 179
179 179 179
179 179 179
179 179 179
179 179 179
179 179 179
179 179 179
179 179 179
179 179 179
179 179 179
179 179 179
179 179 179
179 179 179
179 179 179
179 179 179
179 179 179
179 179 179
179 179 179
179 179 179
179 179 179
179 179 179
179 179 179
179 179 179
179 179 179
179 179 179
179 179 179
179 179 179
179 179 179
179 179 179
179 179 179
179 179 179
179 179 179
179 179 179
179 179 179
179 179 179
179 179 179
179 179 179
179 179 179
179 179 179
179 179 179
179 179 179
179 179 179
179 179 179
179 179 179
179 179 179
179 179 179
179 179 179
179 179 179
179 179 179
179 179 179
179 179 179
179 179 179
179 179 179
179 179 179
179 179 179
179 179 179
179 179 179
179 179 179
179 179 179
179 179 179
179 179 179
179 179 179
179 179 179
179 179 179
179 179 179
179 179 179
179 179 179
179 179 179
179 179 179
179 179 179
179 179 179
179 179 179
179 179 179
179 179 179
179 179 179
179 179 179
179 179 179
179 179 179
179 179 179
179 179 179
179 179 179
179 179 179
179 179 179
179 179 179
179 179 179
179 179 179
179 179 179
179 179 179
179 179 179
179 179 179
179 179 179
179 179 179
179 179 179
179 179 179
179 179 179
179 179 179
179 179 179
179 179 179
179 179 179
179 179 179
179 179 179
179 179 179
179 179 179
179 179 179
179 179 179
179 179 179
179 179 179
179 179 179
179 179 179
179 179 179
179 179 179
179 179 179
179 179 179
179 179 179
179 179 179
179 179 179
179 179 179
179 179 179
179 179 179
179 179 179
179 179 179
179 179 179
179 179 179
179 179 179
179 179 179
179 179 179
179 179 179
179 179 179
179 179 179
179 179 179
179 179 179
179 179 179
179 179 179
179 179 179
179 179 179
179 179 179
179 179 179
179 179 179
179 179 179
179 179 179
179 179 179
179 179 179
179 179 179
179 179 179
179 179 179
179 179 179
179 179 179
179 179 179
179 179 179
179 179 179
179 179 179
179 179 179
179 179 179
179 179 179
179 179 179
179 179 179
179 179 179
179 179 179
179 179 179
179 179 179
179 179 179
179 179 179
179 179 179
179 179 179
179 179 179
179 179 179
179 179 179
179 179 179
179 179 179
179 179 179
179 179 179
179 179 179
179 179 179
179 179 179
179 179 179
179 179 179
179 179 179
179 179 179
179 179 179
179 179 179
179 179 179
179 179 179
179 179 179
179 179 179
179 179 179
179 179 179
179 179 179
179 179 179
179 179 179
179 179 179
179 179 179
179 179 179
179 179 179
179 179 179
179 179 179
179 179 179
179 179 179
179 179 179
179 179 179
179 179 179
179 179 179
179 179 179
179 179 179
179 179 179
179 179 179
179 179 179
179 179 179
179 179 179
179 179 179
179 179 179
179 179 179
179 179 179
179 179 179
179 179 179
179 179 179
179 179 179
179 179 179
179 179 179
179 179 179
179 179 179
179 179 179
179 179 179
179 179 179
179 179 179
179 179 179
179 179 179
179 179 179
179 179 179
179 179 179
179 179 179
179 179 179
179 179 179
179 179 179
179 179 179
179 179 179
179 179 179
179 179 179
179 179 179
179 179 179
179 179 179
179 179 179
179 179 179
179 179 179
179 179 179
179 179 179
179 179 179
179 179 179
179 179 179
179 179 179
179 179 179
179 179 179
179 179 179
179 179 179
179 179 179
179 179 179
179 179 179
179 179 179
179 179 179
179 179 179
179 179 179
179 179 179
179 179 179
179 179 179
179 179 179
179 179 179
179 179 179
179 179 179
179 179 179
179 179 179
179 179 179
179 179 179
179 179 179
179 179 179
179 179 179
179 179 179
179 179 179
179 179 179
179 179 179
179 179 179
179 179 179
179 179 179
179 179 179
179 179 179
179 179 179
179 179 179
179 179 179
179 179 179
179 179 179
179 179 179
179 179 179
179 179 179
179 179 179
179 179 179
179 179 179
179 179 179
179 179 179
179 179 179
179 179 179
179 179 179
179 179 179
179 179 179
179 179 179
179 179 179
179 179 179
179 179 179
179 179 179
179 179 179
179 179 179
179 179 179
179 179 179
179 179 179
179 179 179
179 179 179
179 179 179
179 179 179
179 179 179
179 179 179
179 179 179
179 179 179
179 179 179
179 179 179
179 179 179
179 179 179
179 179 179
179 179 179
179 179 179
179 179 179
179 179 179
179 179 179
179 179 179
179 179 179
179 179 179
179 179 179
179 179 179
179 179 179
179 179 179
179 179 179
179 179 179
179 179 179
179 179 179
179 179 179
179 179 179
179 179 179
179 179 179
179 179 179
179 179 179
179 179 179
179 179 179
179 179 179
179 179 179
179 179 179
7 130 169
12 125 183
17 120 192
22 115 198
26 111 204
30 107 208
35 103 212
39 99 215
43 95 218
47 91 220
51 87 222
55 84 223
58 80 224
62 77 225
66 73 226
70 70 226
74 67 227
77 64 227
81 61 226
85 58 226
88 55 225
92 52 224
96 49 223
170 199 225
103 43 220
107 40 219
110 37 217
114 35 215
117 32 212
121 29 209
124 27 206
128 24 203
131 22 200
135 19 195
138 17 191
142 14 186
145 12 180
149 10 173
152 7 165
155 5 153
158 3 133
179 179 179
179 179 179
179 179 179
179 179 179
179 179 179
179 179 179
179 179 179
179 179 179
179 179 179
179 179 179
179 179 179
179 179 179
179 179 179
179 179 179
179 179 179
179 179 179
179 179 179
179 179 179
179 179 179
179 179 179
179 179 179
179 179 179
179 179 179
179 179 179
179 179 179
179 179 179
179 179 179
179 179 179
179 179 179
179 179 179
179 179 179
179 179 179
179 179 179
179 179 179
179 179 179
179 179 179
179 179 179
179 179 179
179 179 179
179 179 179
179 179 179
179 179 179
179 179 179
179 179 179
179 179 179
179 179 179
179 179 179
179 179 179
179 179 179
179 179 179
179 179 179
179 179 179
179 179 179
179 179 179
179 179 179
179 179 179
179 179 179
179 179 179
179 179 179
179 179 179
179 179 179
179 179 179
179 179 179
179 179 179
179 179 179
179 179 179
179 179 179
179 179 179
179 179 179
179 179 179
179 179 179
179 179 179
179 179 179
179 179 179
179 179 179
179 179 179
179 179 179
179 179 179
179 179 179
179 179 179
179 179 179
179 179 179
179 179 179
179 179 179
179 179 179
179 179 179
179 179 179
179 179 179
179 179 179
179 179 179
179 179 179
179 179 179
179 179 179
179 179 179
179 179 179
179 179 179
179 179 179
179 179 179
179 179 179
179 179 179
179 179 179
179 179 179
179 179 179
179 179 179
179 179 179
179 179 179
179 179 179
179 179 179
179 179 179
179 179 179
179 179 179
179 179 179
179 179 179
179 179 179
179 179 179
179 179 179
179 179 179
179 179 179
179 179 179
179 179 179
179 179 179
179 179 179
179 179 179
179 179 179
179 179 179
179 179 179
179 179 179
179 179 179
179 179 179
179 179 179
179 179 179
179 179 179
179 179 179
179 179 179
179 179 179
179 179 179
179 179 179
179 179 179
179 179 179
179 179 179
179 179 179
179 179 179
179 179 179
179 179 179
179 179 179
179 179 179
179 179 179
179 179 179
179 179 179
179 179 179
179 179 179
179 179 179
179 179 179
179 179 179
179 179 179
179 179 179
179 179 179
179 179 179
179 179 179
179 179 179
179 179 179
179 179 179
179 179 179
179 179 179
179 179 179
179 179 179
179 179 179
179 179 179
179 179 179
179 179 179
179 179 179
179 179 179
179 179 179
179 179 179
179 179 179
179 179 179
179 179 179
179 179 179
179 179 179
179 179 179
179 179 179
179 179 179
179 179 179
179 179 179
179 179 179
179 179 179
179 179 179
179 179 179
179 179 179
179 179 179
179 179 179
179 179 179
179 179 179
179 179 179
179 179 179
179 179 179
179 179 179
179 179 179
179 179 179
179 179 179
179 179 179
179 179 179
179 179 179
179 179 179
179 179 179
179 179 179
179 179 179
179 179 179
179 179 179
179 179 179
179 179 179
179 179 179
179 179 179
179 179 179
179 179 179
179 179 179
179 179 179
179 179 179
179 179 179
179 179 179
179 179 179
179 179 179
179 179 179
179 179 179
179 179 179
179 179 179
179 179 179
179 179 179
179 179 179
179 179 179
179 179 179
179 179 179
179 179 179
179 179 179
179 179 179
179 179 179
179 179 179
179 179 179
179 179 179
179 179 179
179 179 179
179 179 179
179 179 179
179 179 179
179 179 179
179 179 179
179 179 179
179 179 179
179 179 179
179 179 179
179 179 179
179 179 179
179 179 179
179 179 179
179 179 179
179 179 179
179 179 179
179 179 179
179 179 179
179 179 179
179 179 179
179 179 179
179 179 179
179 179 179
179 179 179
179 179 179
179 179 179
179 179 179
179 179 179
179 179 179
179 179 179
179 179 179
179 179 179
179 179 179
179 179 179
179 179 179
179 179 179
179 179 179
179 179 179
179 179 179
179 179 179
179 179 179
179 179 179
179 179 179
179 179 179
179 179 179
179 179 179
179 179 179
179 179 179
179 179 179
179 179 179
179 179 179
179 179 179
179 179 179
179 179 179
179 179 179
179 179 179
179 179 179
179 179 179
179 179 179
179 179 179
179 179 179
179 179 179
179 179 179
179 179 179
179 179 179
179 179 179
179 179 179
179 179 179
179 179 179
179 179 179
179 179 179
179 179 179
179 179 179
179 179 179
179 179 179
179 179 179
179 179 179
179 179 179
179 179 179
179 179 179
179 179 179
179 179 179
179 179 179
179 179 179
179 179 179
179 179 179
179 179 179
179 179 179
179 179 179
179 179 179
179 179 179
179 179 179
179 179 179
179 179 179
179 179 179
179 179 179
179 179 179
179 179 179
179 179 179
179 179 179
179 179 179
179 179 179
179 179 179
179 179 179
179 179 179
179 179 179
179 179 179
179 179 179
179 179 179
179 179 179
179 179 179
179 179 179
179 179 179
179 179 179
179 179 179
179 179 179
179 179 179
7 132 171
12 127 184
17 122 192
22 117 199
26 113 204
30 108 209
35 104 212
39 100 216
43 97 218
47 93 220
51 89 222
54 85 224
58 82 225
62 78 226
66 75 227
69 72 227
73 69 227
77 65 227
81 62 227
84 59 227
88 56 226
91 53 225
95 50 224
99 47 223
102 44 221
106 41 220
109 39 218
113 36 216
116 33 213
120 31 211
123 28 208
127 25 205
130 23 201
134 20 197
137 18 193
141 16 188
144 13 182
148 11 176
151 8 168
154 6 159
157 4 144
179 179 179
179 179 179
179 179 179
179 179 179
179 179 179
179 179 179
179 179 179
179 179 179
179 179 179
179 179 179
179 179 179
179 179 179
179 179 179
179 179 179
179 179 179
179 179 179
179 179 179
179 179 179
179 179 179
179 179 179
179 179 179
179 179 179
